!!!COM: Mozart, Wolfgang Amadeus
!!!OPR: Symphony in G Minor (with clarinetti)
!!!OTL: Andante
!!!OMV: 2
!!!SCT: K 550
!!!SCA: Chronologisch-thematisches Verzeichnis sämtlicher Tonwerke Wolfgang Amade Mozarts (L. von Köchel; 1862, 2/1905, 3/1937, 1947)
!!!YOR: Breitkopf & Härtel Edition
!!!EED: Frances Bennion
!!!ENC: Frances Bennion
!!!CDT: 1756/1/27/-1791/12/5/
!!!OCY: Österreich
!!!YEC: Copyright (c) 1994, 2000 Center for Computer Assisted Research in the Humanities
!!!YEM: Rights to all derivative editions reserved.
!!!YEM: Refer to licensing agreement for further details.
!!!YEN: United States of America
**kern	**dynam	**kern	**dynam	**kern	**dynam	**kern	**dynam	**kern	**dynam	**kern	**dynam	**kern	**dynam	**kern	**dynam	**kern	**dynam
*I:Flauto	*I:Flauto	*I:Oboe 1, 2	*I:Oboe 1, 2	*I:Clarinetto 1, 2 in Bb	*I:Clarinetto 1, 2 in Bb	*I:Fagotto 1, 2	*I:Fagotto 1, 2	*I:Corno 1, 2 in Eb	*I:Corno 1, 2 in Eb	*I:Violino I	*I:Violino I	*I:Violino II	*I:Violino II	*I:Viola	*I:Viola	*I:Violoncello e Basso	*I:Violoncello e Basso
*>[A,A,B,B]	*	*>[A,A,B,B]	*	*>[A,A,B,B]	*	*>[A,A,B,B]	*	*>[A,A,B,B]	*	*>[A,A,B,B]	*	*>[A,A,B,B]	*	*>[A,A,B,B]	*	*>[A,A,B,B]	*
*>A	*	*>A	*	*>A	*	*>A	*	*>A	*	*>A	*	*>A	*	*>A	*	*>A	*
*clefG2	*	*clefG2	*	*clefG2	*	*clefF4	*	*clefG2	*	*clefG2	*	*clefG2	*	*clefC3	*	*clefF4	*
*k[b-e-a-]	*	*k[b-e-a-]	*	*k[b-]	*	*k[b-e-a-]	*	*k[]	*	*k[b-e-a-]	*	*k[b-e-a-]	*	*k[b-e-a-]	*	*k[b-e-a-]	*
*E-:	*	*E-:	*	*E-:	*	*E-:	*	*E-:	*	*E-:	*	*E-:	*	*E-:	*	*E-:	*
*M6/8	*	*M6/8	*	*M6/8	*	*M6/8	*	*M6/8	*	*M6/8	*	*M6/8	*	*M6/8	*	*M6/8	*
! Andante.	!	!	!	!	!	!	!	!	!	!	!	!	!	!	!	!	!
*tb32	*	*tb32	*	*tb32	*	*tb32	*	*tb32	*	*tb32	*	*tb32	*	*tb32	*	*tb32	*
=0-	=0-	=0-	=0-	=0-	=0-	=0-	=0-	=0-	=0-	=0-	=0-	=0-	=0-	=0-	=0-	=0-	=0-
8r	.	8r	.	8r	.	8r	.	8r	.	8r	.	8r	.	8B-/	p	8r	.
2ryy	.	2ryy	.	2ryy	.	2ryy	.	2ryy	.	2ryy	.	2ryy	.	2ryy	.	2ryy	.
8ryy	.	8ryy	.	8ryy	.	8ryy	.	8ryy	.	8ryy	.	8ryy	.	8ryy	.	8ryy	.
=1	=1	=1	=1	=1	=1	=1	=1	=1	=1	=1	=1	=1	=1	=1	=1	=1	=1
*	*	*^	*	*^	*	*^	*	*^	*	*	*	*	*	*	*	*	*
2.r	.	2.r	2.r	.	2.r	2.r	.	2.r	2.r	.	2.r	2.r	.	2.r	.	4r	.	8e-\L	.	8E-\	p
.	.	.	.	.	.	.	.	.	.	.	.	.	.	.	.	.	.	8e-\	.	8r	.
.	.	.	.	.	.	.	.	.	.	.	.	.	.	.	.	8r	.	8e-\J	.	8r	.
.	.	.	.	.	.	.	.	.	.	.	.	.	.	.	.	4r	.	8e-\L	.	8G\	.
.	.	.	.	.	.	.	.	.	.	.	.	.	.	.	.	.	.	8e-\	.	8r	.
.	.	.	.	.	.	.	.	.	.	.	.	.	.	.	.	8B-/	p	8e-\J	.	8r	.
=2	=2	=2	=2	=2	=2	=2	=2	=2	=2	=2	=2	=2	=2	=2	=2	=2	=2	=2	=2	=2	=2
2.r	.	2.r	2.r	.	2.r	2.r	.	2.r	2.r	.	2.r	2.r	.	4r	.	8f/L	.	8e-\L	.	(8A-\L	.
.	.	.	.	.	.	.	.	.	.	.	.	.	.	.	.	8f/	.	8e-\	.	8An\	.
.	.	.	.	.	.	.	.	.	.	.	.	.	.	8r	.	8f/J	.	8e-\J	.	8B-\J	.
.	.	.	.	.	.	.	.	.	.	.	.	.	.	4r	.	8f/L	.	8e-\L	.	8c-\L	.
.	.	.	.	.	.	.	.	.	.	.	.	.	.	.	.	8f/	.	8e-\	.	8B-\	.
.	.	.	.	.	.	.	.	.	.	.	.	.	.	8c/	p	8f/J	.	8e-\J	.	8A\J	.
=3	=3	=3	=3	=3	=3	=3	=3	=3	=3	=3	=3	=3	=3	=3	=3	=3	=3	=3	=3	=3	=3
2.r	.	2.r	2.r	.	2.r	2.r	.	2.r	2.r	.	2.r	2.r	.	8a-/L	.	8f/L	.	(8e-\L	.	4.B-\)	.
.	.	.	.	.	.	.	.	.	.	.	.	.	.	8a-/	.	8f/	.	8d\	.	.	.
.	.	.	.	.	.	.	.	.	.	.	.	.	.	8a-/J	.	8f/J	.	8c\J)	.	.	.
.	.	.	.	.	.	.	.	.	.	.	.	.	.	8a-/L	.	8f/L	.	4.dT\	.	4.BB-/	.
.	.	.	.	.	.	.	.	.	.	.	.	.	.	8a-/	.	8f/	.	.	.	.	.
.	.	.	.	.	.	.	.	.	.	.	.	.	.	8a-/J	.	8f/J	.	.	.	.	.
!	!	!	!	!	!	!	!	!	!	!	!	!	!	!	!	!	!	! (32cP/LLL	!	!	!
!	!	!	!	!	!	!	!	!	!	!	!	!	!	!	!	!	!	! 32dP/JJJ)	!	!	!
=4	=4	=4	=4	=4	=4	=4	=4	=4	=4	=4	=4	=4	=4	=4	=4	=4	=4	=4	=4	=4	=4
2.r	.	2.r	2.r	.	2.r	2.r	.	2.r	2.r	.	8r	8r	.	(8a-/L	.	(8f/L	.	8e-p/L	.	8E-\	.
.	.	.	.	.	.	.	.	.	.	.	8cc/L	8c/L	p	16.g/L	.	16.e-/L	.	8E-/	.	8r	.
.	.	.	.	.	.	.	.	.	.	.	.	.	.	32b-/k	.	32g/k	.	.	.	.	.
.	.	.	.	.	.	.	.	.	.	.	8cc/J	8c/J	.	16.a-/	.	16.f/	.	8E-/J	.	8r	.
.	.	.	.	.	.	.	.	.	.	.	.	.	.	32cc/JJk	.	32a-/JJk	.	.	.	.	.
.	.	.	.	.	.	.	.	.	.	.	8cc/L	8c/L	.	8b-\)	.	8g/)	.	8E-/	.	4r	.
.	.	.	.	.	.	.	.	.	.	.	8cc/	8c/	.	8r	.	8r	.	8r	.	.	.
.	.	.	.	.	.	.	.	.	.	.	8cc/J	8c/J	.	(8ee-\	.	(8e-/	.	8r	.	8r	.
=5	=5	=5	=5	=5	=5	=5	=5	=5	=5	=5	=5	=5	=5	=5	=5	=5	=5	=5	=5	=5	=5
2.r	.	2.r	2.r	.	2.r	2.r	.	2.r	2.r	.	8r	8r	.	4bn\	.	4Bn/	.	8A-/	.	8AA-/	.
.	.	.	.	.	.	.	.	.	.	.	8cc/L	8c/L	.	.	.	.	.	8r	.	8r	.
.	.	.	.	.	.	.	.	.	.	.	8cc/J	8c/J	.	8cc\)	.	8c/)	.	8r	.	8r	.
.	.	.	.	.	.	.	.	.	.	.	8cc/L	8c/L	.	4r	.	4r	.	4r	.	4r	.
.	.	.	.	.	.	.	.	.	.	.	8cc/	8c/	.	.	.	.	.	.	.	.	.
.	.	.	.	.	.	.	.	.	.	.	8cc/J	8c/J	.	(8ee-\	.	(8e-/	.	8r	.	8r	.
=6	=6	=6	=6	=6	=6	=6	=6	=6	=6	=6	=6	=6	=6	=6	=6	=6	=6	=6	=6	=6	=6
2.r	.	2.r	2.r	.	2.r	2.r	.	2.r	2.r	.	8r	8r	.	4an/	.	4An/	.	8G/	.	8GG/	.
.	.	.	.	.	.	.	.	.	.	.	8cc/L	8c/L	.	.	.	.	.	8r	.	8r	.
.	.	.	.	.	.	.	.	.	.	.	8cc/J	8c/J	.	8b-\)	.	8B-/)	.	8r	.	8r	.
.	.	.	.	.	.	.	.	.	.	.	8cc/L	8c/L	.	4r	.	4r	.	4r	.	4r	.
.	.	.	.	.	.	.	.	.	.	.	8cc/	8c/	.	.	.	.	.	.	.	.	.
.	.	.	.	.	.	.	.	.	.	.	8cc/J	8c/J	.	8ee-\	.	8r	.	8r	.	8r	.
=7	=7	=7	=7	=7	=7	=7	=7	=7	=7	=7	=7	=7	=7	=7	=7	=7	=7	=7	=7	=7	=7
2.r	.	2.r	2.r	.	2.r	2.r	.	2.r	2.r	.	2.r	2.r	.	(32dd\LLL	.	8r	.	8r	.	8r	.
.	.	.	.	.	.	.	.	.	.	.	.	.	.	32ff\JJJ)	.	.	.	.	.	.	.
.	.	.	.	.	.	.	.	.	.	.	.	.	.	16r	.	.	.	.	.	.	.
.	.	.	.	.	.	.	.	.	.	.	.	.	.	(8a-z/L	z	(8fz/L	z	4B-z/	z	(8Dz\L	z
.	.	.	.	.	.	.	.	.	.	.	.	.	.	8g/J)	.	8e-/J)	.	.	.	8E-\J)	.
.	.	.	.	.	.	.	.	.	.	.	.	.	.	(32dd\LLL	.	8r	.	8r	.	8r	.
.	.	.	.	.	.	.	.	.	.	.	.	.	.	32ff\JJJ)	.	.	.	.	.	.	.
.	.	.	.	.	.	.	.	.	.	.	.	.	.	16r	.	.	.	.	.	.	.
.	.	.	.	.	.	.	.	.	.	.	.	.	.	(8a-z/L	z	(8fz/L	z	4B-z/	z	(8Dz\L	z
.	.	.	.	.	.	.	.	.	.	.	.	.	.	8g/J)	.	8e-/J)	.	.	.	8E-\J)	.
=8	=8	=8	=8	=8	=8	=8	=8	=8	=8	=8	=8	=8	=8	=8	=8	=8	=8	=8	=8	=8	=8
2.r	.	2.r	2.r	.	2.r	2.r	.	2.r	2.r	.	4r	4r	.	(8b-/L	p	8g/L	p	[4.B-/	p	[4.BB-/	p
.	.	.	.	.	.	.	.	.	.	.	.	.	.	16an/L	.	16g-/L	.	.	.	.	.
.	.	.	.	.	.	.	.	.	.	.	.	.	.	16a-/	.	16f/	.	.	.	.	.
.	.	.	.	.	.	.	.	.	.	.	8r	8r	.	16g/	.	16en/	.	.	.	.	.
.	.	.	.	.	.	.	.	.	.	.	.	.	.	16g-/JJ	.	16e-/JJ	.	.	.	.	.
.	.	.	.	.	.	.	.	.	.	.	4r	4r	.	8f/)	.	8d/	.	8B-/]	.	8BB-/]	.
.	.	.	.	.	.	.	.	.	.	.	.	.	.	8r	.	8r	.	8r	.	8r	.
.	.	.	.	.	.	.	.	.	.	.	8g/	8G/	.	8r	.	8r	.	8r	.	8BB-/	.
=9	=9	=9	=9	=9	=9	=9	=9	=9	=9	=9	=9	=9	=9	=9	=9	=9	=9	=9	=9	=9	=9
2.r	.	2.r	2.r	.	2.r	2.r	.	2.r	2.r	.	8cc/L	8c/L	.	(4.ee-\	.	2.r	.	4r	.	8E-\L	.
.	.	.	.	.	.	.	.	.	.	.	8cc/	8c/	.	.	.	.	.	.	.	8E-\	.
.	.	.	.	.	.	.	.	.	.	.	8cc/J	8c/J	.	.	.	.	.	8r	.	8E-\J	.
.	.	.	.	.	.	.	.	.	.	.	8cc/L	8c/L	.	4.ggn\	.	.	.	4r	.	8E-\L	.
.	.	.	.	.	.	.	.	.	.	.	8cc/	8c/	.	.	.	.	.	.	.	8E-\	.
.	.	.	.	.	.	.	.	.	.	.	8cc/J	8c/J	.	.	.	.	.	8B-/	.	8E-\J	.
=10	=10	=10	=10	=10	=10	=10	=10	=10	=10	=10	=10	=10	=10	=10	=10	=10	=10	=10	=10	=10	=10
2.r	.	2.r	2.r	.	2.r	2.r	.	2.r	2.r	.	2.cc/	2.c/	.	4.aa-\	.	4r	.	8f\L	.	[2.E-\	.
.	.	.	.	.	.	.	.	.	.	.	.	.	.	.	.	.	.	8f\	.	.	.
.	.	.	.	.	.	.	.	.	.	.	.	.	.	.	.	8r	.	8f\J	.	.	.
.	.	.	.	.	.	.	.	.	.	.	.	.	.	4.aan\	.	4r	.	8f\L	.	.	.
.	.	.	.	.	.	.	.	.	.	.	.	.	.	.	.	.	.	8f\	.	.	.
.	.	.	.	.	.	.	.	.	.	.	.	.	.	.	.	8c/	.	8f\J	.	.	.
=11	=11	=11	=11	=11	=11	=11	=11	=11	=11	=11	=11	=11	=11	=11	=11	=11	=11	=11	=11	=11	=11
2.r	.	2.r	2.r	.	2.r	2.r	.	2.r	2.r	.	2.r	2.r	.	4.ccc-\	.	8a-/L	.	8f\L	.	(4.E-\]	.
.	.	.	.	.	.	.	.	.	.	.	.	.	.	.	.	8a-/	.	8f\	.	.	.
.	.	.	.	.	.	.	.	.	.	.	.	.	.	.	.	8a-/J	.	8f\J	.	.	.
.	.	.	.	.	.	.	.	.	.	.	.	.	.	[4.bb-\)	.	8a-/L	.	8f\L	.	4.D\)	.
.	.	.	.	.	.	.	.	.	.	.	.	.	.	.	.	8a-/	.	8f\	.	.	.
.	.	.	.	.	.	.	.	.	.	.	.	.	.	.	.	8a-/J	.	8f\J	.	.	.
=12	=12	=12	=12	=12	=12	=12	=12	=12	=12	=12	=12	=12	=12	=12	=12	=12	=12	=12	=12	=12	=12
2.r	.	2.r	2.r	.	2.r	2.r	.	2.r	2.r	.	8r	8r	.	4bb-\_	.	(8a-/L	.	(8f\L	.	8E-\L	.
.	.	.	.	.	.	.	.	.	.	.	8cc/L	8c/L	.	.	.	16.g/L	.	16.e-\L	.	8E-\	.
.	.	.	.	.	.	.	.	.	.	.	.	.	.	.	.	32b-/k	.	32g\k	.	.	.
.	.	.	.	.	.	.	.	.	.	.	8cc/J	8c/J	.	(16bb-\LL]	.	16.a-/	.	16.f\	.	8E-\J	.
.	.	.	.	.	.	.	.	.	.	.	.	.	.	32cccn\L	.	.	.	.	.	.	.
.	.	.	.	.	.	.	.	.	.	.	.	.	.	32bb-\JJJ	.	32cc/JJk	.	32a-\JJk	.	.	.
.	.	.	.	.	.	.	.	.	.	.	8cc/L	8c/L	.	8eee-\)	.	8b-\)	.	8g\)	.	8E-\	.
.	.	.	.	.	.	.	.	.	.	.	8cc/	8c/	.	8r	.	8r	.	8r	.	8r	.
.	.	.	.	.	.	.	.	.	.	.	8cc/J	8c/J	.	8r	.	8r	.	(8e-\	.	(8e-\	.
=13	=13	=13	=13	=13	=13	=13	=13	=13	=13	=13	=13	=13	=13	=13	=13	=13	=13	=13	=13	=13	=13
2.r	.	2.r	2.r	.	2.r	2.r	.	2.r	2.r	.	8r	8r	.	8r	.	8r	.	4Bn/	.	4Bn\	.
.	.	.	.	.	.	.	.	.	.	.	8cc/L	8c/L	.	(8gg\L	.	(8g/L	.	.	.	.	.
.	.	.	.	.	.	.	.	.	.	.	8cc/J	8c/J	.	8aa-\J)	.	8a-/J)	.	8c\)	.	8c\)	.
.	.	.	.	.	.	.	.	.	.	.	8cc/L	8c/L	.	(32aa-P/LLL	.	(32a-P/LLL	.	4r	.	4r	.
.	.	.	.	.	.	.	.	.	.	.	.	.	.	32bb-P/JJJ	.	32b-P/JJJ	.	.	.	.	.
.	.	.	.	.	.	.	.	.	.	.	.	.	.	8cccp\L)	.	8ccp\L)	.	.	.	.	.
.	.	.	.	.	.	.	.	.	.	.	8cc\	8c/	.	.	.	.	.	.	.	.	.
.	.	.	.	.	.	.	.	.	.	.	.	.	.	16bb-\k	.	16b-\k	.	.	.	.	.
.	.	.	.	.	.	.	.	.	.	.	8cc/J	8c/J	.	8aa-\J	.	8a-\J	.	(8e-\	.	(8e-\	.
=14	=14	=14	=14	=14	=14	=14	=14	=14	=14	=14	=14	=14	=14	=14	=14	=14	=14	=14	=14	=14	=14
2.r	.	2.r	2.r	.	2.r	2.r	.	2.r	2.r	.	8r	8r	.	8r	.	8r	.	4An/	.	4An\	.
.	.	.	.	.	.	.	.	.	.	.	8cc/L	8c/L	.	(8ff#\L	.	(8f#/L	.	.	.	.	.
.	.	.	.	.	.	.	.	.	.	.	8cc/J	8c/J	.	8gg\J)	.	8g/J)	.	8B-/)	.	8B-\)	.
.	.	.	.	.	.	.	.	.	.	.	8cc/L	8c/L	.	(32ggP/LLL	.	(32gP/LLL	.	4r	.	4r	.
.	.	.	.	.	.	.	.	.	.	.	.	.	.	32aa-P/JJJ	.	32a-P/JJJ	.	.	.	.	.
.	.	.	.	.	.	.	.	.	.	.	.	.	.	8bb-p\L)	.	8b-p/L)	.	.	.	.	.
.	.	.	.	.	.	.	.	.	.	.	8cc/	8c/	.	.	.	.	.	.	.	.	.
.	.	.	.	.	.	.	.	.	.	.	.	.	.	16aa-\k	.	16a-/k	.	.	.	.	.
.	.	.	.	.	.	.	.	.	.	.	8cc/J	8c/J	.	8gg\J	.	8g/J	.	8r	.	8e-\	.
=15	=15	=15	=15	=15	=15	=15	=15	=15	=15	=15	=15	=15	=15	=15	=15	=15	=15	=15	=15	=15	=15
2.r	.	2.r	2.r	.	2.r	2.r	.	2.r	2.r	.	2.r	2.r	.	8r	.	8r	.	8r	.	32d\LLL	.
.	.	.	.	.	.	.	.	.	.	.	.	.	.	.	.	.	.	.	.	32f\JJJ	.
.	.	.	.	.	.	.	.	.	.	.	.	.	.	.	.	.	.	.	.	16r	.
.	.	.	.	.	.	.	.	.	.	.	.	.	.	(16ffnz\LL	z	(16dz/LL	z	4b-z\	z	(8A-z\L	z
.	.	.	.	.	.	.	.	.	.	.	.	.	.	16dd\	.	16fn/	.	.	.	.	.
.	.	.	.	.	.	.	.	.	.	.	.	.	.	16ee-\	.	16g/	.	.	.	8G\J)	.
.	.	.	.	.	.	.	.	.	.	.	.	.	.	16gg\JJ)	.	16e-/JJ)	.	.	.	.	.
.	.	.	.	.	.	.	.	.	.	.	.	.	.	8r	.	8r	.	8r	.	(32dz\LLL	z
.	.	.	.	.	.	.	.	.	.	.	.	.	.	.	.	.	.	.	.	32f\JJJ)	.
.	.	.	.	.	.	.	.	.	.	.	.	.	.	.	.	.	.	.	.	16r	.
.	.	.	.	.	.	.	.	.	.	.	.	.	.	(16ffz\LL	z	(16dz/LL	z	4b-z\	z	(8A-z\L	z
.	.	.	.	.	.	.	.	.	.	.	.	.	.	16dd\	.	16f/	.	.	.	.	.
.	.	.	.	.	.	.	.	.	.	.	.	.	.	16ee-\	.	16g/	.	.	.	8G\J)	.
.	.	.	.	.	.	.	.	.	.	.	.	.	.	16gg\JJ)	.	16e-/JJ)	.	.	.	.	.
=16	=16	=16	=16	=16	=16	=16	=16	=16	=16	=16	=16	=16	=16	=16	=16	=16	=16	=16	=16	=16	=16
2.r	.	2.r	2.r	.	2.r	2.r	.	2.r	2.r	.	2.r	2.r	.	8r	.	8c/	p	8f\	p	8A-\	p
.	.	.	.	.	.	.	.	.	.	.	.	.	.	(32cc\LLL	p	8r	.	8r	.	8r	.
.	.	.	.	.	.	.	.	.	.	.	.	.	.	32ee-\JJJ)	.	.	.	.	.	.	.
.	.	.	.	.	.	.	.	.	.	.	.	.	.	16r	.	.	.	.	.	.	.
.	.	.	.	.	.	.	.	.	.	.	.	.	.	(32a-\LLL	.	8r	.	8r	.	8r	.
.	.	.	.	.	.	.	.	.	.	.	.	.	.	32cc\JJJ)	.	.	.	.	.	.	.
.	.	.	.	.	.	.	.	.	.	.	.	.	.	16r	.	.	.	.	.	.	.
.	.	.	.	.	.	.	.	.	.	.	.	.	.	(32f/LLL	.	8d/	.	8A-/	.	8B-\	.
.	.	.	.	.	.	.	.	.	.	.	.	.	.	32a-/JJJ)	.	.	.	.	.	.	.
.	.	.	.	.	.	.	.	.	.	.	.	.	.	16r	.	.	.	.	.	.	.
.	.	.	.	.	.	.	.	.	.	.	.	.	.	(32d/LLL	.	8r	.	8r	.	8r	.
.	.	.	.	.	.	.	.	.	.	.	.	.	.	32f/JJJ)	.	.	.	.	.	.	.
.	.	.	.	.	.	.	.	.	.	.	.	.	.	16r	.	.	.	.	.	.	.
.	.	.	.	.	.	.	.	.	.	.	.	.	.	(32B-/LLL	.	8r	.	8r	.	8r	.
.	.	.	.	.	.	.	.	.	.	.	.	.	.	32d/JJJ)	.	.	.	.	.	.	.
.	.	.	.	.	.	.	.	.	.	.	.	.	.	16r	.	.	.	.	.	.	.
=17	=17	=17	=17	=17	=17	=17	=17	=17	=17	=17	=17	=17	=17	=17	=17	=17	=17	=17	=17	=17	=17
[4.bb-\	p	2.r	2.r	.	2.r	2.r	.	[4.B-/	2.r	p	2.r	2.r	.	8r	.	8e-/	.	8B-/	.	8G\	.
.	.	.	.	.	.	.	.	.	.	.	.	.	.	(32e-/LLL	.	8r	.	8r	.	8r	.
.	.	.	.	.	.	.	.	.	.	.	.	.	.	32B-/JJJ)	.	.	.	.	.	.	.
.	.	.	.	.	.	.	.	.	.	.	.	.	.	16r	.	.	.	.	.	.	.
.	.	.	.	.	.	.	.	.	.	.	.	.	.	(32g/LLL	.	8r	.	8r	.	8r	.
.	.	.	.	.	.	.	.	.	.	.	.	.	.	32e-/JJJ)	.	.	.	.	.	.	.
.	.	.	.	.	.	.	.	.	.	.	.	.	.	16r	.	.	.	.	.	.	.
(8bb-\L]	.	.	.	.	.	.	.	(8B-/L]	.	.	.	.	.	(32b-/LLL	.	4r	.	4r	.	4r	.
.	.	.	.	.	.	.	.	.	.	.	.	.	.	32g/JJJ)	.	.	.	.	.	.	.
.	.	.	.	.	.	.	.	.	.	.	.	.	.	16r	.	.	.	.	.	.	.
8gg\	.	.	.	.	.	.	.	8G/	.	.	.	.	.	(32ee-\LLL	.	.	.	.	.	.	.
.	.	.	.	.	.	.	.	.	.	.	.	.	.	32b-\JJJ)	.	.	.	.	.	.	.
.	.	.	.	.	.	.	.	.	.	.	.	.	.	16r	.	.	.	.	.	.	.
8eee-\J)	.	.	.	.	.	.	.	8e-/J)	.	.	.	.	.	(32gg\LLL	.	8r	.	8r	.	8r	.
.	.	.	.	.	.	.	.	.	.	.	.	.	.	32ee-\JJJ)	.	.	.	.	.	.	.
.	.	.	.	.	.	.	.	.	.	.	.	.	.	16r	.	.	.	.	.	.	.
=18	=18	=18	=18	=18	=18	=18	=18	=18	=18	=18	=18	=18	=18	=18	=18	=18	=18	=18	=18	=18	=18
(8ccc\L	.	2.r	2.r	.	4r	4r	.	(8c/L	4r	.	4r	4r	.	8r	.	8e-/	.	8c\	.	8A-\	.
8aa-\J)	.	.	.	.	.	.	.	8A-/	.	.	.	.	.	(32cc\LLL	.	8r	.	8r	.	8r	.
.	.	.	.	.	.	.	.	.	.	.	.	.	.	32ee-\JJJ)	.	.	.	.	.	.	.
.	.	.	.	.	.	.	.	.	.	.	.	.	.	16r	.	.	.	.	.	.	.
8r	.	.	.	.	8gg'/	8r	p	8F/J)	8r	.	8r	8r	.	(32a-\LLL	.	8r	.	8r	.	8r	.
.	.	.	.	.	.	.	.	.	.	.	.	.	.	32cc\JJJ)	.	.	.	.	.	.	.
.	.	.	.	.	.	.	.	.	.	.	.	.	.	16r	.	.	.	.	.	.	.
4r	.	.	.	.	(8ee/L	4r	.	(8D/L	4r	.	4r	4r	.	(32f/LLL	.	8d/	.	8A-/	.	8B-\	.
.	.	.	.	.	.	.	.	.	.	.	.	.	.	32a-/JJJ)	.	.	.	.	.	.	.
.	.	.	.	.	.	.	.	.	.	.	.	.	.	16r	.	.	.	.	.	.	.
.	.	.	.	.	8ccc/)	.	.	8B-/)	.	.	.	.	.	(32d/LLL	.	8r	.	8r	.	8r	.
.	.	.	.	.	.	.	.	.	.	.	.	.	.	32f/JJJ)	.	.	.	.	.	.	.
.	.	.	.	.	.	.	.	.	.	.	.	.	.	16r	.	.	.	.	.	.	.
8ff\	.	.	.	.	8ee'/J	8cc\	p	8d'/J	8A-\	p	8dd\	8g\	.	(32B-/LLL	.	8r	.	8r	.	8r	.
.	.	.	.	.	.	.	.	.	.	.	.	.	.	32d/JJJ)	.	.	.	.	.	.	.
.	.	.	.	.	.	.	.	.	.	.	.	.	.	16r	.	.	.	.	.	.	.
=19	=19	=19	=19	=19	=19	=19	=19	=19	=19	=19	=19	=19	=19	=19	=19	=19	=19	=19	=19	=19	=19
8ee-'\L	.	2.r	2.r	.	8ff'\L	8cc\L	.	8e-'\L	8G\L	.	8ee/L	8g/L	.	8e-'/L	.	8e-'/L	.	8G/L	.	8E-/L	.
(8ee-\	.	.	.	.	8cc'\	8a\	.	8B-'\	8G\	.	8cc/	8c/	.	(8e-/	.	(8G/	.	8E-/	.	8EE-/	.
8gg\J)	.	.	.	.	8cc'\J	8a\J	.	8B-'\J	8G\J	.	8cc/J	8c/J	.	8g/J)	.	8B-/J)	.	8E-/J	.	8EE-/J	.
8ee-\	.	.	.	.	8cc'\	8a\	.	8B-\	8G'\	.	8cc/	8c/	.	8e-/	.	8G/	.	8E-/	.	8EE-/	.
8r	.	.	.	.	8r	8r	.	8r	8r	.	8r	8r	.	8r	.	8r	.	8r	.	8r	.
8r	.	.	.	.	8r	8r	.	8r	8r	.	8r	8r	.	8r	.	8r	.	8r	.	8r	.
=20	=20	=20	=20	=20	=20	=20	=20	=20	=20	=20	=20	=20	=20	=20	=20	=20	=20	=20	=20	=20	=20
!	!	!	!	!	!	!	!	!	!	!	!	!	!	! (32dP/LLL	!	!	!	!	!	!	!
!	!	!	!	!	!	!	!	!	!	!	!	!	!	! 32b-P/JJJ	!	!	!	!	!	!	!
2.r	.	4.ff\	4.dd\	ff	2.r	2.r	.	2.r	2.r	.	2.r	2.r	.	4bb-p\)	f	8d/L	f	8f\L	f	4BB-/	f
.	.	.	.	.	.	.	.	.	.	.	.	.	.	.	.	8d/	.	8f\	.	.	.
.	.	.	.	.	.	.	.	.	.	.	.	.	.	4b-\	p	8d/J	p	8f\J	p	4B-\	p
.	.	4r	4r	.	.	.	.	.	.	.	.	.	.	.	.	8d/L	.	8f\L	.	.	.
.	.	.	.	.	.	.	.	.	.	.	.	.	.	8b-'\L	.	8d/	.	8f\	.	8B-'\L	.
.	.	8r	8r	.	.	.	.	.	.	.	.	.	.	[8b-\J	.	8d/J	.	8f\J	.	(8B-\J	.
=21	=21	=21	=21	=21	=21	=21	=21	=21	=21	=21	=21	=21	=21	=21	=21	=21	=21	=21	=21	=21	=21
4r	.	2.r	2.r	.	4r	4r	.	2.r	2.r	.	2.r	2.r	.	8b-\]	.	8e-/	.	8f\	.	8c\)	.
.	.	.	.	.	.	.	.	.	.	.	.	.	.	(32an\LLL	.	8r	.	8r	.	8r	.
.	.	.	.	.	.	.	.	.	.	.	.	.	.	32cc\JJJ)	.	.	.	.	.	.	.
.	.	.	.	.	.	.	.	.	.	.	.	.	.	16r	.	.	.	.	.	.	.
8r	.	.	.	.	8r	8r	.	.	.	.	.	.	.	(32b-\LLL	.	8r	.	8r	.	8r	.
.	.	.	.	.	.	.	.	.	.	.	.	.	.	32dd\JJJ)	.	.	.	.	.	.	.
.	.	.	.	.	.	.	.	.	.	.	.	.	.	16r	.	.	.	.	.	.	.
8r	.	.	.	.	8r	8r	.	.	.	.	.	.	.	(32cc\LLL	.	4r	.	4r	.	4r	.
.	.	.	.	.	.	.	.	.	.	.	.	.	.	32ee-\JJJ)	.	.	.	.	.	.	.
.	.	.	.	.	.	.	.	.	.	.	.	.	.	16r	.	.	.	.	.	.	.
(32aan\LLL	.	.	.	.	8ff'\L	8dd\L	.	.	.	.	.	.	.	8r	.	.	.	.	.	.	.
32ccc\JJJ)	.	.	.	.	.	.	.	.	.	.	.	.	.	.	.	.	.	.	.	.	.
16r	.	.	.	.	.	.	.	.	.	.	.	.	.	.	.	.	.	.	.	.	.
(32bb-\LLL	.	.	.	.	8ee'\J	8cc\J	.	.	.	.	.	.	.	8r	.	8r	.	8r	.	8r	.
32ddd\JJJ)	.	.	.	.	.	.	.	.	.	.	.	.	.	.	.	.	.	.	.	.	.
16r	.	.	.	.	.	.	.	.	.	.	.	.	.	.	.	.	.	.	.	.	.
=22	=22	=22	=22	=22	=22	=22	=22	=22	=22	=22	=22	=22	=22	=22	=22	=22	=22	=22	=22	=22	=22
(32ccc\LLL	.	4.aan\	4.cc\	.	8dd'\	8bn\	.	2.r	2.r	.	2.r	2.r	.	4ccc\	f	8An/L	f	8f\L	f	4E-\	f
32eee-\JJJ)	.	.	.	.	.	.	.	.	.	.	.	.	.	.	.	.	.	.	.	.	.
16r	.	.	.	.	.	.	.	.	.	.	.	.	.	.	.	.	.	.	.	.	.
8r	.	.	.	.	8r	8r	.	.	.	.	.	.	.	.	.	8A/	.	8f\	.	.	.
8r	.	.	.	.	8r	8r	.	.	.	.	.	.	.	4cc\	p	8A/J	p	8f\J	p	4e-\	p
4r	.	4r	4r	.	4r	4r	.	.	.	.	.	.	.	.	.	8A/L	.	8f\L	.	.	.
.	.	.	.	.	.	.	.	.	.	.	.	.	.	8cc'\L	.	8A/	.	8f\	.	8e-'\L	.
8r	.	8r	8r	.	8r	8r	.	.	.	.	.	.	.	[8cc\J	.	8A/J	.	8f\J	.	(8e-\J	.
=23	=23	=23	=23	=23	=23	=23	=23	=23	=23	=23	=23	=23	=23	=23	=23	=23	=23	=23	=23	=23	=23
4r	.	2.r	2.r	.	4r	4r	.	2.r	2.r	.	2.r	2.r	.	8cc\]	.	8B-/	.	8f\	.	8d\)	.
.	.	.	.	.	.	.	.	.	.	.	.	.	.	(32b-\LLL	.	8r	.	8r	.	8r	.
.	.	.	.	.	.	.	.	.	.	.	.	.	.	32dd\JJJ)	.	.	.	.	.	.	.
.	.	.	.	.	.	.	.	.	.	.	.	.	.	16r	.	.	.	.	.	.	.
8r	.	.	.	.	8r	8r	.	.	.	.	.	.	.	(32cc\LLL	.	8r	.	8r	.	8r	.
.	.	.	.	.	.	.	.	.	.	.	.	.	.	32ee-\JJJ)	.	.	.	.	.	.	.
.	.	.	.	.	.	.	.	.	.	.	.	.	.	16r	.	.	.	.	.	.	.
8r	.	.	.	.	8r	8r	.	.	.	.	.	.	.	(32dd\LLL	.	4r	.	4r	.	4r	.
.	.	.	.	.	.	.	.	.	.	.	.	.	.	32ff\JJJ)	.	.	.	.	.	.	.
.	.	.	.	.	.	.	.	.	.	.	.	.	.	16r	.	.	.	.	.	.	.
(32bb-\LLL	.	.	.	.	8gg'\L	8ee\L	.	.	.	.	.	.	.	8r	.	.	.	.	.	.	.
32ddd\JJJ)	.	.	.	.	.	.	.	.	.	.	.	.	.	.	.	.	.	.	.	.	.
16r	.	.	.	.	.	.	.	.	.	.	.	.	.	.	.	.	.	.	.	.	.
(32ccc\LLL	.	.	.	.	8ff'\J	8dd\J	.	.	.	.	.	.	.	8r	.	8r	.	8r	.	8r	.
32eee-\JJJ)	.	.	.	.	.	.	.	.	.	.	.	.	.	.	.	.	.	.	.	.	.
16r	.	.	.	.	.	.	.	.	.	.	.	.	.	.	.	.	.	.	.	.	.
=24	=24	=24	=24	=24	=24	=24	=24	=24	=24	=24	=24	=24	=24	=24	=24	=24	=24	=24	=24	=24	=24
(32ddd\LLL	.	2.r	2.r	.	8ee'\	8cc#\	.	2.r	2.r	.	2.r	2.r	.	8r	.	8bn\	.	8f\	.	8G\	.
32fff\JJJ)	.	.	.	.	.	.	.	.	.	.	.	.	.	.	.	.	.	.	.	.	.
16r	.	.	.	.	.	.	.	.	.	.	.	.	.	.	.	.	.	.	.	.	.
8r	.	.	.	.	8r	8r	.	.	.	.	.	.	.	(32aa-\LLL	.	8r	.	8r	.	8r	.
.	.	.	.	.	.	.	.	.	.	.	.	.	.	32gg\JJJ)	.	.	.	.	.	.	.
.	.	.	.	.	.	.	.	.	.	.	.	.	.	16r	.	.	.	.	.	.	.
(32bbn\LLL	.	.	.	.	8gg'\L	8ee\L	.	.	.	.	.	.	.	8r	.	8r	.	8r	.	8r	.
32ddd\JJJ)	.	.	.	.	.	.	.	.	.	.	.	.	.	.	.	.	.	.	.	.	.
16r	.	.	.	.	.	.	.	.	.	.	.	.	.	.	.	.	.	.	.	.	.
(32ccc\LLL	.	.	.	.	8ff'\J	8dd\J	.	.	.	.	.	.	.	8r	.	8cc\	.	8e-\	.	8C/	.
32eee-\JJJ)	.	.	.	.	.	.	.	.	.	.	.	.	.	.	.	.	.	.	.	.	.
16r	.	.	.	.	.	.	.	.	.	.	.	.	.	.	.	.	.	.	.	.	.
8r	.	.	.	.	8r	8r	.	.	.	.	.	.	.	(32ff#\LLL	.	8r	.	8r	.	8r	.
.	.	.	.	.	.	.	.	.	.	.	.	.	.	32gg\JJJ)	.	.	.	.	.	.	.
.	.	.	.	.	.	.	.	.	.	.	.	.	.	16r	.	.	.	.	.	.	.
(32gg\LLL	.	.	.	.	8ff'\	8dd\	.	.	.	.	.	.	.	8r	.	8r	.	8r	.	8r	.
32ccc\JJJ)	.	.	.	.	.	.	.	.	.	.	.	.	.	.	.	.	.	.	.	.	.
16r	.	.	.	.	.	.	.	.	.	.	.	.	.	.	.	.	.	.	.	.	.
=25	=25	=25	=25	=25	=25	=25	=25	=25	=25	=25	=25	=25	=25	=25	=25	=25	=25	=25	=25	=25	=25
(32ccc\LLL	.	2.r	2.r	.	8dd'\	8bn\	.	2.r	2.r	.	2.r	2.r	.	8r	.	8an/	.	8e-\	.	8F\	.
32eee-\JJJ)	.	.	.	.	.	.	.	.	.	.	.	.	.	.	.	.	.	.	.	.	.
16r	.	.	.	.	.	.	.	.	.	.	.	.	.	.	.	.	.	.	.	.	.
8r	.	.	.	.	8r	8r	.	.	.	.	.	.	.	(32gg-\LLL	.	8r	.	8r	.	8r	.
.	.	.	.	.	.	.	.	.	.	.	.	.	.	32ffn\JJJ)	.	.	.	.	.	.	.
.	.	.	.	.	.	.	.	.	.	.	.	.	.	16r	.	.	.	.	.	.	.
(32aan\LLL	.	.	.	.	8ff'\L	8dd\	.	.	.	.	.	.	.	8r	.	8r	.	8r	.	8r	.
32ccc\JJJ)	.	.	.	.	.	.	.	.	.	.	.	.	.	.	.	.	.	.	.	.	.
16r	.	.	.	.	.	.	.	.	.	.	.	.	.	.	.	.	.	.	.	.	.
(32bb-\LLL	.	.	.	.	8ee'\J	8ccn\	.	.	.	.	.	.	.	8r	.	8b-\	.	8d\	.	8BB-/	.
32ddd\JJJ)	.	.	.	.	.	.	.	.	.	.	.	.	.	.	.	.	.	.	.	.	.
16r	.	.	.	.	.	.	.	.	.	.	.	.	.	.	.	.	.	.	.	.	.
8r	.	.	.	.	8r	8r	.	.	.	.	.	.	.	(32een\LLL	.	8r	.	8r	.	8r	.
.	.	.	.	.	.	.	.	.	.	.	.	.	.	32ff\JJJ)	.	.	.	.	.	.	.
.	.	.	.	.	.	.	.	.	.	.	.	.	.	16r	.	.	.	.	.	.	.
8r	.	.	.	.	8r	8r	.	.	.	.	.	.	.	(32bb-\LLL	.	8r	.	8r	.	8r	.
.	.	.	.	.	.	.	.	.	.	.	.	.	.	32ddd\JJJ)	.	.	.	.	.	.	.
.	.	.	.	.	.	.	.	.	.	.	.	.	.	16r	.	.	.	.	.	.	.
=26	=26	=26	=26	=26	=26	=26	=26	=26	=26	=26	=26	=26	=26	=26	=26	=26	=26	=26	=26	=26	=26
2.r	.	2.r	2.r	.	2.r	2.r	.	2.r	2.r	.	2.r	2.r	.	(32ccc\LLL	.	[2.B-/	.	2.en\	.	2.G\	.
.	.	.	.	.	.	.	.	.	.	.	.	.	.	32bb-\JJJ)	.	.	.	.	.	.	.
.	.	.	.	.	.	.	.	.	.	.	.	.	.	16r	.	.	.	.	.	.	.
.	.	.	.	.	.	.	.	.	.	.	.	.	.	(32aan\LLL	.	.	.	.	.	.	.
.	.	.	.	.	.	.	.	.	.	.	.	.	.	32ggn\JJJ)	.	.	.	.	.	.	.
.	.	.	.	.	.	.	.	.	.	.	.	.	.	16r	.	.	.	.	.	.	.
.	.	.	.	.	.	.	.	.	.	.	.	.	.	(32ff\LLL	.	.	.	.	.	.	.
.	.	.	.	.	.	.	.	.	.	.	.	.	.	32een\JJJ)	.	.	.	.	.	.	.
.	.	.	.	.	.	.	.	.	.	.	.	.	.	16r	.	.	.	.	.	.	.
.	.	.	.	.	.	.	.	.	.	.	.	.	.	(32dd\LLL	.	.	.	.	.	.	.
.	.	.	.	.	.	.	.	.	.	.	.	.	.	32cc\JJJ)	.	.	.	.	.	.	.
.	.	.	.	.	.	.	.	.	.	.	.	.	.	16r	.	.	.	.	.	.	.
.	.	.	.	.	.	.	.	.	.	.	.	.	.	(32b-/LLL	.	.	.	.	.	.	.
.	.	.	.	.	.	.	.	.	.	.	.	.	.	32an/JJJ)	.	.	.	.	.	.	.
.	.	.	.	.	.	.	.	.	.	.	.	.	.	16r	.	.	.	.	.	.	.
.	.	.	.	.	.	.	.	.	.	.	.	.	.	(32g/LLL	.	.	.	.	.	.	.
.	.	.	.	.	.	.	.	.	.	.	.	.	.	32f/JJJ)	.	.	.	.	.	.	.
.	.	.	.	.	.	.	.	.	.	.	.	.	.	16r	.	.	.	.	.	.	.
=27	=27	=27	=27	=27	=27	=27	=27	=27	=27	=27	=27	=27	=27	=27	=27	=27	=27	=27	=27	=27	=27
2.r	.	2.r	2.r	.	4r	2.r	.	4r	2.r	.	2.r	2.r	.	(8en/L	.	(4B-/]	.	[4.c\	.	[4.F\	.
.	.	.	.	.	.	.	.	.	.	.	.	.	.	8g/	.	.	.	.	.	.	.
.	.	.	.	.	8r	.	.	8r	.	.	.	.	.	8f/J)	.	8An/)	.	.	.	.	.
.	.	.	.	.	8r	.	.	8r	.	.	.	.	.	8f/	.	8A/	.	8c\]	.	8F\]	.
.	.	.	.	.	(32ff#/LLL	.	.	(32En/LLL	.	.	.	.	.	8r	.	8r	.	8r	.	8r	.
.	.	.	.	.	32gg/JJJ)	.	.	32F/JJJ)	.	.	.	.	.	.	.	.	.	.	.	.	.
.	.	.	.	.	16r	.	.	16r	.	.	.	.	.	.	.	.	.	.	.	.	.
.	.	.	.	.	(32aa/LLL	.	.	(32G/LLL	.	.	.	.	.	8r	.	8r	.	8r	.	8r	.
.	.	.	.	.	32gg/JJJ)	.	.	32F/JJJ)	.	.	.	.	.	.	.	.	.	.	.	.	.
.	.	.	.	.	16r	.	.	16r	.	.	.	.	.	.	.	.	.	.	.	.	.
=28	=28	=28	=28	=28	=28	=28	=28	=28	=28	=28	=28	=28	=28	=28	=28	=28	=28	=28	=28	=28	=28
2.r	.	2.r	2.r	.	8r	2.r	.	8r	2.r	.	2.r	2.r	.	8g-/	.	8d-/	.	8B-/	.	8F\	.
.	.	.	.	.	(32gg/LLL	.	.	(32F/LLL	.	.	.	.	.	8r	.	8r	.	8r	.	8r	.
.	.	.	.	.	32aa-/JJJ)	.	.	32G-/JJJ)	.	.	.	.	.	.	.	.	.	.	.	.	.
.	.	.	.	.	16r	.	.	16r	.	.	.	.	.	.	.	.	.	.	.	.	.
.	.	.	.	.	(32bb-/LLL	.	.	(32A-/LLL	.	.	.	.	.	8r	.	8r	.	8r	.	8r	.
.	.	.	.	.	32aa-/JJJ)	.	.	32G-/JJJ)	.	.	.	.	.	.	.	.	.	.	.	.	.
.	.	.	.	.	16r	.	.	16r	.	.	.	.	.	.	.	.	.	.	.	.	.
.	.	.	.	.	8r	.	.	8r	.	.	.	.	.	8g-/	.	8c/	.	8A-/	.	8E-\	.
.	.	.	.	.	(32aan/LLL	.	.	(32Gn/LLL	.	.	.	.	.	8r	.	8r	.	8r	.	8r	.
.	.	.	.	.	32bb-/JJJ)	.	.	32A-/JJJ)	.	.	.	.	.	.	.	.	.	.	.	.	.
.	.	.	.	.	16r	.	.	16r	.	.	.	.	.	.	.	.	.	.	.	.	.
.	.	.	.	.	(32ccc/LLL	.	.	(32B-/LLL	.	.	.	.	.	8r	.	8r	.	8A-/	.	8r	.
.	.	.	.	.	32bb-/JJJ)	.	.	32A-/JJJ)	.	.	.	.	.	.	.	.	.	.	.	.	.
.	.	.	.	.	16r	.	.	16r	.	.	.	.	.	.	.	.	.	.	.	.	.
=29	=29	=29	=29	=29	=29	=29	=29	=29	=29	=29	=29	=29	=29	=29	=29	=29	=29	=29	=29	=29	=29
8r	.	2.r	2.r	.	2.r	2.r	.	2.r	2.r	.	2.r	2.r	.	2.r	.	4r	.	8d-\L	.	8D-\	.
(32fff\LLL	.	.	.	.	.	.	.	.	.	.	.	.	.	.	.	.	.	8d-\	.	8r	.
32eee-\JJJ)	.	.	.	.	.	.	.	.	.	.	.	.	.	.	.	.	.	.	.	.	.
16r	.	.	.	.	.	.	.	.	.	.	.	.	.	.	.	.	.	.	.	.	.
(32ddd-\LLL	.	.	.	.	.	.	.	.	.	.	.	.	.	.	.	8r	.	8d-\J	.	8r	.
32ccc\JJJ)	.	.	.	.	.	.	.	.	.	.	.	.	.	.	.	.	.	.	.	.	.
16r	.	.	.	.	.	.	.	.	.	.	.	.	.	.	.	.	.	.	.	.	.
(32bb-\LLL	.	.	.	.	.	.	.	.	.	.	.	.	.	.	.	4r	.	8d-\L	.	8F\	.
32aa-\JJJ)	.	.	.	.	.	.	.	.	.	.	.	.	.	.	.	.	.	.	.	.	.
16r	.	.	.	.	.	.	.	.	.	.	.	.	.	.	.	.	.	.	.	.	.
(32gg-\LLL	.	.	.	.	.	.	.	.	.	.	.	.	.	.	.	.	.	8d-\	.	8r	.
32ff\JJJ)	.	.	.	.	.	.	.	.	.	.	.	.	.	.	.	.	.	.	.	.	.
16r	.	.	.	.	.	.	.	.	.	.	.	.	.	.	.	.	.	.	.	.	.
(32ee-\LLL	.	.	.	.	.	.	.	.	.	.	.	.	.	.	.	8A-/	.	8d-\J	.	8r	.
32dd-\JJJ)	.	.	.	.	.	.	.	.	.	.	.	.	.	.	.	.	.	.	.	.	.
16r	.	.	.	.	.	.	.	.	.	.	.	.	.	.	.	.	.	.	.	.	.
=30	=30	=30	=30	=30	=30	=30	=30	=30	=30	=30	=30	=30	=30	=30	=30	=30	=30	=30	=30	=30	=30
2.r	.	2.r	2.r	.	2.r	2.r	.	8r	2.r	.	2.r	2.r	.	4r	.	8e-/L	.	(4.d-\	.	8A-\	.
.	.	.	.	.	.	.	.	(32e-/LLL	.	.	.	.	.	.	.	8e-/	.	.	.	8r	.
.	.	.	.	.	.	.	.	32d-/JJJ)	.	.	.	.	.	.	.	.	.	.	.	.	.
.	.	.	.	.	.	.	.	16r	.	.	.	.	.	.	.	.	.	.	.	.	.
.	.	.	.	.	.	.	.	(32c/LLL	.	.	.	.	.	8A-/	.	8e-/J	.	.	.	8r	.
.	.	.	.	.	.	.	.	32B-/JJJ)	.	.	.	.	.	.	.	.	.	.	.	.	.
.	.	.	.	.	.	.	.	16r	.	.	.	.	.	.	.	.	.	.	.	.	.
.	.	.	.	.	.	.	.	(32A-/LLL	.	.	.	.	.	8a-/L	.	[4.e-/	.	4.c\)	.	8AA-/	.
.	.	.	.	.	.	.	.	32G-/JJJ)	.	.	.	.	.	.	.	.	.	.	.	.	.
.	.	.	.	.	.	.	.	16r	.	.	.	.	.	.	.	.	.	.	.	.	.
.	.	.	.	.	.	.	.	(32F/LLL	.	.	.	.	.	8a-/	.	.	.	.	.	8r	.
.	.	.	.	.	.	.	.	32E-/JJJ)	.	.	.	.	.	.	.	.	.	.	.	.	.
.	.	.	.	.	.	.	.	16r	.	.	.	.	.	.	.	.	.	.	.	.	.
.	.	.	.	.	.	.	.	(32D-/LLL	.	.	.	.	.	8a-/J	.	.	.	.	.	8r	.
.	.	.	.	.	.	.	.	32C/JJJ)	.	.	.	.	.	.	.	.	.	.	.	.	.
.	.	.	.	.	.	.	.	16r	.	.	.	.	.	.	.	.	.	.	.	.	.
=31	=31	=31	=31	=31	=31	=31	=31	=31	=31	=31	=31	=31	=31	=31	=31	=31	=31	=31	=31	=31	=31
2.r	.	2.r	2.r	.	8r	2.r	.	2.r	2.r	.	2.r	2.r	.	(4.a-/	.	4e-/]	.	4.B-/	.	8E-\	.
.	.	.	.	.	(32ccc/LLL	.	.	.	.	.	.	.	.	.	.	.	.	.	.	8r	.
.	.	.	.	.	32bb-/JJJ)	.	.	.	.	.	.	.	.	.	.	.	.	.	.	.	.
.	.	.	.	.	16r	.	.	.	.	.	.	.	.	.	.	.	.	.	.	.	.
.	.	.	.	.	(32aa-/LLL	.	.	.	.	.	.	.	.	.	.	8e-/	.	.	.	8r	.
.	.	.	.	.	32gg/JJJ)	.	.	.	.	.	.	.	.	.	.	.	.	.	.	.	.
.	.	.	.	.	16r	.	.	.	.	.	.	.	.	.	.	.	.	.	.	.	.
.	.	.	.	.	(32ff/LLL	.	.	.	.	.	.	.	.	4.g-/)	.	8ee-\L	.	[4.b-\	.	8G-\	.
.	.	.	.	.	32ee-/JJJ)	.	.	.	.	.	.	.	.	.	.	.	.	.	.	.	.
.	.	.	.	.	16r	.	.	.	.	.	.	.	.	.	.	.	.	.	.	.	.
.	.	.	.	.	(32dd-/LLL	.	.	.	.	.	.	.	.	.	.	8ee-\	.	.	.	8r	.
.	.	.	.	.	32cc/JJJ)	.	.	.	.	.	.	.	.	.	.	.	.	.	.	.	.
.	.	.	.	.	16r	.	.	.	.	.	.	.	.	.	.	.	.	.	.	.	.
.	.	.	.	.	(32b-/LLL	.	.	.	.	.	.	.	.	.	.	8ee-\J	.	.	.	8r	.
.	.	.	.	.	32a-/JJJ)	.	.	.	.	.	.	.	.	.	.	.	.	.	.	.	.
.	.	.	.	.	16r	.	.	.	.	.	.	.	.	.	.	.	.	.	.	.	.
=32	=32	=32	=32	=32	=32	=32	=32	=32	=32	=32	=32	=32	=32	=32	=32	=32	=32	=32	=32	=32	=32
8r	.	2.r	2.r	.	2.r	2.r	.	8r	2.r	.	2.r	2.r	.	4f/	.	(4.ee-\	.	4.b-\]	.	8B-\	.
(32fff\LLL	.	.	.	.	.	.	.	(32f/LLL	.	.	.	.	.	.	.	.	.	.	.	8r	.
32eee-\JJJ)	.	.	.	.	.	.	.	32e-/JJJ)	.	.	.	.	.	.	.	.	.	.	.	.	.
16r	.	.	.	.	.	.	.	16r	.	.	.	.	.	.	.	.	.	.	.	.	.
(32ddd-\LLL	.	.	.	.	.	.	.	(32d-/LLL	.	.	.	.	.	8b-\	.	.	.	.	.	8r	.
32ccc\JJJ)	.	.	.	.	.	.	.	32c/JJJ)	.	.	.	.	.	.	.	.	.	.	.	.	.
16r	.	.	.	.	.	.	.	16r	.	.	.	.	.	.	.	.	.	.	.	.	.
(32bb-\LLL	.	.	.	.	.	.	.	(32B-/LLL	.	.	.	.	.	8bb-\L	.	4.dd-\)	.	4.f\	.	8BB-/	.
32aa-\JJJ)	.	.	.	.	.	.	.	32A-/JJJ)	.	.	.	.	.	.	.	.	.	.	.	.	.
16r	.	.	.	.	.	.	.	16r	.	.	.	.	.	.	.	.	.	.	.	.	.
(32gg-\LLL	.	.	.	.	.	.	.	(32G-/LLL	.	.	.	.	.	8bb-\	.	.	.	.	.	8r	.
32ff\JJJ)	.	.	.	.	.	.	.	32F/JJJ)	.	.	.	.	.	.	.	.	.	.	.	.	.
16r	.	.	.	.	.	.	.	16r	.	.	.	.	.	.	.	.	.	.	.	.	.
(32ee-\LLL	.	.	.	.	.	.	.	(32E-/LLL	.	.	.	.	.	8bb-\J	.	.	.	.	.	8r	.
32dd-\JJJ)	.	.	.	.	.	.	.	32D-/JJJ)	.	.	.	.	.	.	.	.	.	.	.	.	.
16r	.	.	.	.	.	.	.	16r	.	.	.	.	.	.	.	.	.	.	.	.	.
=33	=33	=33	=33	=33	=33	=33	=33	=33	=33	=33	=33	=33	=33	=33	=33	=33	=33	=33	=33	=33	=33
2.ccc-\	f	(4.bb-\	(4.gg-\	ff	2.dd-/	(4.cc\	f	(4.G-\xx	(4.E-\	f	4.cc/	4.c/	f	8bb-\	f	8cc-\L	f	8g-\L	f	8E-\L	f
.	.	.	.	.	.	.	.	.	.	.	.	.	.	(32eee-\LLL	.	8cc-\	.	8g-\	.	8E-\	.
.	.	.	.	.	.	.	.	.	.	.	.	.	.	32ddd-\JJJ)	.	.	.	.	.	.	.
.	.	.	.	.	.	.	.	.	.	.	.	.	.	16r	.	.	.	.	.	.	.
.	.	.	.	.	.	.	.	.	.	.	.	.	.	(32ccc-\LLL	.	8cc-\J	.	8g-\J	.	8E-\J	.
.	.	.	.	.	.	.	.	.	.	.	.	.	.	32bb-\JJJ)	.	.	.	.	.	.	.
.	.	.	.	.	.	.	.	.	.	.	.	.	.	16r	.	.	.	.	.	.	.
.	.	4.aa-\)	4.dd-\)	.	.	4.b-\)	.	4.A-\)	4.F\)	.	4.dd/	4.dd\	.	(32aa-\LLL	.	8cc-\L	.	8d-\L	.	8F\L	.
.	.	.	.	.	.	.	.	.	.	.	.	.	.	32gg-\JJJ)	.	.	.	.	.	.	.
.	.	.	.	.	.	.	.	.	.	.	.	.	.	16r	.	.	.	.	.	.	.
.	.	.	.	.	.	.	.	.	.	.	.	.	.	(32ff\LLL	.	8cc-\	.	8d-\	.	8F\	.
.	.	.	.	.	.	.	.	.	.	.	.	.	.	32ee-\JJJ)	.	.	.	.	.	.	.
.	.	.	.	.	.	.	.	.	.	.	.	.	.	16r	.	.	.	.	.	.	.
.	.	.	.	.	.	.	.	.	.	.	.	.	.	(32dd-\LLL	.	8a-\J	.	8d-\J	.	8F\J	.
.	.	.	.	.	.	.	.	.	.	.	.	.	.	32cc-\JJJ)	.	.	.	.	.	.	.
.	.	.	.	.	.	.	.	.	.	.	.	.	.	16r	.	.	.	.	.	.	.
=34	=34	=34	=34	=34	=34	=34	=34	=34	=34	=34	=34	=34	=34	=34	=34	=34	=34	=34	=34	=34	=34
(32bb-\LLL	.	(32b-/LLL	(32b-\LLL	.	(32cc/LLL	(32cc\LLL	.	(32B-/LLL	(32B-\LLL	.	8gg\L	8g/L	.	8b-\L	.	8g-/L	.	8d-\L	.	8G-\L	.
32cccn\JJJ)	.	32cc/JJJ)	32cc\JJJ)	.	32ddn/JJJ)	32ddn\JJJ)	.	32cn/JJJ)	32cn\JJJ)	.	.	.	.	.	.	.	.	.	.	.	.
16r	.	16r	16r	.	16r	16r	.	16r	16r	.	.	.	.	.	.	.	.	.	.	.	.
(32ddd-\LLL	.	(32dd-/LLL	(32dd-\LLL	.	(32ee-/LLL	(32ee-\LLL	.	(32d-/LLL	(32d-\LLL	.	8gg\	8g/	.	8bb-\	.	8b-/	.	8g-\	.	8G-\	.
32ccc\JJJ)	.	32cc/JJJ)	32cc\JJJ)	.	32dd/JJJ)	32dd\JJJ)	.	32c/JJJ)	32c\JJJ)	.	.	.	.	.	.	.	.	.	.	.	.
16r	.	16r	16r	.	16r	16r	.	16r	16r	.	.	.	.	.	.	.	.	.	.	.	.
(32ddd-\LLL	.	(32dd-/LLL	(32dd-\LLL	.	(32ee-/LLL	(32ee-\LLL	.	(32d-/LLL	(32d-\LLL	.	8gg\J	8g/J	.	8bb-\J	.	8b-/J	.	8g-\J	.	8G-\J	.
32dddn\JJJ)	.	32ddn/JJJ)	32ddn\JJJ)	.	32een/JJJ)	32een\JJJ)	.	32dn/JJJ)	32dn\JJJ)	.	.	.	.	.	.	.	.	.	.	.	.
16r	.	16r	16r	.	16r	16r	.	16r	16r	.	.	.	.	.	.	.	.	.	.	.	.
(32eee-\LLL	.	(32ee-/LLL	(32ee-\LLL	.	(32ff/LLL	(32ff\LLL	.	(32e-/LLL	(32e-\LLL	.	8gg\L	8g/L	.	8bb-\L	.	8b-\L	.	8g-\L	.	8G-\L	.
32ddd\JJJ)	.	32dd/JJJ)	32dd\JJJ)	.	32ee/JJJ)	32ee\JJJ)	.	32d/JJJ)	32d\JJJ)	.	.	.	.	.	.	.	.	.	.	.	.
16r	.	16r	16r	.	16r	16r	.	16r	16r	.	.	.	.	.	.	.	.	.	.	.	.
(32eee-\LLL	.	(32ee-/LLL	(32ee-\LLL	.	(32ff/LLL	(32ff\LLL	.	(32e-/LLL	(32e-\LLL	.	8gg\	8g/	.	8bb-\	.	8b-\	.	8g-\	.	8G-\	.
32eeen\JJJ)	.	32een/JJJ)	32een\JJJ)	.	32ff#/JJJ)	32ff#\JJJ)	.	32en/JJJ)	32en\JJJ)	.	.	.	.	.	.	.	.	.	.	.	.
16r	.	16r	16r	.	16r	16r	.	16r	16r	.	.	.	.	.	.	.	.	.	.	.	.
(32fff\LLL	.	(32ff/LLL	(32ff\LLL	.	(32gg/LLL	(32gg\LLL	.	(32f/LLL	(32f\LLL	.	8gg\J	8g/J	.	8bb-\J	.	8b-\J	.	8g-\J	.	8G-\J	.
32eee\JJJ)	.	32ee/JJJ)	32ee\JJJ)	.	32ff#/JJJ)	32ff#\JJJ)	.	32e/JJJ)	32e\JJJ)	.	.	.	.	.	.	.	.	.	.	.	.
16r	.	16r	16r	.	16r	16r	.	16r	16r	.	.	.	.	.	.	.	.	.	.	.	.
=35	=35	=35	=35	=35	=35	=35	=35	=35	=35	=35	=35	=35	=35	=35	=35	=35	=35	=35	=35	=35	=35
8fff\L	.	8ff/L	8ff\L	.	8gg/L	8gg\L	.	8f/L	8f\L	.	8gg/L	8g\L	.	8bb-\	.	8b-/ 8dn/L	.	8f\L	.	8F\L	.
8fff\	.	8bb-/	8dd\	.	8gg/	8cc\	.	8d/	8B-\	.	8dd/	8dd\	.	(32dn/LLL	.	8b-/ 8d/	.	8f\	.	8F\	.
.	.	.	.	.	.	.	.	.	.	.	.	.	.	32f/JJJ)	.	.	.	.	.	.	.
.	.	.	.	.	.	.	.	.	.	.	.	.	.	16r	.	.	.	.	.	.	.
8fff\J	.	8bb-/J	8dd\J	.	8gg/J	8cc\J	.	8d/J	8B-\J	.	8dd/J	8dd\J	.	(32f/LLL	.	8b-/ 8d/J	.	8f\J	.	8F\J	.
.	.	.	.	.	.	.	.	.	.	.	.	.	.	32b-/JJJ)	.	.	.	.	.	.	.
.	.	.	.	.	.	.	.	.	.	.	.	.	.	16r	.	.	.	.	.	.	.
8fff\L	.	8bb-/L	8dd\L	.	8gg/L	8cc\L	.	8d/L	8B-\L	.	8dd/L	8dd\L	.	(32b-\LLL	.	8b-/ 8d/L	.	8f\L	.	8F\L	.
.	.	.	.	.	.	.	.	.	.	.	.	.	.	32dd\JJJ)	.	.	.	.	.	.	.
.	.	.	.	.	.	.	.	.	.	.	.	.	.	16r	.	.	.	.	.	.	.
8fff\	.	8bb-/	8dd\	.	8gg/	8cc\	.	8d/	8B-\	.	8dd/	8dd\	.	(32dd\LLL	.	8b-/ 8d/	.	8f\	.	8F\	.
.	.	.	.	.	.	.	.	.	.	.	.	.	.	32ff\JJJ)	.	.	.	.	.	.	.
.	.	.	.	.	.	.	.	.	.	.	.	.	.	16r	.	.	.	.	.	.	.
8fff\J	.	8bb-/J	8dd\J	.	8gg/J	8cc\J	.	8d/J	8B-\J	.	8dd/J	8dd\J	.	(32ff\LLL	.	8b-/ 8d/J	.	8f\J	.	8F\J	.
.	.	.	.	.	.	.	.	.	.	.	.	.	.	32bb-\JJJ)	.	.	.	.	.	.	.
.	.	.	.	.	.	.	.	.	.	.	.	.	.	16r	.	.	.	.	.	.	.
=36	=36	=36	=36	=36	=36	=36	=36	=36	=36	=36	=36	=36	=36	=36	=36	=36	=36	=36	=36	=36	=36
8fff\	.	8bb-/	8dd\	.	8gg/	8cc\	.	8d/	8B-\	.	8dd/	8dd\	.	(32bb-\LLL	.	8b-/ 8d/	.	8f\	.	8F\	.
.	.	.	.	.	.	.	.	.	.	.	.	.	.	32ddd\JJJ)	.	.	.	.	.	.	.
.	.	.	.	.	.	.	.	.	.	.	.	.	.	16r	.	.	.	.	.	.	.
8r	.	8r	8ryy	.	8r	8ryy	.	8r	8ryy	.	8r	8ryy	.	8r	.	8r	.	8r	.	8r	.
8r	.	8r	8ryy	.	8r	8ryy	.	8r	8ryy	.	8r	8ryy	.	8r	.	8r	.	8r	.	8r	.
4r	.	4r	4ryy	.	4r	4ryy	.	4r	4ryy	.	4r	4ryy	.	(8an\L	p	4.e-/	p	4.c\	p	4.FF/	p
.	.	.	.	.	.	.	.	.	.	.	.	.	.	8ee-\	.	.	.	.	.	.	.
8r	.	8r	8ryy	.	8r	8ryy	.	8r	8ryy	.	8r	8ryy	.	8cc\J)	.	.	.	.	.	.	.
=37	=37	=37	=37	=37	=37	=37	=37	=37	=37	=37	=37	=37	=37	=37	=37	=37	=37	=37	=37	=37	=37
2.r	.	2.r	2.r	.	2.r	2.r	.	2.r	2.r	.	2.r	2.r	.	(4bb-\	.	8r	.	8r	.	2.r	.
.	.	.	.	.	.	.	.	.	.	.	.	.	.	.	.	8b-'\L	.	8dn'\L	.	.	.
.	.	.	.	.	.	.	.	.	.	.	.	.	.	16ff\)	.	8b-'\J	.	8d'\J	.	.	.
.	.	.	.	.	.	.	.	.	.	.	.	.	.	16r	.	.	.	.	.	.	.
.	.	.	.	.	.	.	.	.	.	.	.	.	.	(4bb-\	.	8r	.	8r	.	.	.
.	.	.	.	.	.	.	.	.	.	.	.	.	.	.	.	8b-'\L	.	8d'\L	.	.	.
.	.	.	.	.	.	.	.	.	.	.	.	.	.	16ff\)	.	8b-'\J	.	8d'\J	.	.	.
.	.	.	.	.	.	.	.	.	.	.	.	.	.	16r	.	.	.	.	.	.	.
=38	=38	=38	=38	=38	=38	=38	=38	=38	=38	=38	=38	=38	=38	=38	=38	=38	=38	=38	=38	=38	=38
2.r	.	2.r	2.r	.	2.r	2.r	.	2.r	2.r	.	2.r	2.r	.	(8.bb-\L	.	8r	.	8r	.	2.r	.
.	.	.	.	.	.	.	.	.	.	.	.	.	.	.	.	8b-'\L	.	8d'\L	.	.	.
.	.	.	.	.	.	.	.	.	.	.	.	.	.	32aan\LL	.	.	.	.	.	.	.
.	.	.	.	.	.	.	.	.	.	.	.	.	.	32gg\JJJ	.	.	.	.	.	.	.
.	.	.	.	.	.	.	.	.	.	.	.	.	.	16ff\)	.	8b-'\J	.	8d'\J	.	.	.
.	.	.	.	.	.	.	.	.	.	.	.	.	.	16r	.	.	.	.	.	.	.
.	.	.	.	.	.	.	.	.	.	.	.	.	.	(8.bb-\L	.	8r	.	8r	.	.	.
.	.	.	.	.	.	.	.	.	.	.	.	.	.	.	.	8b-'\L	.	8d'\L	.	.	.
.	.	.	.	.	.	.	.	.	.	.	.	.	.	32aa\LL	.	.	.	.	.	.	.
.	.	.	.	.	.	.	.	.	.	.	.	.	.	32gg\JJJ	.	.	.	.	.	.	.
.	.	.	.	.	.	.	.	.	.	.	.	.	.	16ff\)	.	8b-'\J	.	8d'\J	.	.	.
.	.	.	.	.	.	.	.	.	.	.	.	.	.	16r	.	.	.	.	.	.	.
=39	=39	=39	=39	=39	=39	=39	=39	=39	=39	=39	=39	=39	=39	=39	=39	=39	=39	=39	=39	=39	=39
2.r	.	2.r	2.r	.	2.r	2.r	.	2.r	2.r	.	2.r	2.r	.	8ff'\L	.	[4.cc\	.	[4.An/	.	2.r	.
.	.	.	.	.	.	.	.	.	.	.	.	.	.	8ff#'\	.	.	.	.	.	.	.
.	.	.	.	.	.	.	.	.	.	.	.	.	.	8gg'\J	.	.	.	.	.	.	.
!	!	!	!	!	!	!	!	!	!	!	!	!	!	! (32ggP/	!	!	!	!	!	!	!
.	.	.	.	.	.	.	.	.	.	.	.	.	.	4ee-p\)	.	8cc/L]	.	(4A/]	.	.	.
.	.	.	.	.	.	.	.	.	.	.	.	.	.	.	.	(8f/	.	.	.	.	.
.	.	.	.	.	.	.	.	.	.	.	.	.	.	[8dd\	.	8f#/J	.	8B-/)	.	.	.
=40	=40	=40	=40	=40	=40	=40	=40	=40	=40	=40	=40	=40	=40	=40	=40	=40	=40	=40	=40	=40	=40
2.r	.	2.r	2.r	.	2.r	2.r	.	2.r	2.r	.	2.r	2.r	.	8dd\]	.	4g/)	.	4.E-/	.	2.r	.
!	!	!	!	!	!	!	!	!	!	!	!	!	!	! (32ccP/	!	!	!	!	!	!	!
.	.	.	.	.	.	.	.	.	.	.	.	.	.	4ee-p\)	.	.	.	.	.	.	.
.	.	.	.	.	.	.	.	.	.	.	.	.	.	.	.	(32Bn/LLL	.	.	.	.	.
.	.	.	.	.	.	.	.	.	.	.	.	.	.	.	.	32d/JJJ)	.	.	.	.	.
.	.	.	.	.	.	.	.	.	.	.	.	.	.	.	.	16r	.	.	.	.	.
.	.	.	.	.	.	.	.	.	.	.	.	.	.	8r	.	(32c/LLL	.	8r	.	.	.
.	.	.	.	.	.	.	.	.	.	.	.	.	.	.	.	32e-/JJJ)	.	.	.	.	.
.	.	.	.	.	.	.	.	.	.	.	.	.	.	.	.	16r	.	.	.	.	.
.	.	.	.	.	.	.	.	.	.	.	.	.	.	(32g/LLL	.	8r	.	8E-'/L	.	.	.
.	.	.	.	.	.	.	.	.	.	.	.	.	.	32b-/JJJ)	.	.	.	.	.	.	.
.	.	.	.	.	.	.	.	.	.	.	.	.	.	16r	.	.	.	.	.	.	.
.	.	.	.	.	.	.	.	.	.	.	.	.	.	(32an/LLL	.	(32c/LLL	.	8F'/J	.	.	.
.	.	.	.	.	.	.	.	.	.	.	.	.	.	32cc/JJJ)	.	32An/JJJ)	.	.	.	.	.
.	.	.	.	.	.	.	.	.	.	.	.	.	.	16r	.	16r	.	.	.	.	.
=41	=41	=41	=41	=41	=41	=41	=41	=41	=41	=41	=41	=41	=41	=41	=41	=41	=41	=41	=41	=41	=41
2.r	.	2.r	2.r	.	4r	2.r	.	(4B-/	2.r	p	2.r	2.r	.	(4b-\	.	8r	.	8r	.	8r	.
.	.	.	.	.	.	.	.	.	.	.	.	.	.	.	.	8B-'/L	.	8F'/L	.	8D'\L	.
.	.	.	.	.	8r	.	.	16F/)	.	.	.	.	.	16f/)	.	8B-'/J	.	8F'/J	.	8D'\J	.
.	.	.	.	.	.	.	.	16r	.	.	.	.	.	16r	.	.	.	.	.	.	.
.	.	.	.	.	(4ccc/	.	p	4r	.	.	.	.	.	(4b-\	.	8r	.	8r	.	4r	.
.	.	.	.	.	.	.	.	.	.	.	.	.	.	.	.	8B-'/L	.	8D'/L	.	.	.
.	.	.	.	.	16gg/)	.	.	8r	.	.	.	.	.	16f/)	.	8B-'/J	.	8D'/J	.	8r	.
.	.	.	.	.	16r	.	.	.	.	.	.	.	.	16r	.	.	.	.	.	.	.
=42	=42	=42	=42	=42	=42	=42	=42	=42	=42	=42	=42	=42	=42	=42	=42	=42	=42	=42	=42	=42	=42
2.r	.	2.r	2.r	.	4r	2.r	.	(8.B-/L	2.r	.	2.r	2.r	.	(8.b-/L	.	8r	.	8r	.	8r	.
.	.	.	.	.	.	.	.	.	.	.	.	.	.	.	.	8B-'/L	.	8F'/L	.	8D'\L	.
.	.	.	.	.	.	.	.	32An/LL	.	.	.	.	.	32an/LL	.	.	.	.	.	.	.
.	.	.	.	.	.	.	.	32G/JJJ	.	.	.	.	.	32g/JJJ	.	.	.	.	.	.	.
.	.	.	.	.	8r	.	.	16F/)	.	.	.	.	.	16f/)	.	8B-'/J	.	8F'/J	.	8D'\J	.
.	.	.	.	.	.	.	.	16r	.	.	.	.	.	16r	.	.	.	.	.	.	.
.	.	.	.	.	(8.ccc/L	.	.	4r	.	.	.	.	.	(8.b-/L	.	8r	.	8r	.	4r	.
.	.	.	.	.	.	.	.	.	.	.	.	.	.	.	.	8B-'/L	.	8D'/L	.	.	.
.	.	.	.	.	32bbn/LL	.	.	.	.	.	.	.	.	32a/LL	.	.	.	.	.	.	.
.	.	.	.	.	32aa/JJJ	.	.	.	.	.	.	.	.	32g/JJJ	.	.	.	.	.	.	.
.	.	.	.	.	16gg/)	.	.	8r	.	.	.	.	.	16f/)	.	8B-'/J	.	8D'/J	.	8r	.
.	.	.	.	.	16r	.	.	.	.	.	.	.	.	16r	.	.	.	.	.	.	.
=43	=43	=43	=43	=43	=43	=43	=43	=43	=43	=43	=43	=43	=43	=43	=43	=43	=43	=43	=43	=43	=43
2.r	.	2.r	2.r	.	16gg'/LL	2.r	.	16F'/LL	2.r	.	2.r	2.r	.	16f'/LL	.	[4.c/	.	[4.An/	.	[4.AAn/	.
.	.	.	.	.	16ff#'/	.	.	16En'/	.	.	.	.	.	16en'/	.	.	.	.	.	.	.
.	.	.	.	.	16gg'/	.	.	16F'/	.	.	.	.	.	16f'/	.	.	.	.	.	.	.
.	.	.	.	.	16ff#'/	.	.	16E'/	.	.	.	.	.	16e'/	.	.	.	.	.	.	.
.	.	.	.	.	16gg'/	.	.	16F'/	.	.	.	.	.	16f'/	.	.	.	.	.	.	.
.	.	.	.	.	16gg#'/JJ	.	.	16F#'/JJ	.	.	.	.	.	16f#'/JJ	.	.	.	.	.	.	.
.	.	.	.	.	8aa'/L	.	.	8G'/L	.	.	.	.	.	8g'/L	.	(4c/]	.	(4A/]	.	(4AA/]	.
.	.	.	.	.	(8ffn/	.	.	(8E-/	.	.	.	.	.	(8e-/	.	.	.	.	.	.	.
.	.	.	.	.	8ee/J)	.	.	8D/J)	.	.	.	.	.	8d/J)	.	8B-/)	.	8B-/)	.	8BB-/)	.
=44	=44	=44	=44	=44	=44	=44	=44	=44	=44	=44	=44	=44	=44	=44	=44	=44	=44	=44	=44	=44	=44
[2.ddd-\	f	[2.dd-/	(4.g-\	f	[2.ee-/	(4.a-\	f	[2.d-/	(4.G-\	f	2.g/	2.g\	f	[2.d-/	f	[2.d-/	f	8G-/L	f	8EE-/L	f
.	.	.	.	.	.	.	.	.	.	.	.	.	.	.	.	.	.	8G-/	.	8EE-/	.
.	.	.	.	.	.	.	.	.	.	.	.	.	.	.	.	.	.	8G-/J	.	8EE-/J	.
.	.	.	4.gn\	.	.	4.an\	.	.	4.Gn\	.	.	.	.	.	.	.	.	8Gn/L	.	8EEn/L	.
.	.	.	.	.	.	.	.	.	.	.	.	.	.	.	.	.	.	8G/	.	8EE/	.
.	.	.	.	.	.	.	.	.	.	.	.	.	.	.	.	.	.	8G/J	.	8EE/J	.
=45	=45	=45	=45	=45	=45	=45	=45	=45	=45	=45	=45	=45	=45	=45	=45	=45	=45	=45	=45	=45	=45
(4.ddd-\]	.	(4.dd-/]	2.a-\)	.	(4.ee-/]	2.b-\)	.	(4.d-/]	4.A-\)	.	2.dd/	2.dd\	.	4.d-/]	.	4.d-/]	.	8A-/L	.	8FF/L	.
.	.	.	.	.	.	.	.	.	.	.	.	.	.	.	.	.	.	8A-/	.	8FF/	.
.	.	.	.	.	.	.	.	.	.	.	.	.	.	.	.	.	.	8A-/J	.	8FF/J	.
4.ddd\	.	4.dd/	.	.	4.dd-/	.	.	4.d/	4.c-\	.	.	.	.	4.c-T/	.	4.A-/	.	8D/L	.	8FF/L	.
.	.	.	.	.	.	.	.	.	.	.	.	.	.	.	.	.	.	8D/	.	8FF/	.
.	.	.	.	.	.	.	.	.	.	.	.	.	.	.	.	.	.	8D/J	.	8FF/J	.
!	!	!	!	!	!	!	!	!	!	!	!	!	!	! (32B-P/LLL	!	!	!	!	!	!	!
!	!	!	!	!	!	!	!	!	!	!	!	!	!	! 32c-P/JJJ)	!	!	!	!	!	!	!
=46	=46	=46	=46	=46	=46	=46	=46	=46	=46	=46	=46	=46	=46	=46	=46	=46	=46	=46	=46	=46	=46
4.eee-\	.	4.ee-/	2.b-\	.	[4.cc/)	[2.cc\	.	4.e-/	[4.B-\	.	2.g/	2.G/	.	[4.B-p/	.	[2.B-/	.	8E-/L	.	8GG-/L	.
.	.	.	.	.	.	.	.	.	.	.	.	.	.	.	.	.	.	8E-/	.	8GG-/	.
.	.	.	.	.	.	.	.	.	.	.	.	.	.	.	.	.	.	8E-/J	.	8GG-/J	.
4.eeen\	.	4.een/	.	.	(8cc/L]	.	.	4.en/	(8B-\L]	.	.	.	.	8B-/]	.	.	.	8En/L	.	8GGn/L	.
.	.	.	.	.	8ddn/	.	.	.	8cn\	.	.	.	.	(32Bn/LLL	.	.	.	8E/	.	8GG/	.
.	.	.	.	.	.	.	.	.	.	.	.	.	.	32cn/JJJ)	.	.	.	.	.	.	.
.	.	.	.	.	.	.	.	.	.	.	.	.	.	16r	.	.	.	.	.	.	.
.	.	.	.	.	8ee-/J)	.	.	.	8d-\J)	.	.	.	.	(32c/LLL	.	.	.	8E/J	.	8GG/J	.
.	.	.	.	.	.	.	.	.	.	.	.	.	.	32d-/JJJ)	.	.	.	.	.	.	.
.	.	.	.	.	.	.	.	.	.	.	.	.	.	16r	.	.	.	.	.	.	.
=47	=47	=47	=47	=47	=47	=47	=47	=47	=47	=47	=47	=47	=47	=47	=47	=47	=47	=47	=47	=47	=47
4.fff\	.	2.ff/)	(4.ff\	.	(4een/	(4cc\]	.	4.f/	4.dn\	.	2.dd/	2.dd\	.	(4dn/	.	(4.B-/]	.	[4.F/	.	8FF/L	.
.	.	.	.	.	.	.	.	.	.	.	.	.	.	.	.	.	.	.	.	8FF/	.
.	.	.	.	.	32ff/LLL	32dd\LLL	.	.	.	.	.	.	.	32e-/LLL	.	.	.	.	.	8FF/J	.
.	.	.	.	.	32ee/	32cc\	.	.	.	.	.	.	.	32d/	.	.	.	.	.	.	.
.	.	.	.	.	32dd/	32bn\	.	.	.	.	.	.	.	32c/	.	.	.	.	.	.	.
.	.	.	.	.	32ee/JJJ	32cc\JJJ	.	.	.	.	.	.	.	32d/JJJ	.	.	.	.	.	.	.
4.aan\)xx	.	.	4.ee-\)	.	4ff/	4dd\	.	4.An/)	(4F\	.	.	.	.	4e-/	.	4.An/)	.	(4F/]	.	8FF/L	.
.	.	.	.	.	.	.	.	.	.	.	.	.	.	.	.	.	.	.	.	8FF/	.
.	.	.	.	.	8dd/)	8b\)	.	.	8E-\)	.	.	.	.	8c/)	.	.	.	8E-/)	.	8FF/J	.
=48	=48	=48	=48	=48	=48	=48	=48	=48	=48	=48	=48	=48	=48	=48	=48	=48	=48	=48	=48	=48	=48
8bb-\	.	8ff/	8dd\	.	8cc/	8cc\	.	8B-/	8D\	.	8g/	8g\	.	8B-/	.	8B-/	.	8D/	.	8BB-/	.
8r	.	8r	8ryy	.	(32cc/LLL	8r	p	(32B-/LLL	32BB-\LLL	p	8r	8ryy	.	8r	.	8r	.	8r	.	8r	.
.	.	.	.	.	32ee/JJJ)	.	.	32d/JJJ)	32D\JJJ	.	.	.	.	.	.	.	.	.	.	.	.
.	.	.	.	.	16r	.	.	16r	16r	.	.	.	.	.	.	.	.	.	.	.	.
8r	.	8r	8ryy	.	(32ee/LLL	8r	.	(32d/LLL	32D\LLL	.	8r	8ryy	.	8r	.	8r	.	8r	.	8r	.
.	.	.	.	.	32gg/JJJ)	.	.	32f/JJJ)	32F\JJJ	.	.	.	.	.	.	.	.	.	.	.	.
.	.	.	.	.	16r	.	.	16r	16r	.	.	.	.	.	.	.	.	.	.	.	.
4r	.	4r	4ryy	.	8gg'/	4r	.	8f'/	8F\	.	4r	4ryy	.	16r	.	4r	.	4r	.	4r	.
.	.	.	.	.	.	.	.	.	.	.	.	.	.	16ddd'\LL	p	.	.	.	.	.	.
.	.	.	.	.	8r	.	.	8r	8r	.	.	.	.	16ccc'\	.	.	.	.	.	.	.
.	.	.	.	.	.	.	.	.	.	.	.	.	.	16bb-'\	.	.	.	.	.	.	.
8r	.	8r	8ryy	.	8r	8r	.	8r	8r	.	8r	8ryy	.	16aan'\	.	8r	.	8r	.	8r	.
.	.	.	.	.	.	.	.	.	.	.	.	.	.	16gg'\JJ	.	.	.	.	.	.	.
=49	=49	=49	=49	=49	=49	=49	=49	=49	=49	=49	=49	=49	=49	=49	=49	=49	=49	=49	=49	=49	=49
2.r	.	2.r	2.r	.	2.r	2.r	.	2.r	2.r	.	2.r	2.r	.	(4.ff\	.	(4.dn/	p	(4.B-/	p	(2.F\	p
.	.	.	.	.	.	.	.	.	.	.	.	.	.	8ff#\L	.	4.c/	.	4.An/	.	.	.
.	.	.	.	.	.	.	.	.	.	.	.	.	.	8gg\	.	.	.	.	.	.	.
.	.	.	.	.	.	.	.	.	.	.	.	.	.	8ee-\J	.	.	.	.	.	.	.
=50	=50	=50	=50	=50	=50	=50	=50	=50	=50	=50	=50	=50	=50	=50	=50	=50	=50	=50	=50	=50	=50
8r	.	2.r	2.r	.	8r	2.r	.	8r	2.r	.	2.r	2.r	.	8dd\)	.	8d/)	.	8B-/)	.	8BB-/)	.
(32bb-\LLL	p	.	.	.	(32cc/LLL	.	.	(32B-/LLL	.	.	.	.	.	8r	.	8r	.	8r	.	8r	.
32ddd\JJJ)	.	.	.	.	32ee/JJJ)	.	.	32d/JJJ)	.	.	.	.	.	.	.	.	.	.	.	.	.
16r	.	.	.	.	16r	.	.	16r	.	.	.	.	.	.	.	.	.	.	.	.	.
(32ddd\LLL	.	.	.	.	(32ee/LLL	.	.	(32d/LLL	.	.	.	.	.	8r	.	8r	.	8r	.	8r	.
32fff\JJJ)	.	.	.	.	32gg/JJJ)	.	.	32f/JJJ)	.	.	.	.	.	.	.	.	.	.	.	.	.
16r	.	.	.	.	16r	.	.	16r	.	.	.	.	.	.	.	.	.	.	.	.	.
8fff'\	.	.	.	.	8gg'/	.	.	8f'/	.	.	.	.	.	16r	.	4r	.	4r	.	4r	.
.	.	.	.	.	.	.	.	.	.	.	.	.	.	16bb-'\LL	.	.	.	.	.	.	.
8r	.	.	.	.	8r	.	.	8r	.	.	.	.	.	16aan'\	.	.	.	.	.	.	.
.	.	.	.	.	.	.	.	.	.	.	.	.	.	16gg'\	.	.	.	.	.	.	.
8r	.	.	.	.	8r	.	.	8r	.	.	.	.	.	16ff'\	.	8r	.	8r	.	8r	.
.	.	.	.	.	.	.	.	.	.	.	.	.	.	16ee-'\JJ	.	.	.	.	.	.	.
=51	=51	=51	=51	=51	=51	=51	=51	=51	=51	=51	=51	=51	=51	=51	=51	=51	=51	=51	=51	=51	=51
(4ddd\	.	2.r	2.r	.	2.r	2.r	.	(4d/	2.r	.	2.r	2.r	.	(4dd\	.	(4.d/	.	(4.B-/	.	[4.F\	.
32eee-\LLL	.	.	.	.	.	.	.	32e-/LLL	.	.	.	.	.	32ee-\LLL	.	.	.	.	.	.	.
32ddd\	.	.	.	.	.	.	.	32d/	.	.	.	.	.	32dd\	.	.	.	.	.	.	.
32ccc\	.	.	.	.	.	.	.	32c/	.	.	.	.	.	32cc\	.	.	.	.	.	.	.
32ddd\JJJ	.	.	.	.	.	.	.	32d/JJJ	.	.	.	.	.	32dd\JJJ	.	.	.	.	.	.	.
8eee-\)	.	.	.	.	.	.	.	8e-/)	.	.	.	.	.	8ee-\)	.	8c/)	.	8An/)	.	8F\]	.
8r	.	.	.	.	.	.	.	8r	.	.	.	.	.	8r	.	8r	.	8r	.	8r	.
8aan'\	.	.	.	.	.	.	.	8An'/	.	.	.	.	.	8an'/	.	8r	.	8r	.	8r	.
=52	=52	=52	=52	=52	=52	=52	=52	=52	=52	=52	=52	=52	=52	=52	=52	=52	=52	=52	=52	=52	=52
*	*	*	*	*	*v	*v	*	*	*	*	*	*	*	*	*	*	*	*	*	*	*
*	*	*	*	*	*	*	*	*	*	*v	*v	*	*	*	*	*	*	*	*	*
(4.ccc\	.	(4.aan\	(4.ee-\	p	4r	.	(4.c\	(4.E-\	.	4r	.	(4.cc\	.	(4.an/	.	(4.e-\	.	[4.BB-/	.
.	.	.	.	.	8r	.	.	.	.	8r	.	.	.	.	.	.	.	.	.
8bb-\)	.	8bb-\)	8dd\)	.	4r	.	8B-\)	8D\)	.	4r	.	8b-\)	.	8b-\)	.	8d\)	.	8BB-/]	.
8r	.	8r	8r	.	.	.	8r	8r	.	.	.	8r	.	8r	.	8r	.	8r	.
=:!!:	=:!!:	=:!!:	=:!!:	=:!!:	=:!!:	=:!!:	=:!!:	=:!!:	=:!!:	=:!!:	=:!!:	=:!!:	=:!!:	=:!!:	=:!!:	=:!!:	=:!!:	=:!!:	=:!!:
*>B	*	*>B	*	*	*>B	*	*	*	*	*>B	*	*>B	*	*>B	*	*>B	*	*>B	*
*	*	*	*	*	*	*	*v	*v	*	*	*	*	*	*	*	*	*	*	*
*	*	*	*	*	*	*	*>B	*	*	*	*	*	*	*	*	*	*	*
8r	.	8r	8r	.	8r	.	8r	.	8r	.	(8B-/	p	(8B-/	p	(8B-/	p	(8BB-/	p
2ryy	.	2ryy	2ryy	.	2ryy	.	2ryy	.	2ryy	.	2ryy	.	2ryy	.	2ryy	.	2ryy	.
8ryy	.	8ryy	8ryy	.	8ryy	.	8ryy	.	8ryy	.	8ryy	.	8ryy	.	8ryy	.	8ryy	.
=53	=53	=53	=53	=53	=53	=53	=53	=53	=53	=53	=53	=53	=53	=53	=53	=53	=53	=53
*	*	*	*	*	*^	*	*^	*	*^	*	*	*	*	*	*	*	*	*
2.r	.	2.r	2.r	.	2.r	2.r	.	2.r	2.r	.	2.r	2.r	.	8c-/L)	.	8c-/L)	.	8c-\L)	.	8C-/L)	.
.	.	.	.	.	.	.	.	.	.	.	.	.	.	8c-/	.	8c-/	.	8c-\	.	8C-/	.
.	.	.	.	.	.	.	.	.	.	.	.	.	.	8c-/J	.	8c-/J	.	8c-\J	.	8C-/J	.
.	.	.	.	.	.	.	.	.	.	.	.	.	.	8c-/L	.	8c-/L	.	8c-\L	.	8C-/L	.
.	.	.	.	.	.	.	.	.	.	.	.	.	.	8c-/	.	8c-/	.	8c-\	.	8C-/	.
.	.	.	.	.	.	.	.	.	.	.	.	.	.	8c-/J	.	8c-/J	.	8c-\J	.	8C-/J	.
=54	=54	=54	=54	=54	=54	=54	=54	=54	=54	=54	=54	=54	=54	=54	=54	=54	=54	=54	=54	=54	=54
8eee-\L	f	8aa-\L	8ee-\L	f	8ff\L	8b-\L	f	8e-\L	8A-\L	f	8cc/L	8c/L	f	4.c-/	f	4.c-/	f	8c-\L	f	8C-/L	f
8eee-\	.	8aa-\	8ee-\	.	8ff\	8b-\	.	8e-\	8A-\	.	8cc/	8c/	.	.	.	.	.	8c-\	.	8C-/	.
8eee-\J	.	8aa-\J	8ee-\J	.	8ff\J	8b-\J	.	8e-\J	8A-\J	.	8cc/J	8c/J	.	.	.	.	.	8c-\J	.	8C-/J	.
8eee-\L	.	8aa-\L	8ee-\L	.	8ff\L	8b-\L	.	8e-\L	8A-\L	.	8cc/L	8c/L	.	[4.aa-\	.	[4.aa-\	.	8c-\L	.	8C-/L	.
8eee-\	.	8aa-\	8ee-\	.	8ff\	8b-\	.	8e-\	8A-\	.	8cc/	8c/	.	.	.	.	.	8c-\	.	8C-/	.
8eee-\J	.	8aa-\J	8ee-\J	.	8ff\J	8b-\J	.	8e-\J	8A-\J	.	8cc/J	8c/J	.	.	.	.	.	8c-\J	.	8C-/J	.
=55	=55	=55	=55	=55	=55	=55	=55	=55	=55	=55	=55	=55	=55	=55	=55	=55	=55	=55	=55	=55	=55
[4.ddd\	.	[4.aa-\	[4.ff\	.	[4.ee\	[4.b-\	.	[4.d\	[4.A-\	.	[4.dd/	[4.G/	.	(32aa-\LLL]	.	(32aa-\LLL]	.	[4.B-/	.	[4.BB-/	.
.	.	.	.	.	.	.	.	.	.	.	.	.	.	32ff\JJJ)	.	32ff\JJJ)	.	.	.	.	.
.	.	.	.	.	.	.	.	.	.	.	.	.	.	16r	.	16r	.	.	.	.	.
.	.	.	.	.	.	.	.	.	.	.	.	.	.	(32ff\LLL	.	(32ff\LLL	.	.	.	.	.
.	.	.	.	.	.	.	.	.	.	.	.	.	.	32dd\JJJ)	.	32dd\JJJ)	.	.	.	.	.
.	.	.	.	.	.	.	.	.	.	.	.	.	.	16r	.	16r	.	.	.	.	.
.	.	.	.	.	.	.	.	.	.	.	.	.	.	(32dd\LLL	.	(32dd\LLL	.	.	.	.	.
.	.	.	.	.	.	.	.	.	.	.	.	.	.	32a-\JJJ)	.	32a-\JJJ)	.	.	.	.	.
.	.	.	.	.	.	.	.	.	.	.	.	.	.	16r	.	16r	.	.	.	.	.
8ddd\]	.	8aa-\]	8ff\]	.	8ee\]	8b-\]	.	8d\]	8A-\]	.	8dd/]	8G/]	.	(32a-/LLL	.	(32a-/LLL	.	8B-/]	.	8BB-/]	.
.	.	.	.	.	.	.	.	.	.	.	.	.	.	32f/JJJ)	.	32f/JJJ)	.	.	.	.	.
.	.	.	.	.	.	.	.	.	.	.	.	.	.	16r	.	16r	.	.	.	.	.
8r	.	8r	8r	.	8r	8r	.	8r	8r	.	8r	8r	.	(32f/LLL	.	(32f/LLL	.	8r	.	8r	.
.	.	.	.	.	.	.	.	.	.	.	.	.	.	32d/JJJ)	.	32d/JJJ)	.	.	.	.	.
.	.	.	.	.	.	.	.	.	.	.	.	.	.	16r	.	16r	.	.	.	.	.
8r	.	8r	8r	.	8r	8r	.	8r	8r	.	8r	8r	.	(32d/LLL	.	(32d/LLL	.	8r	.	8r	.
.	.	.	.	.	.	.	.	.	.	.	.	.	.	32B-/JJJ)	.	32B-/JJJ)	.	.	.	.	.
.	.	.	.	.	.	.	.	.	.	.	.	.	.	16r	.	16r	.	.	.	.	.
=56	=56	=56	=56	=56	=56	=56	=56	=56	=56	=56	=56	=56	=56	=56	=56	=56	=56	=56	=56	=56	=56
2.r	.	2.r	2.r	.	2.r	2.r	.	2.r	2.r	.	2.r	2.r	.	8c-/L	p	8c-/L	p	8c-\L	p	8C-/L	p
.	.	.	.	.	.	.	.	.	.	.	.	.	.	8c-/	.	8c-/	.	8c-\	.	8C-/	.
.	.	.	.	.	.	.	.	.	.	.	.	.	.	8c-/J	.	8c-/J	.	8c-\J	.	8C-/J	.
.	.	.	.	.	.	.	.	.	.	.	.	.	.	8c-/L	.	8c-/L	.	8c-\L	.	8C-/L	.
.	.	.	.	.	.	.	.	.	.	.	.	.	.	8c-/	.	8c-/	.	8c-\	.	8C-/	.
.	.	.	.	.	.	.	.	.	.	.	.	.	.	8c-/J	.	8c-/J	.	8c-\J	.	8C-/J	.
=57	=57	=57	=57	=57	=57	=57	=57	=57	=57	=57	=57	=57	=57	=57	=57	=57	=57	=57	=57	=57	=57
8aa-\L	f	8gg-\L	8ee-\L	f	8b-/L	8B-\L	f	8g-\L	8A-\L	f	8cc/L	8cc\L	f	8cn'/	f	8cn/	f	8cn'\	f	8Cn/L	f
8aa-\	.	8gg-\	8ee-\	.	8b-/	8B-\	.	8g-\	8A-\	.	8cc/	8cc\	.	(32gg-\LLL	.	(32gg-\LLL	.	(32g-\LLL	.	8C/	.
.	.	.	.	.	.	.	.	.	.	.	.	.	.	32ee-\JJJ)	.	32ee-\JJJ)	.	32e-\JJJ)	.	.	.
.	.	.	.	.	.	.	.	.	.	.	.	.	.	16r	.	16r	.	16r	.	.	.
8aa-\J	.	8gg-\J	8ee-\J	.	8b-/J	8B-\J	.	8g-\J	8A-\J	.	8cc/J	8cc\J	.	(32ee-\LLL	.	(32ee-\LLL	.	(32e-\LLL	.	8C/J	.
.	.	.	.	.	.	.	.	.	.	.	.	.	.	32cc\JJJ)	.	32cc\JJJ)	.	32c\JJJ)	.	.	.
.	.	.	.	.	.	.	.	.	.	.	.	.	.	16r	.	16r	.	16r	.	.	.
8aa-\L	.	8gg-\L	8ee-\L	.	8b-/L	8B-\L	.	8g-\L	8A-\L	.	8cc/L	8cc\L	.	(32cc/LLL	.	(32cc/LLL	.	(32c/LLL	.	8C/L	.
.	.	.	.	.	.	.	.	.	.	.	.	.	.	32g-/JJJ)	.	32g-/JJJ)	.	32G-/JJJ)	.	.	.
.	.	.	.	.	.	.	.	.	.	.	.	.	.	16r	.	16r	.	16r	.	.	.
8aa-\	.	8gg-\	8ee-\	.	8b-/	8B-\	.	8g-\	8A-\	.	8cc/	8cc\	.	(32g-/LLL	.	(32g-/LLL	.	(32G-/LLL	.	8C/	.
.	.	.	.	.	.	.	.	.	.	.	.	.	.	32e-/JJJ)	.	32e-/JJJ)	.	32E-/JJJ)	.	.	.
.	.	.	.	.	.	.	.	.	.	.	.	.	.	16r	.	16r	.	16r	.	.	.
8aa-\J	.	8gg-\J	8ee-\J	.	8b-/J	8B-\J	.	8g-\J	8A-\J	.	8cc/J	8cc\J	.	(32e-/LLL	.	(32e-/LLL	.	(32E-/LLL	.	8C/J	.
.	.	.	.	.	.	.	.	.	.	.	.	.	.	32c/JJJ)	.	32c/JJJ)	.	32C/JJJ)	.	.	.
.	.	.	.	.	.	.	.	.	.	.	.	.	.	16r	.	16r	.	16r	.	.	.
=58	=58	=58	=58	=58	=58	=58	=58	=58	=58	=58	=58	=58	=58	=58	=58	=58	=58	=58	=58	=58	=58
8aa-\	.	8ff\	8dd-\	.	8b-/	8B-/	.	8f\	8A-\	.	4dd/	4dd\	.	8d-/L	.	8d-/L	.	8D-/L	.	8D-\L	.
8r	.	(32aa-\LLL	32a-\LLL	.	(32bb-\LLL	32b-\LLL	.	8r	8r	.	.	.	.	8aa-\	.	8ff\	.	8d-/	.	8D-\	.
.	.	32ff\JJJ)	32f\JJJ	.	32gg\JJJ)	32g\JJJ	.	.	.	.	.	.	.	.	.	.	.	.	.	.	.
.	.	16r	16r	.	16r	16r	.	.	.	.	.	.	.	.	.	.	.	.	.	.	.
(32fff\LLL	.	(32ff/LLL	(32ff\LLL	.	(32gg/LLL	(32gg\LLL	.	(32f/LLL	(32f\LLL	.	8r	8ryy	.	8aa-\J	.	8ff\J	.	8d-/J	.	8D-\J	.
32ddd-\JJJ)	.	32dd-/JJJ)	32dd-\JJJ)	.	32ee-/JJJ)	32ee-\JJJ)	.	32d-/JJJ)	32d-\JJJ)	.	.	.	.	.	.	.	.	.	.	.	.
16r	.	16r	16r	.	16r	16r	.	16r	16r	.	.	.	.	.	.	.	.	.	.	.	.
(32ddd-\LLL	.	(32dd-/LLL	(32dd-\LLL	.	(32ee-/LLL	(32ee-\LLL	.	(32d-/LLL	(32d-\LLL	.	4r	4ryy	.	8aa-\L	.	8ff\L	.	8d-\L	.	8D-\L	.
32aa-\JJJ)	.	32a-/JJJ)	32a-\JJJ)	.	32b-/JJJ)	32b-\JJJ)	.	32A-/JJJ)	32A-\JJJ)	.	.	.	.	.	.	.	.	.	.	.	.
16r	.	16r	16r	.	16r	16r	.	16r	16r	.	.	.	.	.	.	.	.	.	.	.	.
(32aa-\LLL	.	(32a-/LLL	(32a-\LLL	.	(32b-/LLL	(32b-/LLL	.	(32A-/LLL	(32A-\LLL	.	.	.	.	8aa-\	.	8ff\	.	8d-\	.	8D-\	.
32ff\JJJ)	.	32f/JJJ)	32f\JJJ)	.	32g/JJJ)	32g/JJJ)	.	32F/JJJ)	32F\JJJ)	.	.	.	.	.	.	.	.	.	.	.	.
16r	.	16r	16r	.	16r	16r	.	16r	16r	.	.	.	.	.	.	.	.	.	.	.	.
(32ff\LLL	.	(32f/LLL	(32f\LLL	.	(32g/LLL	(32g/LLL	.	(32F/LLL	(32F\LLL	.	8r	8ryy	.	8aa-\J	.	8ff\J	.	8d-\J	.	8D-\J	.
32dd-\JJJ)	.	32d-/JJJ)	32d-\JJJ)	.	32e-/JJJ)	32e-/JJJ)	.	32D-/JJJ)	32D-\JJJ)	.	.	.	.	.	.	.	.	.	.	.	.
16r	.	16r	16r	.	16r	16r	.	16r	16r	.	.	.	.	.	.	.	.	.	.	.	.
=59	=59	=59	=59	=59	=59	=59	=59	=59	=59	=59	=59	=59	=59	=59	=59	=59	=59	=59	=59	=59	=59
8bb-\L	.	8aa-\L	8ff\L	.	8cc\L	8b-\L	.	8f\L	8A-\L	.	8g/L	8G/L	.	8aa-'\	.	8ff'\	.	8dn\	.	8Dn\L	.
8bb-\	.	8aa-\	8ff\	.	8cc\	8b-\	.	8f\	8A-\	.	8g/	8G/	.	(32aa-\LLL	.	(32aa-\LLL	.	(32a-\LLL	.	8D\	.
.	.	.	.	.	.	.	.	.	.	.	.	.	.	32ff\JJJ)	.	32ff\JJJ)	.	32f\JJJ)	.	.	.
.	.	.	.	.	.	.	.	.	.	.	.	.	.	16r	.	16r	.	16r	.	.	.
8bb-\J	.	8aa-\J	8ff\J	.	8cc\J	8b-\J	.	8f\J	8A-\J	.	8g/J	8G/J	.	(32ff\LLL	.	(32ff\LLL	.	(32f\LLL	.	8D\J	.
.	.	.	.	.	.	.	.	.	.	.	.	.	.	32ddn\JJJ)	.	32ddn\JJJ)	.	32d\JJJ)	.	.	.
.	.	.	.	.	.	.	.	.	.	.	.	.	.	16r	.	16r	.	16r	.	.	.
8bb-\L	.	8aa-\L	8ff\L	.	8cc\L	8b-\L	.	8f\L	8A-\L	.	8g/L	8G/L	.	(32dd\LLL	.	(32dd\LLL	.	(32d/LLL	.	8D\L	.
.	.	.	.	.	.	.	.	.	.	.	.	.	.	32a-\JJJ)	.	32a-\JJJ)	.	32A-/JJJ)	.	.	.
.	.	.	.	.	.	.	.	.	.	.	.	.	.	16r	.	16r	.	16r	.	.	.
8bb-\	.	8aa-\	8ff\	.	8cc\	8b-\	.	8f\	8A-\	.	8g/	8G/	.	(32a-/LLL	.	(32a-/LLL	.	(32A-/LLL	.	8D\	.
.	.	.	.	.	.	.	.	.	.	.	.	.	.	32f/JJJ)	.	32f/JJJ)	.	32F/JJJ)	.	.	.
.	.	.	.	.	.	.	.	.	.	.	.	.	.	16r	.	16r	.	16r	.	.	.
8bb-\J	.	8aa-\J	8ff\J	.	8cc\J	8b-\J	.	8f\J	8A-\J	.	8g/J	8G/J	.	(32f/LLL	.	(32f/LLL	.	(32F/LLL	.	8D\J	.
.	.	.	.	.	.	.	.	.	.	.	.	.	.	32d/JJJ)	.	32d/JJJ)	.	32D/JJJ)	.	.	.
.	.	.	.	.	.	.	.	.	.	.	.	.	.	16r	.	16r	.	16r	.	.	.
=60	=60	=60	=60	=60	=60	=60	=60	=60	=60	=60	=60	=60	=60	=60	=60	=60	=60	=60	=60	=60	=60
8bb-\	.	8ggn\	8ee-\	.	8cc\	8a\	.	8e-\	8Gn\	.	4g/	4c/	.	8e-/L	.	8e-/L	.	8E-/L	.	8E-\L	.
8r	.	(32bb-\LLL	32b-\LLL	.	(32ccc\LLL	32cc\LLL	.	8r	8r	.	.	.	.	8bb-\	.	8ggn\	.	8e-/	.	8E-\	.
.	.	32gg\JJJ)	32g\JJJ	.	32aa\JJJ)	32a\JJJ	.	.	.	.	.	.	.	.	.	.	.	.	.	.	.
.	.	16r	16r	.	16r	16r	.	.	.	.	.	.	.	.	.	.	.	.	.	.	.
(32ggg\LLL	.	(32gg/LLL	(32gg\LLL	.	(32aa\LLL	32a\LLL	.	(32gn\LLL	32G\LLL	.	8r	8r	.	8bb-\J	.	8gg\J	.	8e-/J	.	8E-\J	.
32eee-\JJJ)	.	32ee-/JJJ)	32ee-\JJJ)	.	32ff\JJJ)	32f\JJJ	.	32e-\JJJ)	32E-\JJJ	.	.	.	.	.	.	.	.	.	.	.	.
16r	.	16r	16r	.	16r	16r	.	16r	16r	.	.	.	.	.	.	.	.	.	.	.	.
(32eee-\LLL	.	(32ee-/LLL	(32ee-\LLL	.	32ff/LLL	(32f/LLL	.	(32e-\LLL	32E-\LLL	.	4r	4r	.	8bb-\L	.	8gg\L	.	8e-\L	.	8E-\L	.
32bb-\JJJ)	.	32b-/JJJ)	32b-\JJJ)	.	32cc/JJJ	32c/JJJ)	.	32B-\JJJ)	32BB-\JJJ	.	.	.	.	.	.	.	.	.	.	.	.
16r	.	16r	16r	.	16r	16r	.	16r	16r	.	.	.	.	.	.	.	.	.	.	.	.
(32bb-\LLL	.	(32b-/LLL	(32b-\LLL	.	32cc/LLL	(32c/LLL	.	(32B-\LLL	32BB-\LLL	.	.	.	.	8bb-\	.	8gg\	.	8e-\	.	8E-\	.
32gg\JJJ)	.	32g/JJJ)	32g\JJJ)	.	32a/JJJ	32A/JJJ)	.	32G\JJJ)	32GG\JJJ	.	.	.	.	.	.	.	.	.	.	.	.
16r	.	16r	16r	.	16r	16r	.	16r	16r	.	.	.	.	.	.	.	.	.	.	.	.
(32gg\LLL	.	(32g/LLL	(32g\LLL	.	32a/LLL	(32A/LLL	.	32G/LLL	(32GG/LLL	.	8r	8r	.	8bb-\J	.	8gg\J	.	8e-\J	.	8E-\J	.
32ee-\JJJ)	.	32e-/JJJ)	32e-\JJJ)	.	32f/JJJ	32F/JJJ)	.	32E-/JJJ	32EE-/JJJ)	.	.	.	.	.	.	.	.	.	.	.	.
16r	.	16r	16r	.	16r	16r	.	16r	16r	.	.	.	.	.	.	.	.	.	.	.	.
=61	=61	=61	=61	=61	=61	=61	=61	=61	=61	=61	=61	=61	=61	=61	=61	=61	=61	=61	=61	=61	=61
8ccc\L	.	8bb-\L	8gg\L	.	8dd\L	8cc\L	.	8c\L	8G\L	.	8ee\L	8g\L	.	8bb-'\	.	8gg'\	.	8en'\	.	8En\L	.
8ccc\	.	8bb-\	8gg\	.	8dd\	8cc\	.	8c\	8G\	.	8ee\	8g\	.	(32bb-\LLL	.	(32bb-\LLL	.	(32b-\LLL	.	8E\	.
.	.	.	.	.	.	.	.	.	.	.	.	.	.	32gg\JJJ)	.	32gg\JJJ)	.	32g\JJJ)	.	.	.
.	.	.	.	.	.	.	.	.	.	.	.	.	.	16r	.	16r	.	16r	.	.	.
8ccc\J	.	8bb-\J	8gg\J	.	8dd\J	8cc\J	.	8c\J	8G\J	.	8ee\J	8g\J	.	(32gg\LLL	.	(32gg\LLL	.	(32g\LLL	.	8E\J	.
.	.	.	.	.	.	.	.	.	.	.	.	.	.	32een\JJJ)	.	32een\JJJ)	.	32en\JJJ)	.	.	.
.	.	.	.	.	.	.	.	.	.	.	.	.	.	16r	.	16r	.	16r	.	.	.
8ccc\L	.	8bb-\L	8gg\L	.	8dd\L	8cc\L	.	8c\L	8G\L	.	8ee\L	8g\L	.	(32ee\LLL	.	(32ee\LLL	.	(32e\LLL	.	8E\L	.
.	.	.	.	.	.	.	.	.	.	.	.	.	.	32b-\JJJ)	.	32b-\JJJ)	.	32B-\JJJ)	.	.	.
.	.	.	.	.	.	.	.	.	.	.	.	.	.	16r	.	16r	.	16r	.	.	.
8ccc\	.	8bb-\	8gg\	.	8dd\	8cc\	.	8c\	8G\	.	8ee\	8g\	.	(32b-/LLL	.	(32b-/LLL	.	(32B-/LLL	.	8E\	.
.	.	.	.	.	.	.	.	.	.	.	.	.	.	32g/JJJ)	.	32g/JJJ)	.	32G/JJJ)	.	.	.
.	.	.	.	.	.	.	.	.	.	.	.	.	.	16r	.	16r	.	16r	.	.	.
8ccc\J	.	8bb-\J	8gg\J	.	8dd\J	8cc\J	.	8c\J	8G\J	.	8ee\J	8g\J	.	(32g/LLL	.	(32g/LLL	.	(32G/LLL	.	8E\J	.
.	.	.	.	.	.	.	.	.	.	.	.	.	.	32en/JJJ)	.	32en/JJJ)	.	32En/JJJ)	.	.	.
.	.	.	.	.	.	.	.	.	.	.	.	.	.	16r	.	16r	.	16r	.	.	.
=62	=62	=62	=62	=62	=62	=62	=62	=62	=62	=62	=62	=62	=62	=62	=62	=62	=62	=62	=62	=62	=62
8ccc\	.	8aa-\	8ff\	.	8dd\	8b-\	.	8c\	8A-\	.	4dd/	4dd\	.	8f/L	.	8f/L	.	8F/L	.	8F\L	.
(32fff\LLL	.	(32ff/LLL	(32ff\LLL	.	(32gg/LLL	(32gg\LLL	.	(32f/LLL	32f\LLL	.	.	.	.	8ccc\	.	8aa-\	.	8f/	.	8F\	.
32ccc\JJJ)	.	32cc/JJJ)	32cc\JJJ)	.	32dd/JJJ)	32dd\JJJ)	.	32c/JJJ)	32c\JJJ	.	.	.	.	.	.	.	.	.	.	.	.
16r	.	16r	16r	.	16r	16r	.	16r	16r	.	.	.	.	.	.	.	.	.	.	.	.
(32ccc\LLL	.	(32cc/LLL	(32cc\LLL	.	(32dd/LLL	(32dd\LLL	.	(32c/LLL	32c\LLL	.	8r	8ryy	.	8ccc\J	.	8aa-\J	.	8f/J	.	8F\J	.
32aa-\JJJ)	.	32a-/JJJ)	32a-\JJJ)	.	32b-/JJJ)	32b-\JJJ)	.	32A-/JJJ)	32A-\JJJ	.	.	.	.	.	.	.	.	.	.	.	.
16r	.	16r	16r	.	16r	16r	.	16r	16r	.	.	.	.	.	.	.	.	.	.	.	.
(32aa-\LLL	.	(32a-/LLL	(32a-\LLL	.	(32b-/LLL	(32b-\LLL	.	(32A-/LLL	32A-\LLL	.	4r	4ryy	.	8ccc\L	.	8aa-\L	.	8f\L	.	8F\L	.
32ff\JJJ)	.	32f/JJJ)	32f\JJJ)	.	32g/JJJ)	32g\JJJ)	.	32F/JJJ)	32F\JJJ	.	.	.	.	.	.	.	.	.	.	.	.
16r	.	16r	16r	.	16r	16r	.	16r	16r	.	.	.	.	.	.	.	.	.	.	.	.
(32fff\LLL	.	(32ff/LLL	(32ff\LLL	.	(32g/LLL	(32g\LLL	.	(32f\LLL	32F\LLL	.	.	.	.	8ccc\	.	8aa-\	.	8f\	.	8F\	.
32ccc\JJJ)	.	32cc/JJJ)	32cc\JJJ)	.	32d/JJJ)	32d\JJJ)	.	32c\JJJ)	32C\JJJ	.	.	.	.	.	.	.	.	.	.	.	.
16r	.	16r	16r	.	16r	16r	.	16r	16r	.	.	.	.	.	.	.	.	.	.	.	.
(32ccc\LLL	.	(32cc/LLL	(32cc\LLL	.	(32d/LLL	(32d\LLL	.	(32c\LLL	32C\LLL	.	8r	8ryy	.	8ccc\J	.	8aa-\J	.	8f\J	.	8F\J	.
32aa-\JJJ)	.	32a-/JJJ)	32a-\JJJ)	.	32B-/JJJ)	32B-\JJJ)	.	32A-\JJJ)	32AA-\JJJ	.	.	.	.	.	.	.	.	.	.	.	.
16r	.	16r	16r	.	16r	16r	.	16r	16r	.	.	.	.	.	.	.	.	.	.	.	.
=63	=63	=63	=63	=63	=63	=63	=63	=63	=63	=63	=63	=63	=63	=63	=63	=63	=63	=63	=63	=63	=63
8fff#\L	.	8ccc\L	8ff#\L	.	8gg#\L	8dd\L	.	8f#\L	8c\L	.	8cc/L	8c/L	.	8ccc'\	.	8ff#'\	.	8A-'/	.	8A-\L	.
8fff#\	.	8ccc\	8ff#\	.	8gg#\	8dd\	.	8f#\	8c\	.	8cc/	8c/	.	(32eee-\LLL	.	(32eee-\LLL	.	(32ee-\LLL	.	8A-\	.
.	.	.	.	.	.	.	.	.	.	.	.	.	.	32ccc\JJJ)	.	32ccc\JJJ)	.	32cc\JJJ)	.	.	.
.	.	.	.	.	.	.	.	.	.	.	.	.	.	16r	.	16r	.	16r	.	.	.
8fff#\J	.	8ccc\J	8ff#\J	.	8gg#\J	8dd\J	.	8f#\J	8c\J	.	8cc/J	8c/J	.	(32ccc\LLL	.	(32ccc\LLL	.	(32cc\LLL	.	8A-\J	.
.	.	.	.	.	.	.	.	.	.	.	.	.	.	32ff#\JJJ)	.	32ff#\JJJ)	.	32f#\JJJ)	.	.	.
.	.	.	.	.	.	.	.	.	.	.	.	.	.	16r	.	16r	.	16r	.	.	.
8fff#\L	.	8ccc\L	8ff#\L	.	8gg#\L	8dd\L	.	8f#\L	8c\L	.	8cc/L	8c/L	.	(32ff#\LLL	.	(32ff#\LLL	.	(32f#\LLL	.	8A-\L	.
.	.	.	.	.	.	.	.	.	.	.	.	.	.	32ee-\JJJ)	.	32ee-\JJJ)	.	32e-\JJJ)	.	.	.
.	.	.	.	.	.	.	.	.	.	.	.	.	.	16r	.	16r	.	16r	.	.	.
8fff#\	.	8ccc\	8ff#\	.	8gg#\	8dd\	.	8f#\	8c\	.	8cc/	8c/	.	(32ee-\LLL	.	(32ee-\LLL	.	(32e-\LLL	.	8A-\	.
.	.	.	.	.	.	.	.	.	.	.	.	.	.	32cc\JJJ)	.	32cc\JJJ)	.	32c\JJJ)	.	.	.
.	.	.	.	.	.	.	.	.	.	.	.	.	.	16r	.	16r	.	16r	.	.	.
8fff#\J	.	8ccc\J	8ff#\J	.	8gg#\J	8dd\J	.	8f#\J	8c\J	.	8cc/J	8c/J	.	(32cc/LLL	.	(32cc/LLL	.	(32c/LLL	.	8A-\J	.
.	.	.	.	.	.	.	.	.	.	.	.	.	.	32f#/JJJ)	.	32f#/JJJ)	.	32F#/JJJ)	.	.	.
.	.	.	.	.	.	.	.	.	.	.	.	.	.	16r	.	16r	.	16r	.	.	.
=64	=64	=64	=64	=64	=64	=64	=64	=64	=64	=64	=64	=64	=64	=64	=64	=64	=64	=64	=64	=64	=64
8ggg\	.	8bbn\	8gg\	.	8aa\	8cc#\	.	8g\	8Bn\	.	8ee/	8e/	.	8g'/	.	8g'/	.	8G'/	.	8G\	.
8r	.	8r	8r	.	8r	8r	.	8r	8r	.	8r	8r	.	(32bbn\LLL	.	8r	.	8r	.	8r	.
.	.	.	.	.	.	.	.	.	.	.	.	.	.	32gg\JJJ)	.	.	.	.	.	.	.
.	.	.	.	.	.	.	.	.	.	.	.	.	.	16r	.	.	.	.	.	.	.
(8fff#\L	.	(8ccc\L	8ff#\L	.	(8gg#\L	8dd\L	.	(8f#\L	8c\L	.	8cc/L	(8c/L	.	(32ff#\LLL	.	8cc\L	.	(8f#\L	.	(8A-\L	.
.	.	.	.	.	.	.	.	.	.	.	.	.	.	32ccc\JJJ)	.	.	.	.	.	.	.
.	.	.	.	.	.	.	.	.	.	.	.	.	.	16r	.	.	.	.	.	.	.
8ggg\J)	.	8bb\J)	8gg\J	.	8aa\J)	8cc#\J	.	8g\J)	8B\J	.	8ee/J	8e/J)	.	8r	.	8bn\J	.	8g\J)	.	8G\J)	.
8r	.	8r	8r	.	8r	8r	.	8r	8r	.	8r	8r	.	(32bb\LLL	.	8r	.	8r	.	8r	.
.	.	.	.	.	.	.	.	.	.	.	.	.	.	32gg\JJJ)	.	.	.	.	.	.	.
.	.	.	.	.	.	.	.	.	.	.	.	.	.	16r	.	.	.	.	.	.	.
(8fff#\L	.	(8ccc\L	8ff#\	.	(8gg#\L	8dd\	.	(8f#\L	8c\	.	8cc/L	(8c/	.	(32ff#\LLL	.	(8cc\L	.	(8f#\L	.	(8A-\L	.
.	.	.	.	.	.	.	.	.	.	.	.	.	.	32ccc\JJJ)	.	.	.	.	.	.	.
.	.	.	.	.	.	.	.	.	.	.	.	.	.	16r	.	.	.	.	.	.	.
=65	=65	=65	=65	=65	=65	=65	=65	=65	=65	=65	=65	=65	=65	=65	=65	=65	=65	=65	=65	=65	=65
8ggg\J)	.	8bbn\J)	8gg\	.	8aa\J)	8cc#\	.	8g\J)	8Bn\	.	8ee/J	8e/)	.	8r	.	8bn\J)	.	8g\J)	.	8G\J)	.
8r	.	8r	8r	.	8r	8r	.	8r	8r	.	8r	8r	.	(32bbn\LLL	p	8r	.	8r	.	8r	.
.	.	.	.	.	.	.	.	.	.	.	.	.	.	32gg\JJJ)	.	.	.	.	.	.	.
.	.	.	.	.	.	.	.	.	.	.	.	.	.	16r	.	.	.	.	.	.	.
8aan\L	p	8r	8r	.	(8ff\L	8dd\L	p	(8f#\L	8c\L	p	8r	8r	.	(32ff#\LLL	.	8r	.	8r	.	8r	.
.	.	.	.	.	.	.	.	.	.	.	.	.	.	32ccc\JJJ)	.	.	.	.	.	.	.
.	.	.	.	.	.	.	.	.	.	.	.	.	.	16r	.	.	.	.	.	.	.
8gg\J	.	4r	4r	.	8ee\J)	8cc#\J	.	8g\J)	8G\J	.	4r	4r	.	8r	.	4r	.	4r	.	4r	.
8r	.	.	.	.	8r	8r	.	8r	8r	.	.	.	.	(32bb\LLL	.	.	.	.	.	.	.
.	.	.	.	.	.	.	.	.	.	.	.	.	.	32gg\JJJ)	.	.	.	.	.	.	.
.	.	.	.	.	.	.	.	.	.	.	.	.	.	16r	.	.	.	.	.	.	.
(8aa\L	.	8r	8r	.	(8ff\L	8dd\	.	(8f#\L	8c\	.	8r	8r	.	(32ff#\LLL	.	8r	.	8r	.	8r	.
.	.	.	.	.	.	.	.	.	.	.	.	.	.	32ccc\JJJ)	.	.	.	.	.	.	.
.	.	.	.	.	.	.	.	.	.	.	.	.	.	16r	.	.	.	.	.	.	.
=66	=66	=66	=66	=66	=66	=66	=66	=66	=66	=66	=66	=66	=66	=66	=66	=66	=66	=66	=66	=66	=66
8gg\J)	.	2.r	2.r	.	8ee\J)	8cc#\	.	8g\J)	8G\	.	2.r	2.r	.	8r	.	8r	.	2.r	.	2.r	.
8r	.	.	.	.	8r	8r	.	8r	8ryy	.	.	.	.	(32bbn\LLL	.	(32bn/LLL	p	.	.	.	.
.	.	.	.	.	.	.	.	.	.	.	.	.	.	32gg\JJJ)	.	32g/JJJ)	.	.	.	.	.
.	.	.	.	.	.	.	.	.	.	.	.	.	.	16r	.	16r	.	.	.	.	.
8r	.	.	.	.	8r	8r	.	8r	8ryy	.	.	.	.	(32ff#\LLL	.	(32f#/LLL	.	.	.	.	.
.	.	.	.	.	.	.	.	.	.	.	.	.	.	32ccc\JJJ)	.	32cc/JJJ)	.	.	.	.	.
.	.	.	.	.	.	.	.	.	.	.	.	.	.	16r	.	16r	.	.	.	.	.
4r	.	.	.	.	4r	4r	.	4r	4ryy	.	.	.	.	(32bb\LLL	.	(32b/LLL	.	.	.	.	.
.	.	.	.	.	.	.	.	.	.	.	.	.	.	32gg\JJJ)	.	32g/JJJ)	.	.	.	.	.
.	.	.	.	.	.	.	.	.	.	.	.	.	.	16r	.	16r	.	.	.	.	.
.	.	.	.	.	.	.	.	.	.	.	.	.	.	(32ff#\LLL	.	(32f#/LLL	.	.	.	.	.
.	.	.	.	.	.	.	.	.	.	.	.	.	.	32ccc\JJJ)	.	32cc/JJJ)	.	.	.	.	.
.	.	.	.	.	.	.	.	.	.	.	.	.	.	16r	.	16r	.	.	.	.	.
8r	.	.	.	.	8r	8r	.	(8d/	8G'\	.	.	.	.	(32bb\LLL	.	(32b/LLL	.	.	.	.	.
.	.	.	.	.	.	.	.	.	.	.	.	.	.	32ffn\JJJ)	.	32fn/JJJ)	.	.	.	.	.
.	.	.	.	.	.	.	.	.	.	.	.	.	.	16r	.	16r	.	.	.	.	.
=67	=67	=67	=67	=67	=67	=67	=67	=67	=67	=67	=67	=67	=67	=67	=67	=67	=67	=67	=67	=67	=67
4r	.	2.r	2.r	.	8r	(8a\L	.	8en/L	8c'\L	.	2.r	2.r	.	(32een\LLL	.	(32en/LLL	.	2.r	.	2.r	.
.	.	.	.	.	.	.	.	.	.	.	.	.	.	32bb-\JJJ)	.	32b-/JJJ)	.	.	.	.	.
.	.	.	.	.	.	.	.	.	.	.	.	.	.	16r	.	16r	.	.	.	.	.
.	.	.	.	.	(8dd/L	8bn\	.	8e-/	8F'\	.	.	.	.	(32aan\LLL	.	(32an/LLL	.	.	.	.	.
.	.	.	.	.	.	.	.	.	.	.	.	.	.	32ee-\JJJ)	.	32e-/JJJ)	.	.	.	.	.
.	.	.	.	.	.	.	.	.	.	.	.	.	.	16r	.	16r	.	.	.	.	.
8r	.	.	.	.	8ee/J	8b-\J	.	8d/J	8B-'\J	.	.	.	.	(32dd\LLL	.	(32d/LLL	.	.	.	.	.
.	.	.	.	.	.	.	.	.	.	.	.	.	.	32gg#\JJJ)	.	32g#/JJJ)	.	.	.	.	.
.	.	.	.	.	.	.	.	.	.	.	.	.	.	16r	.	16r	.	.	.	.	.
8r	.	.	.	.	8ff#/L	8a\L	.	8c#/L	8An'\L	.	.	.	.	(32ggn\LLL	.	(32gn/LLL	.	.	.	.	.
.	.	.	.	.	.	.	.	.	.	.	.	.	.	32cc#\JJJ)	.	32c#/JJJ)	.	.	.	.	.
.	.	.	.	.	.	.	.	.	.	.	.	.	.	16r	.	16r	.	.	.	.	.
(8aan\L	.	.	.	.	8gg#/	8bn\	.	8cn/	8D'\	.	.	.	.	(32ccn\LLL	.	(32cn/LLL	.	.	.	.	.
.	.	.	.	.	.	.	.	.	.	.	.	.	.	32ff#\JJJ)	.	32f#/JJJ)	.	.	.	.	.
.	.	.	.	.	.	.	.	.	.	.	.	.	.	16r	.	16r	.	.	.	.	.
8bbn\J	.	.	.	.	8ggn/J	8a\J)	.	8d/J	8G'\J	.	.	.	.	(32ffn\LLL	.	(32fn/LLL	.	.	.	.	.
.	.	.	.	.	.	.	.	.	.	.	.	.	.	32bn\JJJ)	.	32Bn/JJJ)	.	.	.	.	.
.	.	.	.	.	.	.	.	.	.	.	.	.	.	16r	.	16r	.	.	.	.	.
=68	=68	=68	=68	=68	=68	=68	=68	=68	=68	=68	=68	=68	=68	=68	=68	=68	=68	=68	=68	=68	=68
8ccc\)	.	2.r	2.r	.	8ff#/L	8a\	.	8c/)	8C\	.	2.r	2.r	.	(32een\LLL	.	[4.c/	.	8r	.	8r	.
.	.	.	.	.	.	.	.	.	.	.	.	.	.	32g\JJJ)	.	.	.	.	.	.	.
.	.	.	.	.	.	.	.	.	.	.	.	.	.	16r	.	.	.	.	.	.	.
8r	.	.	.	.	8ffn/J)	8r	.	8r	8ryy	.	.	.	.	(32f#\LLL	.	.	.	(8A-/L	p	(8A-\L	p
.	.	.	.	.	.	.	.	.	.	.	.	.	.	32ee-\JJJ)	.	.	.	.	.	.	.
.	.	.	.	.	.	.	.	.	.	.	.	.	.	16r	.	.	.	.	.	.	.
8r	.	.	.	.	8r	8ryy	.	8r	8ryy	.	.	.	.	(32g\LLL	.	.	.	8G/J	.	8G\J	.
.	.	.	.	.	.	.	.	.	.	.	.	.	.	32ee-\JJJ)	.	.	.	.	.	.	.
.	.	.	.	.	.	.	.	.	.	.	.	.	.	16r	.	.	.	.	.	.	.
4r	.	.	.	.	4r	4ryy	.	4r	4ryy	.	.	.	.	(32an\LLL	.	(8c/L]	.	4.F#/	.	4.F#\	.
.	.	.	.	.	.	.	.	.	.	.	.	.	.	32ee-\JJJ)	.	.	.	.	.	.	.
.	.	.	.	.	.	.	.	.	.	.	.	.	.	16r	.	.	.	.	.	.	.
.	.	.	.	.	.	.	.	.	.	.	.	.	.	(32bn\LLL	.	8Bn/	.	.	.	.	.
.	.	.	.	.	.	.	.	.	.	.	.	.	.	32ee-\JJJ)	.	.	.	.	.	.	.
.	.	.	.	.	.	.	.	.	.	.	.	.	.	16r	.	.	.	.	.	.	.
8r	.	.	.	.	8r	8ryy	.	8C/	8r	.	.	.	.	(32cc\LLL	.	8An/J)	.	.	.	.	.
.	.	.	.	.	.	.	.	.	.	.	.	.	.	32ee-\JJJ)	.	.	.	.	.	.	.
.	.	.	.	.	.	.	.	.	.	.	.	.	.	16r	.	.	.	.	.	.	.
=69	=69	=69	=69	=69	=69	=69	=69	=69	=69	=69	=69	=69	=69	=69	=69	=69	=69	=69	=69	=69	=69
2.r	.	2.r	2.r	.	2.r	2.r	.	(8c'/L	4r	.	[2.e/	[2.e\	p	8G/	.	8G/	.	8G/)	.	8G\)	.
.	.	.	.	.	.	.	.	8c'/	.	.	.	.	.	8r	.	8r	.	8r	.	8r	.
.	.	.	.	.	.	.	.	8c'/J	8r	.	.	.	.	8r	.	8r	.	8r	.	8r	.
.	.	.	.	.	.	.	.	8c'/L	4r	.	.	.	.	4r	.	4r	.	4r	.	4r	.
.	.	.	.	.	.	.	.	8c'/	.	.	.	.	.	.	.	.	.	.	.	.	.
.	.	.	.	.	.	.	.	8c'/J)	8G\	.	.	.	.	8r	.	8r	.	8r	.	8r	.
=70	=70	=70	=70	=70	=70	=70	=70	=70	=70	=70	=70	=70	=70	=70	=70	=70	=70	=70	=70	=70	=70
2.r	.	2.r	2.r	.	(8gg/L	2.r	.	(4.c/	(8d'\L	.	2.e/]	2.e\]	.	2.r	.	2.r	.	2.r	.	2.r	.
.	.	.	.	.	8gg#/	.	.	.	8d'\	.	.	.	.	.	.	.	.	.	.	.	.
.	.	.	.	.	8aa/J	.	.	.	8d'\J	.	.	.	.	.	.	.	.	.	.	.	.
.	.	.	.	.	8bb-/L	.	.	4.Bn/)	8d'\L	.	.	.	.	.	.	.	.	.	.	.	.
.	.	.	.	.	8aa/J)	.	.	.	8d'\	.	.	.	.	.	.	.	.	.	.	.	.
.	.	.	.	.	8r	.	.	.	8d'\J)	.	.	.	.	.	.	.	.	.	.	.	.
=71	=71	=71	=71	=71	=71	=71	=71	=71	=71	=71	=71	=71	=71	=71	=71	=71	=71	=71	=71	=71	=71
*	*	*	*	*	*	*	*	*	*	*	*	*	*	*	*	*	*	*^	*	*	*
(8aan\L	.	2.r	2.r	.	2.r	2.r	.	8B-/	8c\	.	2.r	2.r	.	4r	.	8g/L	.	8en/L	8c\L	.	8r	.
8bb-\	.	.	.	.	.	.	.	8r	8ryy	.	.	.	.	.	.	8g/	.	8e/	8c\	.	(32G\LLL	.
.	.	.	.	.	.	.	.	.	.	.	.	.	.	.	.	.	.	.	.	.	32B-\JJJ)	.
.	.	.	.	.	.	.	.	.	.	.	.	.	.	.	.	.	.	.	.	.	16r	.
8ccc\J	.	.	.	.	.	.	.	8r	8ryy	.	.	.	.	8r	.	8g/J	.	8e/J	8c\J	.	(32En\LLL	.
.	.	.	.	.	.	.	.	.	.	.	.	.	.	.	.	.	.	.	.	.	32G\JJJ)	.
.	.	.	.	.	.	.	.	.	.	.	.	.	.	.	.	.	.	.	.	.	16r	.
8ddd-\L	.	.	.	.	.	.	.	4r	4ryy	.	.	.	.	8r	.	8g/L	.	8e/L	8c\L	.	(32C/LLL	.
.	.	.	.	.	.	.	.	.	.	.	.	.	.	.	.	.	.	.	.	.	32E/JJJ)	.
.	.	.	.	.	.	.	.	.	.	.	.	.	.	.	.	.	.	.	.	.	16r	.
8ccc\J)	.	.	.	.	.	.	.	.	.	.	.	.	.	(32een\LLL	.	8g/	.	8e/	8c\	.	8r	.
.	.	.	.	.	.	.	.	.	.	.	.	.	.	32cc\JJJ)	.	.	.	.	.	.	.	.
.	.	.	.	.	.	.	.	.	.	.	.	.	.	16r	.	.	.	.	.	.	.	.
8r	.	.	.	.	.	.	.	8r	8ryy	.	.	.	.	(32gg\LLL	.	8g/J	.	8e/J	8c\J	.	8r	.
.	.	.	.	.	.	.	.	.	.	.	.	.	.	32b-\JJJ)	.	.	.	.	.	.	.	.
.	.	.	.	.	.	.	.	.	.	.	.	.	.	16r	.	.	.	.	.	.	.	.
=72	=72	=72	=72	=72	=72	=72	=72	=72	=72	=72	=72	=72	=72	=72	=72	=72	=72	=72	=72	=72	=72	=72
2.r	.	2.r	2.r	.	(8ee/L	2.r	.	2.r	2.r	.	2.r	2.r	.	8an/	.	8f/L	.	8e-/L	8c\L	.	8r	.
.	.	.	.	.	8ff/	.	.	.	.	.	.	.	.	8r	.	8f/	.	8e-/	8c\	.	(32c\LLL	.
.	.	.	.	.	.	.	.	.	.	.	.	.	.	.	.	.	.	.	.	.	32e-\JJJ)	.
.	.	.	.	.	.	.	.	.	.	.	.	.	.	.	.	.	.	.	.	.	16r	.
.	.	.	.	.	8ggn/J	.	.	.	.	.	.	.	.	8r	.	8f/J	.	8e-/J	8c\J	.	(32An\LLL	.
.	.	.	.	.	.	.	.	.	.	.	.	.	.	.	.	.	.	.	.	.	32c\JJJ)	.
.	.	.	.	.	.	.	.	.	.	.	.	.	.	.	.	.	.	.	.	.	16r	.
.	.	.	.	.	8aa-/L	.	.	.	.	.	.	.	.	8r	.	8f/L	.	8e-/L	8c\L	.	(32F\LLL	.
.	.	.	.	.	.	.	.	.	.	.	.	.	.	.	.	.	.	.	.	.	32A\JJJ)	.
.	.	.	.	.	.	.	.	.	.	.	.	.	.	.	.	.	.	.	.	.	16r	.
.	.	.	.	.	8gg/J)	.	.	.	.	.	.	.	.	(32aan\LLL	.	8f/	.	8e-/	8c\	.	8r	.
.	.	.	.	.	.	.	.	.	.	.	.	.	.	32ff\JJJ)	.	.	.	.	.	.	.	.
.	.	.	.	.	.	.	.	.	.	.	.	.	.	16r	.	.	.	.	.	.	.	.
.	.	.	.	.	8r	.	.	.	.	.	.	.	.	(32ccc\LLL	.	8fn/ 8A/J	.	8c/J	8c\J	.	8r	.
.	.	.	.	.	.	.	.	.	.	.	.	.	.	32ee-\JJJ)	.	.	.	.	.	.	.	.
.	.	.	.	.	.	.	.	.	.	.	.	.	.	16r	.	.	.	.	.	.	.	.
=73	=73	=73	=73	=73	=73	=73	=73	=73	=73	=73	=73	=73	=73	=73	=73	=73	=73	=73	=73	=73	=73	=73
(8gg\L	.	2.r	2.r	.	(8an/L	2.r	.	(8G/L	2.r	.	2.r	2.r	.	8dd\	.	8f/ 8A-/L	.	8d/L	8B-\L	.	8r	.
8aa-\	.	.	.	.	8b-/	.	.	8A-/	.	.	.	.	.	8r	.	8f/ 8A-/	.	8d/	8B-\	.	(32F\LLL	.
.	.	.	.	.	.	.	.	.	.	.	.	.	.	.	.	.	.	.	.	.	32A-\JJJ)	.
.	.	.	.	.	.	.	.	.	.	.	.	.	.	.	.	.	.	.	.	.	16r	.
8bb-\J	.	.	.	.	8cc/J	.	.	8B-/J	.	.	.	.	.	8r	.	8f/ 8A-/J	.	8d/J	8B-\J	.	(32D\LLL	.
.	.	.	.	.	.	.	.	.	.	.	.	.	.	.	.	.	.	.	.	.	32F\JJJ)	.
.	.	.	.	.	.	.	.	.	.	.	.	.	.	.	.	.	.	.	.	.	16r	.
8ccc-\L	.	.	.	.	8dd-/L	.	.	8c-/L	.	.	.	.	.	8r	.	8f/ 8A-/L	.	8d/L	8B-\L	.	(32BB-/LLL	.
.	.	.	.	.	.	.	.	.	.	.	.	.	.	.	.	.	.	.	.	.	32D/JJJ)	.
.	.	.	.	.	.	.	.	.	.	.	.	.	.	.	.	.	.	.	.	.	16r	.
8bb-\J)	.	.	.	.	8cc/J)	.	.	8B-/J)	.	.	.	.	.	(32dd\LLL	.	8f/ 8A-/J	.	8d/J	8B-\J	.	8r	.
.	.	.	.	.	.	.	.	.	.	.	.	.	.	32b-\JJJ)	.	.	.	.	.	.	.	.
.	.	.	.	.	.	.	.	.	.	.	.	.	.	16r	.	.	.	.	.	.	.	.
8r	.	.	.	.	8r	.	.	8r	.	.	.	.	.	(32ff\LLL	.	8r	.	8ryy	8B-/	.	8r	.
.	.	.	.	.	.	.	.	.	.	.	.	.	.	32a-\JJJ)	.	.	.	.	.	.	.	.
.	.	.	.	.	.	.	.	.	.	.	.	.	.	16r	.	.	.	.	.	.	.	.
=74	=74	=74	=74	=74	=74	=74	=74	=74	=74	=74	=74	=74	=74	=74	=74	=74	=74	=74	=74	=74	=74	=74
*	*	*	*	*	*	*	*	*	*	*	*	*	*	*	*	*	*	*v	*v	*	*	*
2.r	.	2.r	2.r	.	2.r	2.r	.	2.r	2.r	.	2.r	2.r	.	8g/	.	4r	.	8e-\L	.	(4.E-\	.
.	.	.	.	.	.	.	.	.	.	.	.	.	.	8r	.	.	.	8e-\	.	.	.
.	.	.	.	.	.	.	.	.	.	.	.	.	.	8r	.	8r	.	8e-\J	.	.	.
.	.	.	.	.	.	.	.	.	.	.	.	.	.	4r	.	4r	.	8e-\L	.	4.G\)	.
.	.	.	.	.	.	.	.	.	.	.	.	.	.	.	.	.	.	8e-\	.	.	.
.	.	.	.	.	.	.	.	.	.	.	.	.	.	8r	.	8B-/	.	8e-\J	.	.	.
=75	=75	=75	=75	=75	=75	=75	=75	=75	=75	=75	=75	=75	=75	=75	=75	=75	=75	=75	=75	=75	=75
2.r	.	2.r	2.r	.	2.r	2.r	.	2.r	2.r	.	2.r	2.r	.	4r	.	8f/L	.	8e-\L	.	(8A-\L	.
.	.	.	.	.	.	.	.	.	.	.	.	.	.	.	.	8f/	.	8e-\	.	8An\	.
.	.	.	.	.	.	.	.	.	.	.	.	.	.	8r	.	8f/J	.	8e-\J	.	8B-\J	.
.	.	.	.	.	.	.	.	.	.	.	.	.	.	4r	.	8f/L	.	8e-\L	.	8c-\L	.
.	.	.	.	.	.	.	.	.	.	.	.	.	.	.	.	8f/	.	8e-\	.	8B-\	.
.	.	.	.	.	.	.	.	.	.	.	.	.	.	8c/	.	8f/J	.	8e-\J	.	8A\J)	.
=76	=76	=76	=76	=76	=76	=76	=76	=76	=76	=76	=76	=76	=76	=76	=76	=76	=76	=76	=76	=76	=76
2.r	.	2.r	2.r	.	2.r	2.r	.	2.r	2.r	.	2.r	2.r	.	8a-/L	.	8f/L	.	(8e-\L	.	4.B-\	.
.	.	.	.	.	.	.	.	.	.	.	.	.	.	8a-/	.	8f/	.	8d\	.	.	.
.	.	.	.	.	.	.	.	.	.	.	.	.	.	8a-/J	.	8f/J	.	8c\J)	.	.	.
.	.	.	.	.	.	.	.	.	.	.	.	.	.	8a-/L	.	8f/L	.	4.dT\	.	4.BB-/	.
.	.	.	.	.	.	.	.	.	.	.	.	.	.	8a-/	.	8f/	.	.	.	.	.
.	.	.	.	.	.	.	.	.	.	.	.	.	.	8a-/J	.	8f/J	.	.	.	.	.
!	!	!	!	!	!	!	!	!	!	!	!	!	!	!	!	!	!	! (32cP/LLL	!	!	!
!	!	!	!	!	!	!	!	!	!	!	!	!	!	!	!	!	!	! 32dP/JJJ)	!	!	!
=77	=77	=77	=77	=77	=77	=77	=77	=77	=77	=77	=77	=77	=77	=77	=77	=77	=77	=77	=77	=77	=77
2.r	.	2.r	2.r	.	2.r	2.r	.	2.r	2.r	.	8r	8r	.	(8a-/L	.	(8f/L	.	8e-p/L	.	8E-\	.
.	.	.	.	.	.	.	.	.	.	.	8cc/L	8c/L	.	16.g/L	.	16.e-/L	.	8E-/	.	8r	.
.	.	.	.	.	.	.	.	.	.	.	.	.	.	32b-/k	.	32g/k	.	.	.	.	.
.	.	.	.	.	.	.	.	.	.	.	8cc/J	8c/J	.	16.a-/	.	16.f/	.	8E-/J	.	8r	.
.	.	.	.	.	.	.	.	.	.	.	.	.	.	32cc/JJk	.	32a-/JJk	.	.	.	.	.
.	.	.	.	.	.	.	.	.	.	.	8cc/L	8c/L	.	8b-\)	.	8g/)	.	8E-/	.	4r	.
.	.	.	.	.	.	.	.	.	.	.	8cc/	8c/	.	8r	.	8r	.	8r	.	.	.
.	.	.	.	.	.	.	.	.	.	.	8cc/J	8c/J	.	(8ee-\	.	(8e-/	.	8r	.	8r	.
=78	=78	=78	=78	=78	=78	=78	=78	=78	=78	=78	=78	=78	=78	=78	=78	=78	=78	=78	=78	=78	=78
2.r	.	2.r	2.r	.	2.r	2.r	.	2.r	2.r	.	8r	8r	.	4bn\	.	4Bn/	.	8r	.	8r	.
.	.	.	.	.	.	.	.	.	.	.	8cc/L	8c/L	.	.	.	.	.	8A-'/L	.	8AA-'/L	.
.	.	.	.	.	.	.	.	.	.	.	8cc/J	8c/J	.	8cc\)	.	8c/)	.	8c'/J	.	8C'/J	.
.	.	.	.	.	.	.	.	.	.	.	8cc/L	8c/L	.	4r	.	4r	.	8e-'\L	.	8E-'\L	.
.	.	.	.	.	.	.	.	.	.	.	8cc/	8c/	.	.	.	.	.	8a-'\J	.	8A-'\J	.
.	.	.	.	.	.	.	.	.	.	.	8cc/J	8c/J	.	(8ee-\	.	(8e-/	.	8r	.	8r	.
=79	=79	=79	=79	=79	=79	=79	=79	=79	=79	=79	=79	=79	=79	=79	=79	=79	=79	=79	=79	=79	=79
2.r	.	2.r	2.r	.	2.r	2.r	.	2.r	2.r	.	8r	8r	.	4an/	.	4An/	.	8r	.	8r	.
.	.	.	.	.	.	.	.	.	.	.	8cc/L	8c/L	.	.	.	.	.	8G'/L	.	8GG'/L	.
.	.	.	.	.	.	.	.	.	.	.	8cc/J	8c/J	.	8b-\)	.	8B-/)	.	8B-'/J	.	8BB-'/J	.
.	.	.	.	.	.	.	.	.	.	.	8cc/L	8c/L	.	4r	.	4r	.	8e-'\L	.	8E-'\L	.
.	.	.	.	.	.	.	.	.	.	.	8cc/	8c/	.	.	.	.	.	8g'\J	.	8G'\J	.
.	.	.	.	.	.	.	.	.	.	.	8cc/J	8c/J	.	8ee-\	.	8r	.	8r	.	8r	.
=80	=80	=80	=80	=80	=80	=80	=80	=80	=80	=80	=80	=80	=80	=80	=80	=80	=80	=80	=80	=80	=80
2.r	.	2.r	2.r	.	2.r	2.r	.	2.r	2.r	.	2.r	2.r	.	(32dd\LLL	.	8r	.	8r	.	8r	.
.	.	.	.	.	.	.	.	.	.	.	.	.	.	32ff\JJJ)	.	.	.	.	.	.	.
.	.	.	.	.	.	.	.	.	.	.	.	.	.	16r	.	.	.	.	.	.	.
.	.	.	.	.	.	.	.	.	.	.	.	.	.	(8a-z/L	z	(8fz/L	z	4B-z/	z	(8Dz\L	z
.	.	.	.	.	.	.	.	.	.	.	.	.	.	8g/J)	.	8e-/J)	.	.	.	8E-\J)	.
.	.	.	.	.	.	.	.	.	.	.	.	.	.	(32dd\LLL	.	8r	.	8r	.	8r	.
.	.	.	.	.	.	.	.	.	.	.	.	.	.	32ff\JJJ)	.	.	.	.	.	.	.
.	.	.	.	.	.	.	.	.	.	.	.	.	.	16r	.	.	.	.	.	.	.
.	.	.	.	.	.	.	.	.	.	.	.	.	.	(8a-z/L	z	(8fz/L	z	4B-z/	z	(8Dz\L	z
.	.	.	.	.	.	.	.	.	.	.	.	.	.	8g/J)	.	8e-/J)	.	.	.	8E-\J)	.
=81	=81	=81	=81	=81	=81	=81	=81	=81	=81	=81	=81	=81	=81	=81	=81	=81	=81	=81	=81	=81	=81
2.r	.	2.r	2.r	.	2.r	2.r	.	2.r	2.r	.	4r	4r	.	(8b-/L	p	(8g/L	p	[4.B-/	p	[4.BB-/	p
.	.	.	.	.	.	.	.	.	.	.	.	.	.	16an/L	.	16g-/L	.	.	.	.	.
.	.	.	.	.	.	.	.	.	.	.	.	.	.	16a-/	.	16f/	.	.	.	.	.
.	.	.	.	.	.	.	.	.	.	.	8r	8r	.	16g/	.	16en/	.	.	.	.	.
.	.	.	.	.	.	.	.	.	.	.	.	.	.	16g-/JJ	.	16e-/JJ	.	.	.	.	.
.	.	.	.	.	.	.	.	.	.	.	4r	4r	.	8f/)	.	8d/)	.	8B-/]	.	8BB-/]	.
.	.	.	.	.	.	.	.	.	.	.	.	.	.	8r	.	8r	.	8r	.	8r	.
.	.	.	.	.	.	.	.	.	.	.	8g/	8G/	.	8r	.	8r	.	8r	.	8BB-/	.
=82	=82	=82	=82	=82	=82	=82	=82	=82	=82	=82	=82	=82	=82	=82	=82	=82	=82	=82	=82	=82	=82
2.r	.	2.r	2.r	.	2.r	2.r	.	2.r	2.r	.	8cc/L	8c/L	.	(4.ee-\	.	2.r	.	4r	.	8E-\L	.
.	.	.	.	.	.	.	.	.	.	.	8cc/	8c/	.	.	.	.	.	.	.	8E-\	.
.	.	.	.	.	.	.	.	.	.	.	8cc/J	8c/J	.	.	.	.	.	8r	.	8E-\J	.
.	.	.	.	.	.	.	.	.	.	.	8cc/L	8c/L	.	4.gg\)	.	.	.	4r	.	8E-\L	.
.	.	.	.	.	.	.	.	.	.	.	8cc/	8c/	.	.	.	.	.	.	.	8E-\	.
.	.	.	.	.	.	.	.	.	.	.	8cc/J	8c/J	.	.	.	.	.	8B-/	.	8E-\J	.
=83	=83	=83	=83	=83	=83	=83	=83	=83	=83	=83	=83	=83	=83	=83	=83	=83	=83	=83	=83	=83	=83
2.r	.	2.r	2.r	.	2.r	2.r	.	2.r	2.r	.	[4.cc/	[4.c/	.	(8aa-\L	.	4r	.	8f\L	.	[2.E-\	.
.	.	.	.	.	.	.	.	.	.	.	.	.	.	8aan\	.	.	.	8f\	.	.	.
.	.	.	.	.	.	.	.	.	.	.	.	.	.	8bb-\J	.	8r	.	8f\J	.	.	.
.	.	.	.	.	.	.	.	.	.	.	8cc/]	8c/]	.	8ccc-\L	.	4r	.	8f\L	.	.	.
.	.	.	.	.	.	.	.	.	.	.	8r	8r	.	8bb-\	.	.	.	8f\	.	.	.
.	.	.	.	.	.	.	.	.	.	.	8r	8r	.	8aa\J)	.	8c/	.	8f\J	.	.	.
=84	=84	=84	=84	=84	=84	=84	=84	=84	=84	=84	=84	=84	=84	=84	=84	=84	=84	=84	=84	=84	=84
2.r	.	2.r	2.r	.	2.r	2.r	.	2.r	2.r	.	2.r	2.r	.	(4.bb-\	.	8a-/L	.	4f\	.	(8E-/L]	.
.	.	.	.	.	.	.	.	.	.	.	.	.	.	.	.	8a-/	.	.	.	8Dn/	.
.	.	.	.	.	.	.	.	.	.	.	.	.	.	.	.	8a-/J	.	[8F/	.	8BB-/J	.
.	.	.	.	.	.	.	.	.	.	.	.	.	.	4.bbn\	.	(8a-/L	.	(8F/L]	.	4.D-\)	.
.	.	.	.	.	.	.	.	.	.	.	.	.	.	.	.	8g/	.	8En/	.	.	.
.	.	.	.	.	.	.	.	.	.	.	.	.	.	.	.	[8f/J)	.	[8A-/J)	.	.	.
=85	=85	=85	=85	=85	=85	=85	=85	=85	=85	=85	=85	=85	=85	=85	=85	=85	=85	=85	=85	=85	=85
2.r	.	2.r	2.r	.	2.r	2.r	.	2.r	2.r	.	2.r	2.r	.	4.ddd-\	.	(8f/L]	.	(8A-/L]	.	[4.C/	.
.	.	.	.	.	.	.	.	.	.	.	.	.	.	.	.	8en/	.	8G/	.	.	.
.	.	.	.	.	.	.	.	.	.	.	.	.	.	.	.	8a-/J	.	8F/J	.	.	.
.	.	.	.	.	.	.	.	.	.	.	.	.	.	8ccc\)	.	8g/)	.	8En/)	.	8C/]	.
.	.	.	.	.	.	.	.	.	.	.	.	.	.	8r	.	8r	.	8r	.	8r	.
.	.	.	.	.	.	.	.	.	.	.	.	.	.	8r	.	8r	.	8r	.	8r	.
=86	=86	=86	=86	=86	=86	=86	=86	=86	=86	=86	=86	=86	=86	=86	=86	=86	=86	=86	=86	=86	=86
2.r	.	4.aa-\	4.cc\	f	2.r	2.r	.	2.r	2.r	.	2.r	2.r	.	4ccc\	f	8A-/L	f	8c\L	f	4FF/	f
.	.	.	.	.	.	.	.	.	.	.	.	.	.	.	.	8A-/	.	8c\	.	.	.
.	.	.	.	.	.	.	.	.	.	.	.	.	.	4f/	p	8A-/J	p	8c\J	p	4F\	p
.	.	4r	4r	.	.	.	.	.	.	.	.	.	.	.	.	8A-/L	.	8c\L	.	.	.
.	.	.	.	.	.	.	.	.	.	.	.	.	.	8f'/L	.	8A-/	.	8c\	.	8F'\L	.
.	.	8r	8r	.	.	.	.	.	.	.	.	.	.	[8f/J	.	8A-/J	.	8c\J	.	(8F\J	.
=87	=87	=87	=87	=87	=87	=87	=87	=87	=87	=87	=87	=87	=87	=87	=87	=87	=87	=87	=87	=87	=87
4r	.	2.r	2.r	.	4r	4r	.	4r	2.r	.	2.r	2.r	.	8f/]	.	8B-/	.	8c\	.	8G\)	.
.	.	.	.	.	.	.	.	.	.	.	.	.	.	(32en/LLL	.	8r	.	8r	.	8r	.
.	.	.	.	.	.	.	.	.	.	.	.	.	.	32g/JJJ)	.	.	.	.	.	.	.
.	.	.	.	.	.	.	.	.	.	.	.	.	.	16r	.	.	.	.	.	.	.
8r	.	.	.	.	8r	8r	.	8r	.	.	.	.	.	(32f/LLL	.	8r	.	8r	.	8r	.
.	.	.	.	.	.	.	.	.	.	.	.	.	.	32a-/JJJ)	.	.	.	.	.	.	.
.	.	.	.	.	.	.	.	.	.	.	.	.	.	16r	.	.	.	.	.	.	.
8r	.	.	.	.	8r	8r	.	8r	.	.	.	.	.	(32g/LLL	.	4r	.	4r	.	4r	.
.	.	.	.	.	.	.	.	.	.	.	.	.	.	32b-/JJJ)	.	.	.	.	.	.	.
.	.	.	.	.	.	.	.	.	.	.	.	.	.	16r	.	.	.	.	.	.	.
*	*	*	*	*	*	*	*	*clefC4	*	*	*	*	*	*	*	*	*	*	*	*	*
(32gg\LLL	.	.	.	.	8ff#'\L	8cc\L	.	8g'/L	.	.	.	.	.	8r	.	.	.	.	.	.	.
32bb-\JJJ)	.	.	.	.	.	.	.	.	.	.	.	.	.	.	.	.	.	.	.	.	.
16r	.	.	.	.	.	.	.	.	.	.	.	.	.	.	.	.	.	.	.	.	.
(32aa-\LLL	.	.	.	.	8gg'\J	8b-\J	.	8f'/J	.	.	.	.	.	8r	.	8r	.	8r	.	8r	.
32ccc\JJJ)	.	.	.	.	.	.	.	.	.	.	.	.	.	.	.	.	.	.	.	.	.
16r	.	.	.	.	.	.	.	.	.	.	.	.	.	.	.	.	.	.	.	.	.
=88	=88	=88	=88	=88	=88	=88	=88	=88	=88	=88	=88	=88	=88	=88	=88	=88	=88	=88	=88	=88	=88
(32bb-\LLL	.	2.r	2.r	.	8aa'\	8a\	.	8en'/	2.r	.	2.r	2.r	.	(8an\L	.	4r	.	4r	.	4r	.
32ddd-\JJJ)	.	.	.	.	.	.	.	.	.	.	.	.	.	.	.	.	.	.	.	.	.
16r	.	.	.	.	.	.	.	.	.	.	.	.	.	.	.	.	.	.	.	.	.
8r	.	.	.	.	8r	8r	.	8r	.	.	.	.	.	8b-\	.	.	.	.	.	.	.
8r	.	.	.	.	8r	8r	.	8r	.	.	.	.	.	8cc\J	.	8r	.	8r	.	8r	.
4r	.	.	.	.	4r	4r	.	4r	.	.	.	.	.	8dd-\L	.	(4.g/	.	(4G/	.	(4.En\	.
.	.	.	.	.	.	.	.	.	.	.	.	.	.	8cc\)	.	.	.	.	.	.	.
8r	.	.	.	.	8r	8r	.	8r	.	.	.	.	.	8g'\J	.	.	.	8c\)	.	.	.
=89	=89	=89	=89	=89	=89	=89	=89	=89	=89	=89	=89	=89	=89	=89	=89	=89	=89	=89	=89	=89	=89
(8gg\L	.	2.r	2.r	.	(8a/L	2.r	.	(8G/L	2.r	.	2.r	2.r	.	(8b-/L	.	8en/L	.	8c\	.	8F\)	.
8aa-\	.	.	.	.	8b-/	.	.	8A-/	.	.	.	.	.	8a-/J)	.	8f/J)	.	8r	.	8r	.
8bb-\J	.	.	.	.	8cc/J	.	.	8B-/J	.	.	.	.	.	8r	.	8r	.	8r	.	8r	.
8ccc-\L	.	.	.	.	8dd-/L	.	.	8c-/L	.	.	.	.	.	4r	.	8A-/	.	8F/	.	8D\	.
8bb-\)	.	.	.	.	8cc/)	.	.	8B-/)	.	.	.	.	.	.	.	8r	.	8r	.	8r	.
8ff'\J	.	.	.	.	8g'/J	.	.	8F'/J	.	.	.	.	.	8r	.	8r	.	8r	.	8r	.
=90	=90	=90	=90	=90	=90	=90	=90	=90	=90	=90	=90	=90	=90	=90	=90	=90	=90	=90	=90	=90	=90
(8aa-\L	.	4.bb-\	4.b-\	f	(8b-/L	2.r	.	(8A-/L	2.r	.	4cc/	4c/	f	4bb-\ 4b-\	f	4e-/	f	8B-/L	f	4E-\	f
8gg\J)	.	.	.	.	8a/J)	.	.	8G/J)	.	.	.	.	.	.	.	.	.	8B-/	.	.	.
8r	.	.	.	.	8r	.	.	8r	.	.	4cc/	4c/	p	4e-/	p	8G/	p	8B-/J	p	4E-\	p
4r	.	4r	4r	.	4r	.	.	4r	.	.	.	.	.	.	.	8G/L	.	8B-/L	.	.	.
.	.	.	.	.	.	.	.	.	.	.	8cc/L	8c/L	.	8e-'/L	.	8G/	.	8B-/	.	8E-'\L	.
8r	.	8r	8r	.	8r	.	.	8r	.	.	8cc/J	8c/J	.	[8e-/J	.	8G/J	.	8B-/J	.	(8E-\J	.
=91	=91	=91	=91	=91	=91	=91	=91	=91	=91	=91	=91	=91	=91	=91	=91	=91	=91	=91	=91	=91	=91
4r	.	2.r	2.r	.	4r	4r	.	4r	2.r	.	8g/	8G/	.	8e-/]	.	8A-/	.	8B-/	.	8F\)	.
.	.	.	.	.	.	.	.	.	.	.	8r	8r	.	(32d/LLL	.	8r	.	8r	.	8r	.
.	.	.	.	.	.	.	.	.	.	.	.	.	.	32f/JJJ)	.	.	.	.	.	.	.
.	.	.	.	.	.	.	.	.	.	.	.	.	.	16r	.	.	.	.	.	.	.
8r	.	.	.	.	8r	8r	.	8r	.	.	8r	8r	.	(32e-/LLL	.	8r	.	8r	.	8r	.
.	.	.	.	.	.	.	.	.	.	.	.	.	.	32g/JJJ)	.	.	.	.	.	.	.
.	.	.	.	.	.	.	.	.	.	.	.	.	.	16r	.	.	.	.	.	.	.
8r	.	.	.	.	8r	8r	.	8r	.	.	4r	4r	.	(32f/LLL	.	4r	.	4r	.	4r	.
.	.	.	.	.	.	.	.	.	.	.	.	.	.	32a-/JJJ)	.	.	.	.	.	.	.
.	.	.	.	.	.	.	.	.	.	.	.	.	.	16r	.	.	.	.	.	.	.
(32ff\LLL	.	.	.	.	8ee'\L	8b-\L	.	8f'/L	.	.	.	.	.	8r	.	.	.	.	.	.	.
32aa-\JJJ)	.	.	.	.	.	.	.	.	.	.	.	.	.	.	.	.	.	.	.	.	.
16r	.	.	.	.	.	.	.	.	.	.	.	.	.	.	.	.	.	.	.	.	.
(32gg\LLL	.	.	.	.	8ffn'\J	8a\J	.	8e-'/J	.	.	8r	8r	.	8r	.	8r	.	8r	.	8r	.
32bb-\JJJ)	.	.	.	.	.	.	.	.	.	.	.	.	.	.	.	.	.	.	.	.	.
16r	.	.	.	.	.	.	.	.	.	.	.	.	.	.	.	.	.	.	.	.	.
=92	=92	=92	=92	=92	=92	=92	=92	=92	=92	=92	=92	=92	=92	=92	=92	=92	=92	=92	=92	=92	=92
(32aa-\LLL	.	2.r	2.r	.	8gg'\	8g\	.	8d'/	2.r	.	2.r	2.r	.	(8g/L	.	4r	.	4r	.	4r	.
32ccc\JJJ)	.	.	.	.	.	.	.	.	.	.	.	.	.	.	.	.	.	.	.	.	.
16r	.	.	.	.	.	.	.	.	.	.	.	.	.	.	.	.	.	.	.	.	.
8r	.	.	.	.	8r	8r	.	8r	.	.	.	.	.	8a-/	.	.	.	.	.	.	.
8r	.	.	.	.	8r	8r	.	8r	.	.	.	.	.	8bn/J	.	8r	.	8r	.	8r	.
4r	.	.	.	.	4r	4r	.	4r	.	.	.	.	.	8cc/L	.	(4f/	.	(4A-/	.	(4.D\	.
.	.	.	.	.	.	.	.	.	.	.	.	.	.	8b-/)	.	.	.	.	.	.	.
8r	.	.	.	.	8r	8r	.	8r	.	.	.	.	.	8f'/J	.	8B-/)	.	8D/)	.	.	.
=93	=93	=93	=93	=93	=93	=93	=93	=93	=93	=93	=93	=93	=93	=93	=93	=93	=93	=93	=93	=93	=93
(8ccc\L	.	2.r	2.r	.	(8dd/L	2.r	.	(8c/L	2.r	.	4r	2ryy	.	(8a-/L	.	8e-/	.	8E-/	.	8E-\)	.
8ddd-\	.	.	.	.	8ee-/	.	.	8d-/	.	.	.	.	.	8g/J)	.	8r	.	8r	.	8r	.
8eeen\J	.	.	.	.	8ff#/J	.	.	8en/J	.	.	8r	.	.	8r	.	8r	.	8r	.	8r	.
8fff\L	.	.	.	.	8gg/L	.	.	8f/L	.	.	8r	.	.	4r	.	8B-/	.	8G/	.	8GG/	.
*	*	*	*	*	*	*	*	*	*	*	*clefF4	*	*	*	*	*	*	*	*	*	*
8eee-\J)	.	.	.	.	8ffn/J)	.	.	8e-/J)	.	.	8E-/L	8EE-/L	.	.	.	8r	.	8r	.	8r	.
8r	.	.	.	.	8r	.	.	8r	.	.	8E-/J	8EE-/J	.	8r	.	8r	.	(8e-\	.	(8e-\	.
=94	=94	=94	=94	=94	=94	=94	=94	=94	=94	=94	=94	=94	=94	=94	=94	=94	=94	=94	=94	=94	=94
2.r	.	2.r	2.r	.	2.r	2.r	.	2.r	2.r	.	8E-/L	8EE-/L	.	8r	.	8r	.	4Bn/	.	4Bn\	.
.	.	.	.	.	.	.	.	.	.	.	8E-/	8EE-/	.	(8gg\L	.	(8g/L	.	.	.	.	.
.	.	.	.	.	.	.	.	.	.	.	8E-/J	8EE-/J	.	8aa-\J)	.	8a-/J)	.	8c\)	.	8c\)	.
.	.	.	.	.	.	.	.	.	.	.	8E-/L	8EE-/L	.	(32aa-P/LLL	.	(32a-P/LLL	.	4r	.	4r	.
.	.	.	.	.	.	.	.	.	.	.	.	.	.	32bb-P/JJJ	.	32b-P/JJJ	.	.	.	.	.
.	.	.	.	.	.	.	.	.	.	.	.	.	.	8cccp\L)	.	8ccp\L)	.	.	.	.	.
.	.	.	.	.	.	.	.	.	.	.	8E-/	8EE-/	.	.	.	.	.	.	.	.	.
.	.	.	.	.	.	.	.	.	.	.	.	.	.	16bb-\k	.	16b-\k	.	.	.	.	.
.	.	.	.	.	.	.	.	.	.	.	8E-/J	8EE-/J	.	8aa-\J	.	8a-\J	.	(8e-\	.	(8e-\	.
=95	=95	=95	=95	=95	=95	=95	=95	=95	=95	=95	=95	=95	=95	=95	=95	=95	=95	=95	=95	=95	=95
2.r	.	2.r	2.r	.	2.r	2.r	.	2.r	2.r	.	8E-/L	8EEE-/L	.	8r	.	8r	.	4An/	.	4An\	.
.	.	.	.	.	.	.	.	.	.	.	8E-/	8EEE-/	.	(8ff#\L	.	(8f#/L	.	.	.	.	.
.	.	.	.	.	.	.	.	.	.	.	8E-/J	8EEE-/J	.	8gg\J)	.	8g/J)	.	8B-/)	.	8B-\)	.
.	.	.	.	.	.	.	.	.	.	.	8E-/L	8EEE-/L	.	(32ggP/LLL	.	(32gP/LLL	.	4r	.	4r	.
.	.	.	.	.	.	.	.	.	.	.	.	.	.	32aa-P/JJJ	.	32a-P/JJJ	.	.	.	.	.
.	.	.	.	.	.	.	.	.	.	.	.	.	.	8bb-p\L)	.	8b-p/L)	.	.	.	.	.
.	.	.	.	.	.	.	.	.	.	.	8E-/	8EEE-/	.	.	.	.	.	.	.	.	.
.	.	.	.	.	.	.	.	.	.	.	.	.	.	16aa-\k	.	16a-/k	.	.	.	.	.
.	.	.	.	.	.	.	.	.	.	.	8E-/J	8EEE-/J	.	8gg\J	.	8g/J	.	8r	.	8e-\	.
=96	=96	=96	=96	=96	=96	=96	=96	=96	=96	=96	=96	=96	=96	=96	=96	=96	=96	=96	=96	=96	=96
8r	.	8r	8ryy	.	8r	8ryy	.	8r	8r	.	8r	8ryy	.	8r	.	8r	.	8r	.	(32d\LLL	.
.	.	.	.	.	.	.	.	.	.	.	.	.	.	.	.	.	.	.	.	32f\JJJ)	.
.	.	.	.	.	.	.	.	.	.	.	.	.	.	.	.	.	.	.	.	16r	.
(8dddnz\L	z	4bb-z/	(8ff\L	z	(8eenz/L	4cc\	z	(8dnz\L	8A-\L	z	(8fz/L	4B-\	z	(16ffnz\LL	z	(16dz/LL	z	4b-z\	z	(8A-z\L	z
.	.	.	.	.	.	.	.	.	.	.	.	.	.	16dd\	.	16fn/	.	.	.	.	.
8eee-\J)	.	.	8gg\J)	.	8ff/J)	.	.	8e-\J)	8G\J	.	8g/J)	.	.	16ee-\	.	16g/	.	.	.	8G\J)	.
.	.	.	.	.	.	.	.	.	.	.	.	.	.	16gg\JJ)	.	16e-/JJ)	.	.	.	.	.
8r	.	8r	8ryy	.	8r	8ryy	.	8r	8r	.	8r	8ryy	.	8r	.	8r	.	8r	.	(32d\LLL	.
.	.	.	.	.	.	.	.	.	.	.	.	.	.	.	.	.	.	.	.	32f\JJJ)	.
.	.	.	.	.	.	.	.	.	.	.	.	.	.	.	.	.	.	.	.	16r	.
(8dddz\L	z	4bb-z/	(8ff\L	z	(8eez/L	4cc\	z	(8dz\L	8A-\L	z	(8fz/L	4BB-\	z	(16ffz\LL	z	(16dz/LL	z	4b-z\	z	(8A-z\L	z
.	.	.	.	.	.	.	.	.	.	.	.	.	.	16dd\	.	16f/	.	.	.	.	.
8eee-\J)	.	.	8gg\J)	.	8ff/J)	.	.	8e-\J)	8G\J	.	8g/J)	.	.	16ee-\	.	16g/	.	.	.	8G\J)	.
.	.	.	.	.	.	.	.	.	.	.	.	.	.	16gg\JJ)	.	16e-/JJ)	.	.	.	.	.
=97	=97	=97	=97	=97	=97	=97	=97	=97	=97	=97	=97	=97	=97	=97	=97	=97	=97	=97	=97	=97	=97
2.r	.	2.r	2.r	.	2.r	2.r	.	2.r	2.r	.	2.r	2.r	.	(32ff\LLL	p	(32ff\LLL	p	(4an\	p	2.C/	p
.	.	.	.	.	.	.	.	.	.	.	.	.	.	32ee-\JJJ)	.	32ee-\JJJ)	.	.	.	.	.
.	.	.	.	.	.	.	.	.	.	.	.	.	.	16r	.	16r	.	.	.	.	.
.	.	.	.	.	.	.	.	.	.	.	.	.	.	(32dd\LLL	.	(32dd\LLL	.	.	.	.	.
.	.	.	.	.	.	.	.	.	.	.	.	.	.	32cc\JJJ)	.	32cc\JJJ)	.	.	.	.	.
.	.	.	.	.	.	.	.	.	.	.	.	.	.	16r	.	16r	.	.	.	.	.
.	.	.	.	.	.	.	.	.	.	.	.	.	.	(32b-/LLL	.	(32b-/LLL	.	8e-\)	.	.	.
.	.	.	.	.	.	.	.	.	.	.	.	.	.	32an/JJJ)	.	32an/JJJ)	.	.	.	.	.
.	.	.	.	.	.	.	.	.	.	.	.	.	.	16r	.	16r	.	.	.	.	.
.	.	.	.	.	.	.	.	.	.	.	.	.	.	(32g/LLL	.	(32g/LLL	.	(4An/	.	.	.
.	.	.	.	.	.	.	.	.	.	.	.	.	.	32f/JJJ)	.	32f/JJJ)	.	.	.	.	.
.	.	.	.	.	.	.	.	.	.	.	.	.	.	16r	.	16r	.	.	.	.	.
.	.	.	.	.	.	.	.	.	.	.	.	.	.	(32e-/LLL	.	(32e-/LLL	.	.	.	.	.
.	.	.	.	.	.	.	.	.	.	.	.	.	.	32d/JJJ)	.	32d/JJJ)	.	.	.	.	.
.	.	.	.	.	.	.	.	.	.	.	.	.	.	16r	.	16r	.	.	.	.	.
.	.	.	.	.	.	.	.	.	.	.	.	.	.	(32c/LLL	.	(32c/LLL	.	8c\)	.	.	.
.	.	.	.	.	.	.	.	.	.	.	.	.	.	32B-/JJJ)	.	32B-/JJJ)	.	.	.	.	.
.	.	.	.	.	.	.	.	.	.	.	.	.	.	16r	.	16r	.	.	.	.	.
=98	=98	=98	=98	=98	=98	=98	=98	=98	=98	=98	=98	=98	=98	=98	=98	=98	=98	=98	=98	=98	=98
2.r	.	2.r	2.r	.	4r	2.r	.	4r	2.r	.	2.r	2.r	.	(8An/L	.	(8An/L	.	(4E-/	.	[4.BB-/	.
.	.	.	.	.	.	.	.	.	.	.	.	.	.	8c/	.	8c/	.	.	.	.	.
.	.	.	.	.	8r	.	.	8r	.	.	.	.	.	8B-/J)	.	8B-/J)	.	8D/)	.	.	.
.	.	.	.	.	8r	.	.	8r	.	.	.	.	.	8B-/	.	8B-/	.	8D/	.	8BB-/]	.
.	.	.	.	.	(32bn/LLL	.	p	(32An/LLL	.	p	.	.	.	8r	.	8r	.	8r	.	8r	.
.	.	.	.	.	32cc/JJJ)	.	.	32B-/JJJ)	.	.	.	.	.	.	.	.	.	.	.	.	.
.	.	.	.	.	16r	.	.	16r	.	.	.	.	.	.	.	.	.	.	.	.	.
.	.	.	.	.	(32dd/LLL	.	.	(32c/LLL	.	.	.	.	.	8r	.	8r	.	8r	.	8r	.
.	.	.	.	.	32cc/JJJ)	.	.	32B-/JJJ)	.	.	.	.	.	.	.	.	.	.	.	.	.
.	.	.	.	.	16r	.	.	16r	.	.	.	.	.	.	.	.	.	.	.	.	.
=99	=99	=99	=99	=99	=99	=99	=99	=99	=99	=99	=99	=99	=99	=99	=99	=99	=99	=99	=99	=99	=99
2.r	.	2.r	2.r	.	8r	2.r	.	8r	2.r	.	2.r	2.r	.	8cc-\	.	8g-/	.	8e-\	.	8B-\	.
.	.	.	.	.	(32cc/LLL	.	.	(32B-/LLL	.	.	.	.	.	8r	.	8r	.	8r	.	8r	.
.	.	.	.	.	32dd-/JJJ)	.	.	32c-/JJJ)	.	.	.	.	.	.	.	.	.	.	.	.	.
.	.	.	.	.	16r	.	.	16r	.	.	.	.	.	.	.	.	.	.	.	.	.
.	.	.	.	.	(32ee-/LLL	.	.	(32d-/LLL	.	.	.	.	.	8r	.	8r	.	8r	.	8r	.
.	.	.	.	.	32dd-/JJJ)	.	.	32c-/JJJ)	.	.	.	.	.	.	.	.	.	.	.	.	.
.	.	.	.	.	16r	.	.	16r	.	.	.	.	.	.	.	.	.	.	.	.	.
.	.	.	.	.	8r	.	.	8r	.	.	.	.	.	8cc-\	.	8f/	.	8d-\	.	8A-\	.
.	.	.	.	.	(32ddn/LLL	.	.	(32cn/LLL	.	.	.	.	.	8r	.	8r	.	8r	.	8r	.
.	.	.	.	.	32ee-/JJJ)	.	.	32d-/JJJ)	.	.	.	.	.	.	.	.	.	.	.	.	.
.	.	.	.	.	16r	.	.	16r	.	.	.	.	.	.	.	.	.	.	.	.	.
.	.	.	.	.	(32ff/LLL	.	.	(32e-/LLL	.	.	.	.	.	8r	.	8r	.	8d-\	.	8r	.
.	.	.	.	.	32ee-/JJJ)	.	.	32d-/JJJ)	.	.	.	.	.	.	.	.	.	.	.	.	.
.	.	.	.	.	16r	.	.	16r	.	.	.	.	.	.	.	.	.	.	.	.	.
=100	=100	=100	=100	=100	=100	=100	=100	=100	=100	=100	=100	=100	=100	=100	=100	=100	=100	=100	=100	=100	=100
2.r	.	2.r	2.r	.	8r	2.r	.	2.r	2.r	.	2.r	2.r	.	2.r	.	4r	.	8g-\L	.	8G-\	.
.	.	.	.	.	(32ccc/LLL	.	.	.	.	.	.	.	.	.	.	.	.	8g-\	.	8r	.
.	.	.	.	.	32bb-/JJJ)	.	.	.	.	.	.	.	.	.	.	.	.	.	.	.	.
.	.	.	.	.	16r	.	.	.	.	.	.	.	.	.	.	.	.	.	.	.	.
.	.	.	.	.	(32aa-/LLL	.	.	.	.	.	.	.	.	.	.	8r	.	8g-\J	.	8r	.
.	.	.	.	.	32gg/JJJ)	.	.	.	.	.	.	.	.	.	.	.	.	.	.	.	.
.	.	.	.	.	16r	.	.	.	.	.	.	.	.	.	.	.	.	.	.	.	.
.	.	.	.	.	(32ff/LLL	.	.	.	.	.	.	.	.	.	.	4r	.	8g-\L	.	8B-\	.
.	.	.	.	.	32ee-/JJJ)	.	.	.	.	.	.	.	.	.	.	.	.	.	.	.	.
.	.	.	.	.	16r	.	.	.	.	.	.	.	.	.	.	.	.	.	.	.	.
.	.	.	.	.	(32dd-/LLL	.	.	.	.	.	.	.	.	.	.	.	.	8g-\	.	8r	.
.	.	.	.	.	32cc/JJJ)	.	.	.	.	.	.	.	.	.	.	.	.	.	.	.	.
.	.	.	.	.	16r	.	.	.	.	.	.	.	.	.	.	.	.	.	.	.	.
.	.	.	.	.	(32b-/LLL	.	.	.	.	.	.	.	.	.	.	8d-/	.	8g-\J	.	8r	.
.	.	.	.	.	32a-/JJJ)	.	.	.	.	.	.	.	.	.	.	.	.	.	.	.	.
.	.	.	.	.	16r	.	.	.	.	.	.	.	.	.	.	.	.	.	.	.	.
=101	=101	=101	=101	=101	=101	=101	=101	=101	=101	=101	=101	=101	=101	=101	=101	=101	=101	=101	=101	=101	=101
2.r	.	2.r	2.r	.	2.r	2.r	.	8r	2.r	.	2.r	2.r	.	4r	.	8a-/L	.	(4.g-\	.	8d-\	.
.	.	.	.	.	.	.	.	(32f/LLL	.	.	.	.	.	.	.	8a-/	.	.	.	8r	.
.	.	.	.	.	.	.	.	32e-/JJJ)	.	.	.	.	.	.	.	.	.	.	.	.	.
.	.	.	.	.	.	.	.	16r	.	.	.	.	.	.	.	.	.	.	.	.	.
.	.	.	.	.	.	.	.	(32d-/LLL	.	.	.	.	.	8d-/	.	8a-/J	.	.	.	8r	.
.	.	.	.	.	.	.	.	32c/JJJ)	.	.	.	.	.	.	.	.	.	.	.	.	.
.	.	.	.	.	.	.	.	16r	.	.	.	.	.	.	.	.	.	.	.	.	.
.	.	.	.	.	.	.	.	(32B-/LLL	.	.	.	.	.	8dd-\L	.	[4.a-/	.	4.f\)	.	8D-\	.
.	.	.	.	.	.	.	.	32A-/JJJ)	.	.	.	.	.	.	.	.	.	.	.	.	.
.	.	.	.	.	.	.	.	16r	.	.	.	.	.	.	.	.	.	.	.	.	.
.	.	.	.	.	.	.	.	(32G-/LLL	.	.	.	.	.	8dd-\	.	.	.	.	.	8r	.
.	.	.	.	.	.	.	.	32F/JJJ)	.	.	.	.	.	.	.	.	.	.	.	.	.
.	.	.	.	.	.	.	.	16r	.	.	.	.	.	.	.	.	.	.	.	.	.
.	.	.	.	.	.	.	.	(32E-/LLL	.	.	.	.	.	8dd-\J	.	.	.	.	.	8r	.
.	.	.	.	.	.	.	.	32D-/JJJ)	.	.	.	.	.	.	.	.	.	.	.	.	.
.	.	.	.	.	.	.	.	16r	.	.	.	.	.	.	.	.	.	.	.	.	.
=102	=102	=102	=102	=102	=102	=102	=102	=102	=102	=102	=102	=102	=102	=102	=102	=102	=102	=102	=102	=102	=102
8r	.	2.r	2.r	.	2.r	2.r	.	2.r	2.r	.	2.r	2.r	.	(4.dd-\	.	4a-/]	.	4.e-\	.	8A-\	.
(32eee-\LLL	p	.	.	.	.	.	.	.	.	.	.	.	.	.	.	.	.	.	.	8r	.
32ddd-\JJJ)	.	.	.	.	.	.	.	.	.	.	.	.	.	.	.	.	.	.	.	.	.
16r	.	.	.	.	.	.	.	.	.	.	.	.	.	.	.	.	.	.	.	.	.
(32ccc-\LLL	.	.	.	.	.	.	.	.	.	.	.	.	.	.	.	8a-/	.	.	.	8r	.
32bb-\JJJ)	.	.	.	.	.	.	.	.	.	.	.	.	.	.	.	.	.	.	.	.	.
16r	.	.	.	.	.	.	.	.	.	.	.	.	.	.	.	.	.	.	.	.	.
(32aa-\LLL	.	.	.	.	.	.	.	.	.	.	.	.	.	4.cc-\)	.	8aa-\L	.	[4.ee-\	.	8c-\	.
32gg-\JJJ)	.	.	.	.	.	.	.	.	.	.	.	.	.	.	.	.	.	.	.	.	.
16r	.	.	.	.	.	.	.	.	.	.	.	.	.	.	.	.	.	.	.	.	.
(32ff-\LLL	.	.	.	.	.	.	.	.	.	.	.	.	.	.	.	8aa-\	.	.	.	8r	.
32ee-\JJJ)	.	.	.	.	.	.	.	.	.	.	.	.	.	.	.	.	.	.	.	.	.
16r	.	.	.	.	.	.	.	.	.	.	.	.	.	.	.	.	.	.	.	.	.
(32dd-\LLL	.	.	.	.	.	.	.	.	.	.	.	.	.	.	.	8aa-\J	.	.	.	8r	.
32cc-\JJJ)	.	.	.	.	.	.	.	.	.	.	.	.	.	.	.	.	.	.	.	.	.
16r	.	.	.	.	.	.	.	.	.	.	.	.	.	.	.	.	.	.	.	.	.
=103	=103	=103	=103	=103	=103	=103	=103	=103	=103	=103	=103	=103	=103	=103	=103	=103	=103	=103	=103	=103	=103
4r	.	2.r	2.r	.	8r	2.r	.	4r	2.r	.	2.r	2.r	.	4b-\	.	(4.aa-\	.	(4.ee-\]	.	8e-\	.
.	.	.	.	.	(32ccc/LLL	.	.	.	.	.	.	.	.	.	.	.	.	.	.	8r	.
.	.	.	.	.	32bb-/JJJ)	.	.	.	.	.	.	.	.	.	.	.	.	.	.	.	.
.	.	.	.	.	16r	.	.	.	.	.	.	.	.	.	.	.	.	.	.	.	.
8r	.	.	.	.	(32aa-/LLL	.	.	8r	.	.	.	.	.	8ee-\	.	.	.	.	.	8r	.
.	.	.	.	.	32gg/JJJ)	.	.	.	.	.	.	.	.	.	.	.	.	.	.	.	.
.	.	.	.	.	16r	.	.	.	.	.	.	.	.	.	.	.	.	.	.	.	.
(32eee-\LLL	.	.	.	.	(32ff/LLL	.	.	(32e-/LLL	.	.	.	.	.	8eee-\L	.	4.gg-\)	.	4.b-\)	.	8E-\	.
32ddd-\JJJ)	.	.	.	.	32ee-/JJJ)	.	.	32d-/JJJ)	.	.	.	.	.	.	.	.	.	.	.	.	.
16r	.	.	.	.	16r	.	.	16r	.	.	.	.	.	.	.	.	.	.	.	.	.
(32ccc-\LLL	.	.	.	.	(32dd-/LLL	.	.	(32c-/LLL	.	.	.	.	.	8eee-\	.	.	.	.	.	8r	.
32bb-\JJJ)	.	.	.	.	32cc/JJJ)	.	.	32B-/JJJ)	.	.	.	.	.	.	.	.	.	.	.	.	.
16r	.	.	.	.	16r	.	.	16r	.	.	.	.	.	.	.	.	.	.	.	.	.
(32aa-\LLL	.	.	.	.	(32b-/LLL	.	.	(32A-/LLL	.	.	.	.	.	8eee-\J	.	.	.	.	.	8r	.
32gg-\JJJ)	.	.	.	.	32a-/JJJ)	.	.	32G-/JJJ)	.	.	.	.	.	.	.	.	.	.	.	.	.
16r	.	.	.	.	16r	.	.	16r	.	.	.	.	.	.	.	.	.	.	.	.	.
=104	=104	=104	=104	=104	=104	=104	=104	=104	=104	=104	=104	=104	=104	=104	=104	=104	=104	=104	=104	=104	=104
[4.fff-\	f	4.ccc-\	4.aa-\	ff	2.gg-/	(4.ff\	f	4.f-\	4.c-\	ff	4.e-/	4.E-/	f	8eee-\	f	8ff-\L	f	8cc-\L	f	8A-\L	f
.	.	.	.	.	.	.	.	.	.	.	.	.	.	(32fff-\LLL	.	8ff-\	.	8cc-\	.	8A-\	.
.	.	.	.	.	.	.	.	.	.	.	.	.	.	32eee-\JJJ)	.	.	.	.	.	.	.
.	.	.	.	.	.	.	.	.	.	.	.	.	.	16r	.	.	.	.	.	.	.
.	.	.	.	.	.	.	.	.	.	.	.	.	.	(32ddd-\LLL	.	8ff-\J	.	8cc-\J	.	8A-\J	.
.	.	.	.	.	.	.	.	.	.	.	.	.	.	32ccc-\JJJ)	.	.	.	.	.	.	.
.	.	.	.	.	.	.	.	.	.	.	.	.	.	16r	.	.	.	.	.	.	.
(4fff-\]	.	(4ddd-\	(4gg-\	.	.	4.ee-\)	.	4.d-\	4.G-\	.	4.g-\	4.f-\	.	(32bb-\LLL	.	8dd-\L	.	8g-\L	.	8B-\L	.
.	.	.	.	.	.	.	.	.	.	.	.	.	.	32aa-\JJJ)	.	.	.	.	.	.	.
.	.	.	.	.	.	.	.	.	.	.	.	.	.	16r	.	.	.	.	.	.	.
.	.	.	.	.	.	.	.	.	.	.	.	.	.	(32gg-\LLL	.	8dd-\	.	8g-\	.	8B-\	.
.	.	.	.	.	.	.	.	.	.	.	.	.	.	32ff-\JJJ)	.	.	.	.	.	.	.
.	.	.	.	.	.	.	.	.	.	.	.	.	.	16r	.	.	.	.	.	.	.
8ff-\)	.	8dd-\)	8g-\)	.	.	.	.	.	.	.	.	.	.	(32ee-\LLL	.	8g-\J	.	8B-\J	.	8B-\J	.
.	.	.	.	.	.	.	.	.	.	.	.	.	.	32dd-\JJJ)	.	.	.	.	.	.	.
.	.	.	.	.	.	.	.	.	.	.	.	.	.	16r	.	.	.	.	.	.	.
=105	=105	=105	=105	=105	=105	=105	=105	=105	=105	=105	=105	=105	=105	=105	=105	=105	=105	=105	=105	=105	=105
(32ee-\LLL	.	(32ee-\LLL	32e-\LLL	.	(32ff\LLL	32f\LLL	.	(32E-/LLL	(32E-\LLL	.	8e-/L	8E-/L	.	8ee-\L	.	8g-\L	.	8c-\L	.	8c-\L	.
32ffn\JJJ)	.	32ffn\JJJ)	32fn\JJJ	.	32ggn\JJJ)	32gn\JJJ	.	32Fn/JJJ)	32Fn\JJJ)	.	.	.	.	.	.	.	.	.	.	.	.
16r	.	16r	16r	.	16r	16r	.	16r	16r	.	.	.	.	.	.	.	.	.	.	.	.
(32gg-\LLL	.	(32gg-\LLL	32g-\LLL	.	(32aa-\LLL	32a-\LLL	.	(32G-/LLL	(32G-\LLL	.	8e-/	8E-/	.	8eee-\	.	8ee-\	.	8c-\	.	8c-\	.
32ff\JJJ)	.	32ff\JJJ)	32f\JJJ	.	32gg\JJJ)	32g\JJJ	.	32F/JJJ)	32F\JJJ)	.	.	.	.	.	.	.	.	.	.	.	.
16r	.	16r	16r	.	16r	16r	.	16r	16r	.	.	.	.	.	.	.	.	.	.	.	.
(32gg-\LLL	.	(32gg-\LLL	32g-\LLL	.	(32aa-\LLL	32a-\LLL	.	(32G-/LLL	(32G-\LLL	.	8e-/J	8E-/J	.	8eee-\J	.	8ee-\J	.	8c-\J	.	8c-\J	.
32ggn\JJJ)	.	32ggn\JJJ)	32gn\JJJ	.	32aan\JJJ)	32an\JJJ	.	32Gn/JJJ)	32Gn\JJJ)	.	.	.	.	.	.	.	.	.	.	.	.
16r	.	16r	16r	.	16r	16r	.	16r	16r	.	.	.	.	.	.	.	.	.	.	.	.
(32aa-\LLL	.	(32aa-\LLL	32a-\LLL	.	(32bb-\LLL	32b-\LLL	.	(32A-/LLL	(32A-\LLL	.	8e-/L	8E-/L	.	8eee-\L	.	8ee-\L	.	8c-\L	.	8c-\L	.
32gg\JJJ)	.	32gg\JJJ)	32g\JJJ	.	32aa\JJJ)	32a\JJJ	.	32G/JJJ)	32G\JJJ)	.	.	.	.	.	.	.	.	.	.	.	.
16r	.	16r	16r	.	16r	16r	.	16r	16r	.	.	.	.	.	.	.	.	.	.	.	.
(32aa-\LLL	.	(32aa-\LLL	32a-\LLL	.	(32bb-\LLL	32b-\LLL	.	(32A-/LLL	(32A-\LLL	.	8e-/	8E-/	.	8eee-\	.	8ee-\	.	8c-\	.	8c-\	.
32aan\JJJ)	.	32aan\JJJ)	32an\JJJ	.	32bbn\JJJ)	32bn\JJJ	.	32An/JJJ)	32An\JJJ)	.	.	.	.	.	.	.	.	.	.	.	.
16r	.	16r	16r	.	16r	16r	.	16r	16r	.	.	.	.	.	.	.	.	.	.	.	.
(32bb-\LLL	.	(32bb-\LLL	32b-\LLL	.	(32ccc\LLL	32cc\LLL	.	(32B-/LLL	(32B-\LLL	.	8e-/J	8E-/J	.	8eee-\J	.	8ee-\J	.	8c-\J	.	8c-\J	.
32aa\JJJ)	.	32aa\JJJ)	32a\JJJ	.	32bb\JJJ)	32b\JJJ	.	32A/JJJ)	32A\JJJ)	.	.	.	.	.	.	.	.	.	.	.	.
16r	.	16r	16r	.	16r	16r	.	16r	16r	.	.	.	.	.	.	.	.	.	.	.	.
=106	=106	=106	=106	=106	=106	=106	=106	=106	=106	=106	=106	=106	=106	=106	=106	=106	=106	=106	=106	=106	=106
8bb-\L	.	8bb-\L	8b-\L	.	8ccc\L	8cc\L	.	8B-/L	8B-\L	.	8e-/L	8E-/L	.	8eee-\	.	8ee-\ 8gn\L	.	8B-/L	.	8B-\L	.
8eee-\	.	8gg\	8b-\	.	8ff\	8a\	.	8e-/	8G\	.	8B-/	8BB-/	.	(32B-/LLL	.	8ee-\ 8g\	.	8B-/	.	8B-\	.
.	.	.	.	.	.	.	.	.	.	.	.	.	.	32e-/JJJ)	.	.	.	.	.	.	.
.	.	.	.	.	.	.	.	.	.	.	.	.	.	16r	.	.	.	.	.	.	.
8eee-\J	.	8gg\J	8b-\J	.	8ff\J	8a\J	.	8e-/J	8G\J	.	8B-/J	8BB-/J	.	(32e-/LLL	.	8ee-\ 8g\J	.	8B-/J	.	8B-\J	.
.	.	.	.	.	.	.	.	.	.	.	.	.	.	32gn/JJJ)	.	.	.	.	.	.	.
.	.	.	.	.	.	.	.	.	.	.	.	.	.	16r	.	.	.	.	.	.	.
8eee-\L	.	8gg\L	8b-\L	.	8ff\L	8a\L	.	8e-\L	8G\L	.	8B-/L	8BB-/L	.	(32g/LLL	.	8ee-\ 8g\L	.	8B-/L	.	8B-\L	.
.	.	.	.	.	.	.	.	.	.	.	.	.	.	32b-/JJJ)	.	.	.	.	.	.	.
.	.	.	.	.	.	.	.	.	.	.	.	.	.	16r	.	.	.	.	.	.	.
8eee-\	.	8gg\	8b-\	.	8ff\	8a\	.	8e-\	8G\	.	8B-/	8BB-/	.	(32b-\LLL	.	8ee-\ 8g\	.	8B-/	.	8B-\	.
.	.	.	.	.	.	.	.	.	.	.	.	.	.	32ee-\JJJ)	.	.	.	.	.	.	.
.	.	.	.	.	.	.	.	.	.	.	.	.	.	16r	.	.	.	.	.	.	.
8eee-\J	.	8gg\J	8b-\J	.	8ff\J	8a\J	.	8e-\J	8G\J	.	8B-/J	8BB-/J	.	(32ee-\LLL	.	8ee-\ 8g\J	.	8B-/J	.	8B-\J	.
.	.	.	.	.	.	.	.	.	.	.	.	.	.	32gg\JJJ)	.	.	.	.	.	.	.
.	.	.	.	.	.	.	.	.	.	.	.	.	.	16r	.	.	.	.	.	.	.
=107	=107	=107	=107	=107	=107	=107	=107	=107	=107	=107	=107	=107	=107	=107	=107	=107	=107	=107	=107	=107	=107
8eee-\	.	8gg\	8b-\	.	8ff\	8a\	.	8e-\	8G\	.	8B-/	8BB-/	.	(32gg\LLL	.	8ee-\ 8g\	.	8B-/	.	8B-\	.
.	.	.	.	.	.	.	.	.	.	.	.	.	.	32bb-\JJJ)	.	.	.	.	.	.	.
.	.	.	.	.	.	.	.	.	.	.	.	.	.	16r	.	.	.	.	.	.	.
8r	.	8r	8r	.	8r	8r	.	8r	8r	.	8r	8r	.	8r	.	8r	.	8r	.	8r	.
8r	.	8r	8r	.	8r	8r	.	8r	8r	.	8r	8r	.	8r	.	8r	.	8r	.	8r	.
4r	.	4r	4r	.	4r	4r	.	4r	4r	.	4r	4r	.	(8dd\L	p	4.a-/	p	4.f\	p	4.BB-/	p
.	.	.	.	.	.	.	.	.	.	.	.	.	.	8aa-\	.	.	.	.	.	.	.
8r	.	8r	8r	.	8r	8r	.	8r	8r	.	8r	8r	.	8ff\J)	.	.	.	.	.	.	.
=108	=108	=108	=108	=108	=108	=108	=108	=108	=108	=108	=108	=108	=108	=108	=108	=108	=108	=108	=108	=108	=108
2.r	.	2.r	2.r	.	2.r	2.r	.	2.r	2.r	.	2.r	2.r	.	(4eee-\	.	8r	.	8r	.	2.r	.
.	.	.	.	.	.	.	.	.	.	.	.	.	.	.	.	8ee-'\L	.	8g'\L	.	.	.
.	.	.	.	.	.	.	.	.	.	.	.	.	.	16bb-\)	.	8ee-'\J	.	8g'\J	.	.	.
.	.	.	.	.	.	.	.	.	.	.	.	.	.	16r	.	.	.	.	.	.	.
.	.	.	.	.	.	.	.	.	.	.	.	.	.	(4eee-\	.	8r	.	8r	.	.	.
.	.	.	.	.	.	.	.	.	.	.	.	.	.	.	.	8ee-'\L	.	8g'\L	.	.	.
.	.	.	.	.	.	.	.	.	.	.	.	.	.	16bb-\)	.	8ee-'\J	.	8g'\J	.	.	.
.	.	.	.	.	.	.	.	.	.	.	.	.	.	16r	.	.	.	.	.	.	.
=109	=109	=109	=109	=109	=109	=109	=109	=109	=109	=109	=109	=109	=109	=109	=109	=109	=109	=109	=109	=109	=109
2.r	.	2.r	2.r	.	2.r	2.r	.	2.r	2.r	.	2.r	2.r	.	(8.eee-\L	.	8r	.	8r	.	2.r	.
.	.	.	.	.	.	.	.	.	.	.	.	.	.	.	.	8ee-'\L	.	8g'\L	.	.	.
.	.	.	.	.	.	.	.	.	.	.	.	.	.	32ddd\LL	.	.	.	.	.	.	.
.	.	.	.	.	.	.	.	.	.	.	.	.	.	32ccc\JJJ	.	.	.	.	.	.	.
.	.	.	.	.	.	.	.	.	.	.	.	.	.	16bb-\)	.	8ee-'\J	.	8g'\J	.	.	.
.	.	.	.	.	.	.	.	.	.	.	.	.	.	16r	.	.	.	.	.	.	.
.	.	.	.	.	.	.	.	.	.	.	.	.	.	(8.eee-\L	.	8r	.	8r	.	.	.
.	.	.	.	.	.	.	.	.	.	.	.	.	.	.	.	8ee-'\L	.	8g'\L	.	.	.
.	.	.	.	.	.	.	.	.	.	.	.	.	.	32ddd\LL	.	.	.	.	.	.	.
.	.	.	.	.	.	.	.	.	.	.	.	.	.	32ccc\JJJ	.	.	.	.	.	.	.
.	.	.	.	.	.	.	.	.	.	.	.	.	.	16bb-\)	.	8ee-'\J	.	8g'\J	.	.	.
.	.	.	.	.	.	.	.	.	.	.	.	.	.	16r	.	.	.	.	.	.	.
=110	=110	=110	=110	=110	=110	=110	=110	=110	=110	=110	=110	=110	=110	=110	=110	=110	=110	=110	=110	=110	=110
2.r	.	2.r	2.r	.	2.r	2.r	.	2.r	2.r	.	2.r	2.r	.	8bb-'\L	.	[4.ff\	.	[4.d\	.	2.r	.
.	.	.	.	.	.	.	.	.	.	.	.	.	.	8bbn'\	.	.	.	.	.	.	.
.	.	.	.	.	.	.	.	.	.	.	.	.	.	8ccc'\J	.	.	.	.	.	.	.
!	!	!	!	!	!	!	!	!	!	!	!	!	!	! (32cccP/	!	!	!	!	!	!	!
.	.	.	.	.	.	.	.	.	.	.	.	.	.	4aa-p\)	.	8ff\L]	.	(4d\]	.	.	.
.	.	.	.	.	.	.	.	.	.	.	.	.	.	.	.	(8b-\	.	.	.	.	.
.	.	.	.	.	.	.	.	.	.	.	.	.	.	[8gg\	.	8bn\J	.	8e-\)	.	.	.
=111	=111	=111	=111	=111	=111	=111	=111	=111	=111	=111	=111	=111	=111	=111	=111	=111	=111	=111	=111	=111	=111
2.r	.	2.r	2.r	.	2.r	2.r	.	2.r	2.r	.	2.r	2.r	.	8gg\]	.	4cc\)	.	4.A-/	.	2.r	.
!	!	!	!	!	!	!	!	!	!	!	!	!	!	! (32ffP/	!	!	!	!	!	!	!
.	.	.	.	.	.	.	.	.	.	.	.	.	.	4aa-p\)	.	.	.	.	.	.	.
.	.	.	.	.	.	.	.	.	.	.	.	.	.	.	.	(32en/LLL	.	.	.	.	.
.	.	.	.	.	.	.	.	.	.	.	.	.	.	.	.	32g/JJJ)	.	.	.	.	.
.	.	.	.	.	.	.	.	.	.	.	.	.	.	.	.	16r	.	.	.	.	.
.	.	.	.	.	.	.	.	.	.	.	.	.	.	8r	.	(32f/LLL	.	8r	.	.	.
.	.	.	.	.	.	.	.	.	.	.	.	.	.	.	.	32a-/JJJ)	.	.	.	.	.
.	.	.	.	.	.	.	.	.	.	.	.	.	.	.	.	16r	.	.	.	.	.
.	.	.	.	.	.	.	.	.	.	.	.	.	.	(32cc\LLL	.	8r	.	8A-'/L	.	.	.
.	.	.	.	.	.	.	.	.	.	.	.	.	.	32ee-\JJJ)	.	.	.	.	.	.	.
.	.	.	.	.	.	.	.	.	.	.	.	.	.	16r	.	.	.	.	.	.	.
.	.	.	.	.	.	.	.	.	.	.	.	.	.	(32dd\LLL	.	(32f/LLL	.	8B-'/J	.	.	.
.	.	.	.	.	.	.	.	.	.	.	.	.	.	32ff\JJJ)	.	32d/JJJ)	.	.	.	.	.
.	.	.	.	.	.	.	.	.	.	.	.	.	.	16r	.	16r	.	.	.	.	.
=112	=112	=112	=112	=112	=112	=112	=112	=112	=112	=112	=112	=112	=112	=112	=112	=112	=112	=112	=112	=112	=112
4r	.	2.r	2.r	.	4r	2.r	.	(4e-/	2.r	p	2.r	2.r	.	(4ee-\	.	8r	.	8r	.	8r	.
.	.	.	.	.	.	.	.	.	.	.	.	.	.	.	.	8e-'/L	.	8B-'/L	.	8G'\L	.
8r	.	.	.	.	8r	.	.	16B-/)	.	.	.	.	.	16b-\)	.	8e-'/J	.	8B-'/J	.	8G'\J	.
.	.	.	.	.	.	.	.	16r	.	.	.	.	.	16r	.	.	.	.	.	.	.
(4eee-\	p	.	.	.	(4ff/	.	p	4r	.	.	.	.	.	(4ee-\	.	8r	.	8r	.	4r	.
.	.	.	.	.	.	.	.	.	.	.	.	.	.	.	.	8e-'/L	.	8G'/L	.	.	.
16bb-\)	.	.	.	.	16cc/)	.	.	8r	.	.	.	.	.	16b-\)	.	8e-'/J	.	8G'/J	.	8r	.
16r	.	.	.	.	16r	.	.	.	.	.	.	.	.	16r	.	.	.	.	.	.	.
=113	=113	=113	=113	=113	=113	=113	=113	=113	=113	=113	=113	=113	=113	=113	=113	=113	=113	=113	=113	=113	=113
4r	.	2.r	2.r	.	4r	2.r	.	(8.e-/L	2.r	.	2.r	2.r	.	(8.ee-\L	.	8r	.	8r	.	8r	.
.	.	.	.	.	.	.	.	.	.	.	.	.	.	.	.	8e-/L	.	8B-/L	.	8G\L	.
.	.	.	.	.	.	.	.	32d/LL	.	.	.	.	.	32dd\LL	.	.	.	.	.	.	.
.	.	.	.	.	.	.	.	32c/JJJ	.	.	.	.	.	32cc\JJJ	.	.	.	.	.	.	.
8r	.	.	.	.	8r	.	.	16B-/)	.	.	.	.	.	16b-\)	.	8e-/J	.	8B-/J	.	8G\J	.
.	.	.	.	.	.	.	.	16r	.	.	.	.	.	16r	.	.	.	.	.	.	.
(8.eee-\L	.	.	.	.	(8.ff/L	.	.	4r	.	.	.	.	.	(8.ee-\L	.	8r	.	8r	.	4r	.
.	.	.	.	.	.	.	.	.	.	.	.	.	.	.	.	8e-/L	.	8G/L	.	.	.
32ddd\LL	.	.	.	.	32ee/LL	.	.	.	.	.	.	.	.	32dd\LL	.	.	.	.	.	.	.
32ccc\JJJ	.	.	.	.	32dd/JJJ	.	.	.	.	.	.	.	.	32cc\JJJ	.	.	.	.	.	.	.
16bb-\)	.	.	.	.	16cc/)	.	.	8r	.	.	.	.	.	16b-\)	.	8e-/J	.	8G/J	.	8r	.
16r	.	.	.	.	16r	.	.	.	.	.	.	.	.	16r	.	.	.	.	.	.	.
=114	=114	=114	=114	=114	=114	=114	=114	=114	=114	=114	=114	=114	=114	=114	=114	=114	=114	=114	=114	=114	=114
16bb-'\LL	.	2.r	2.r	.	16cc'/LL	2.r	.	16B-'/LL	2.r	.	2.r	2.r	.	16b-'/LL	.	[4.f/	.	[4.D/	.	[4.D\	.
16aan'\	.	.	.	.	16bn'/	.	.	16An'/	.	.	.	.	.	16an'/	.	.	.	.	.	.	.
16bb-'\	.	.	.	.	16cc'/	.	.	16B-'/	.	.	.	.	.	16b-'/	.	.	.	.	.	.	.
16aa'\	.	.	.	.	16b'/	.	.	16A'/	.	.	.	.	.	16a'/	.	.	.	.	.	.	.
16bb-'\	.	.	.	.	16cc'/	.	.	16B-'/	.	.	.	.	.	16b-'/	.	.	.	.	.	.	.
16bbn'\JJ	.	.	.	.	16cc#'/JJ	.	.	16Bn'/JJ	.	.	.	.	.	16bn'/JJ	.	.	.	.	.	.	.
8ccc'\L	.	.	.	.	8dd'/L	.	.	8c'/L	.	.	.	.	.	8cc'/L	.	(4f/]	.	(4D/]	.	(4D\]	.
(8aa-\	.	.	.	.	(8b-/	.	.	(8A-/	.	.	.	.	.	(8a-/	.	.	.	.	.	.	.
8gg\J)	.	.	.	.	8a/J)	.	.	8G/J)	.	.	.	.	.	8g/J)	.	8e-/)	.	8E-/)	.	8E-\)	.
=115	=115	=115	=115	=115	=115	=115	=115	=115	=115	=115	=115	=115	=115	=115	=115	=115	=115	=115	=115	=115	=115
2.r	.	[2.gg-/	(4.cc-\	f	[2.a-/	[2.a-\	f	[2.G-/	(4.C-\	f	2.e-/	2.E-/	f	[2.g-/	f	8c-/L	f	8E-/L	f	8AA-/L	f
.	.	.	.	.	.	.	.	.	.	.	.	.	.	.	.	8c-/	.	8E-/	.	8AA-/	.
.	.	.	.	.	.	.	.	.	.	.	.	.	.	.	.	8c-/J	.	8E-/J	.	8AA-/J	.
.	.	.	4.ccn\	.	.	.	.	.	4.Cn\	.	.	.	.	.	.	8cn/L	.	8E-/L	.	8AAn/L	.
.	.	.	.	.	.	.	.	.	.	.	.	.	.	.	.	8c/	.	8E-/	.	8AA/	.
.	.	.	.	.	.	.	.	.	.	.	.	.	.	.	.	8c/J	.	8E-/J	.	8AA/J	.
=116	=116	=116	=116	=116	=116	=116	=116	=116	=116	=116	=116	=116	=116	=116	=116	=116	=116	=116	=116	=116	=116
(4.gg-\	.	(4.gg-/]	4.dd-\	.	(4.a-/]	(4.a-\]	.	(4.G-/]	2.D-\)	.	2.B-/	2.B-/	.	4.g-/]	.	8d-/L	.	8D-/L	.	8BB-/L	.
.	.	.	.	.	.	.	.	.	.	.	.	.	.	.	.	8d-/	.	8G-/	.	8BB-/	.
.	.	.	.	.	.	.	.	.	.	.	.	.	.	.	.	8d-/J	.	8G-/J	.	8BB-/J	.
4.ggn\)	.	4.dd-/)	4.ff-\)	.	4.a/	4.g-\	.	4.F-/	.	.	.	.	.	4.f-T/	.	8d-/L	.	8Gn/L	.	8BB-/L	.
.	.	.	.	.	.	.	.	.	.	.	.	.	.	.	.	8d-/	.	8G/	.	8BB-/	.
.	.	.	.	.	.	.	.	.	.	.	.	.	.	.	.	8d-/J	.	8G/J	.	8BB-/J	.
!	!	!	!	!	!	!	!	!	!	!	!	!	!	! (32e-P/LLL	!	!	!	!	!	!	!
!	!	!	!	!	!	!	!	!	!	!	!	!	!	! 32f-P/JJJ)	!	!	!	!	!	!	!
=117	=117	=117	=117	=117	=117	=117	=117	=117	=117	=117	=117	=117	=117	=117	=117	=117	=117	=117	=117	=117	=117
[4.eee-\	.	(4.aa-/	[2.ee-\	.	4.b-/	[4.f\)	.	[4.E-/)	[2.E-\	.	2.E-/	2.EEE-/	.	[4.e-p/	.	8c-/L	.	8A-/L	.	8C-/L	.
.	.	.	.	.	.	.	.	.	.	.	.	.	.	.	.	8e-/	.	8A-/	.	8C-/	.
.	.	.	.	.	.	.	.	.	.	.	.	.	.	.	.	8e-/J	.	8A-/J	.	8C-/J	.
(8eee-\L]	.	4.aan/	.	.	4.bn/	(8f\L]	.	(8E-/L]	.	.	.	.	.	8e-/]	.	8e-/L	.	8An/L	.	8Cn/L	.
8fff\	.	.	.	.	.	8gn\	.	8Fn/	.	.	.	.	.	(32en/LLL	.	8e-/	.	8A/	.	8C/	.
.	.	.	.	.	.	.	.	.	.	.	.	.	.	32f/JJJ)	.	.	.	.	.	.	.
.	.	.	.	.	.	.	.	.	.	.	.	.	.	16r	.	.	.	.	.	.	.
8ggg-\J)	.	.	.	.	.	8a-\J)	.	8G-/J)	.	.	.	.	.	(32f/LLL	.	8e-/J	.	8A/J	.	8C/J	.
.	.	.	.	.	.	.	.	.	.	.	.	.	.	32g-/JJJ)	.	.	.	.	.	.	.
.	.	.	.	.	.	.	.	.	.	.	.	.	.	16r	.	.	.	.	.	.	.
=118	=118	=118	=118	=118	=118	=118	=118	=118	=118	=118	=118	=118	=118	=118	=118	=118	=118	=118	=118	=118	=118
(4.gggn\	.	4.bb-/	(4.ee-\]	.	4.cc/	(4.an\	.	(4.Gn/	(4.E-\]	.	8B-/L	8BB-/L	.	(4gn/	.	(4e-/	.	8B-/L	.	8BB-/L	.
.	.	.	.	.	.	.	.	.	.	.	8B-/	8BB-/	.	.	.	.	.	8B-/	.	8BB-/	.
.	.	.	.	.	.	.	.	.	.	.	8B-/J	8BB-/J	.	32a-/LLL	.	32f/LLL	.	8B-/J	.	8BB-/J	.
.	.	.	.	.	.	.	.	.	.	.	.	.	.	32g/	.	32e-/	.	.	.	.	.
.	.	.	.	.	.	.	.	.	.	.	.	.	.	32f/	.	32dn/	.	.	.	.	.
.	.	.	.	.	.	.	.	.	.	.	.	.	.	32g/JJJ	.	32e-/JJJ	.	.	.	.	.
4.ddd\)	.	4.aa-/)	4.ffn\)	.	4.ee/)	4.b-\)	.	4.A-/)	4.F\)	.	8B-/L	8BB-/L	.	4a-/	.	4f/	.	8B-/L	.	8BB-/L	.
.	.	.	.	.	.	.	.	.	.	.	8B-/	8BB-/	.	.	.	.	.	(8B-/	.	8BB-/	.
.	.	.	.	.	.	.	.	.	.	.	8B-/J	8BB-/J	.	8f/)	.	8d/)	.	8A-/J)	.	8BB-/J	.
=119	=119	=119	=119	=119	=119	=119	=119	=119	=119	=119	=119	=119	=119	=119	=119	=119	=119	=119	=119	=119	=119
8eee-\	.	8ggn/	8ee-\	.	8ff/	8a\	.	8G/	8E-\	.	8B-/	8E-/	.	8e-/	.	8e-/	.	8G/	.	8E-\	.
8r	.	8r	8ryy	.	8r	8ryy	.	(32E-/LLL	8r	p	32e-/LLL	(32E-/LLL	pp	8r	.	8r	.	8r	.	8r	.
.	.	.	.	.	.	.	.	32G/JJJ)	.	.	32g/JJJ	32G/JJJ)	.	.	.	.	.	.	.	.	.
.	.	.	.	.	.	.	.	16r	.	.	16r	16r	.	.	.	.	.	.	.	.	.
8r	.	8r	8ryy	.	8r	8ryy	.	(32G/LLL	8r	.	(32g\LLL	32G\LLL	.	8r	.	8r	.	8r	.	8r	.
.	.	.	.	.	.	.	.	32B-/JJJ)	.	.	32b-\JJJ)	32B-\JJJ	.	.	.	.	.	.	.	.	.
.	.	.	.	.	.	.	.	16r	.	.	16r	16r	.	.	.	.	.	.	.	.	.
4r	.	4r	4ryy	.	4r	4ryy	.	8B-'/	4r	.	8b-'\	8B-\	.	16r	.	4r	.	4r	.	4r	.
.	.	.	.	.	.	.	.	.	.	.	.	.	.	16gg'\LL	p	.	.	.	.	.	.
.	.	.	.	.	.	.	.	8r	.	.	8r	8r	.	16ff'\	.	.	.	.	.	.	.
.	.	.	.	.	.	.	.	.	.	.	.	.	.	16ee-'\	.	.	.	.	.	.	.
8r	.	8r	8ryy	.	8r	8ryy	.	8r	8r	.	8r	8r	.	16dd'\	.	8r	.	8r	.	8r	.
.	.	.	.	.	.	.	.	.	.	.	.	.	.	16cc'\JJ	.	.	.	.	.	.	.
=120	=120	=120	=120	=120	=120	=120	=120	=120	=120	=120	=120	=120	=120	=120	=120	=120	=120	=120	=120	=120	=120
2.r	.	2.r	2.r	.	2.r	2.r	.	2.r	2.r	.	2.r	2.r	.	(4.b-\	.	(4.g/	p	(4.e-\	p	(2.B-\	p
.	.	.	.	.	.	.	.	.	.	.	.	.	.	8bn\L	.	4.f/	.	4.d\	.	.	.
.	.	.	.	.	.	.	.	.	.	.	.	.	.	8cc\	.	.	.	.	.	.	.
.	.	.	.	.	.	.	.	.	.	.	.	.	.	8a-\J	.	.	.	.	.	.	.
=121	=121	=121	=121	=121	=121	=121	=121	=121	=121	=121	=121	=121	=121	=121	=121	=121	=121	=121	=121	=121	=121
4r	.	2.r	2.r	.	8r	2.r	.	8r	2.r	.	8r	8r	.	8g/)	.	8g/)	.	8e-\)	.	8e-\)	.
.	.	.	.	.	(32ff/LLL	.	p	(32E-/LLL	.	.	32e-/LLL	(32E-/LLL	.	8r	.	8r	.	8r	.	8r	.
.	.	.	.	.	32aa/JJJ)	.	.	32G/JJJ)	.	.	32g/JJJ	32G/JJJ)	.	.	.	.	.	.	.	.	.
.	.	.	.	.	16r	.	.	16r	.	.	16r	16r	.	.	.	.	.	.	.	.	.
8r	.	.	.	.	(32aa/LLL	.	.	(32G/LLL	.	.	(32g\LLL	32G\LLL	.	8r	.	8r	.	8r	.	8r	.
.	.	.	.	.	32ccc/JJJ)	.	.	32B-/JJJ)	.	.	32b-\JJJ)	32B-\JJJ	.	.	.	.	.	.	.	.	.
.	.	.	.	.	16r	.	.	16r	.	.	16r	16r	.	.	.	.	.	.	.	.	.
16r	.	.	.	.	8ccc'/	.	.	8B-'/	.	.	8b-'\	8B-\	.	16r	.	4r	.	4r	.	4r	.
16eee-'\LL	p	.	.	.	.	.	.	.	.	.	.	.	.	16ee-'\LL	.	.	.	.	.	.	.
16ddd'\	.	.	.	.	8r	.	.	8r	.	.	8r	8r	.	16dd'\	.	.	.	.	.	.	.
16ccc'\	.	.	.	.	.	.	.	.	.	.	.	.	.	16cc'\	.	.	.	.	.	.	.
16bb-'\	.	.	.	.	8r	.	.	8r	.	.	8r	8r	.	16b-'\	.	8r	.	8r	.	8r	.
16aa-'\JJ	.	.	.	.	.	.	.	.	.	.	.	.	.	16a-'\JJ	.	.	.	.	.	.	.
=122	=122	=122	=122	=122	=122	=122	=122	=122	=122	=122	=122	=122	=122	=122	=122	=122	=122	=122	=122	=122	=122
(4gg\	.	2.r	2.r	.	2.r	2.r	.	2.r	2.r	.	2.r	2.r	.	(4g/	.	(4.e-/	.	(4.G/	.	[4.BB-/	.
32aa-\LLL	.	.	.	.	.	.	.	.	.	.	.	.	.	32a-/LLL	.	.	.	.	.	.	.
32gg\	.	.	.	.	.	.	.	.	.	.	.	.	.	32g/	.	.	.	.	.	.	.
32ff\	.	.	.	.	.	.	.	.	.	.	.	.	.	32f/	.	.	.	.	.	.	.
32gg\JJJ	.	.	.	.	.	.	.	.	.	.	.	.	.	32g/JJJ	.	.	.	.	.	.	.
8aa-\)	.	.	.	.	.	.	.	.	.	.	.	.	.	8a-/)	.	8d/)	.	8F/)	.	8BB-/]	.
8r	.	.	.	.	.	.	.	.	.	.	.	.	.	8r	.	8r	.	8r	.	8r	.
8r	.	.	.	.	.	.	.	.	.	.	.	.	.	8d'/	.	8r	.	8r	.	8r	.
=123	=123	=123	=123	=123	=123	=123	=123	=123	=123	=123	=123	=123	=123	=123	=123	=123	=123	=123	=123	=123	=123
(4.ddd\	.	(4.aa-\	(4.ff\	p	(4.ee\	(4.b-\	p	(4.f\	(4.A-\	pp	[4.B-/	[4.E-/	.	(4.f/	.	(4.d/	.	(4.A-/	.	[4.EE-/	.
8eee-\)	.	8gg\)	8ee-\)	.	8ff\)	8a/)	.	8e-\)	8G\)	.	8B-/]	8E-/]	.	8e-/)	.	8e-/)	.	8G/)	.	8EE-/]	.
8r	.	8r	8r	.	8r	8r	.	8r	8r	.	8r	8r	.	8r	.	8r	.	8r	.	8r	.
==:|!	==:|!	==:|!	==:|!	==:|!	==:|!	==:|!	==:|!	==:|!	==:|!	==:|!	==:|!	==:|!	==:|!	==:|!	==:|!	==:|!	==:|!	==:|!	==:|!	==:|!	==:|!
*-	*-	*-	*-	*-	*-	*-	*-	*-	*-	*-	*-	*-	*-	*-	*-	*-	*-	*-	*-	*-	*-
!!!RWG: Appoggiaturas of spine 'Violino I' need manual editing in measures: 20, 39, 40, 46, 110, 111, 117
!!!RWG: Appoggiaturas of spine 'Viola' need manual editing in measures: 4, 77
!!!RWG: Key is interpreted using the Humdrum key tool.
!!!AFT: stage2
!!!END: 1996/08/09
!!format changes:
!!content changes:
!!public access: complete
!!!KEY: 2339218943
!!!EMD: Converted from MuseData to Humdrum Dec 16, 2000, by Andreas Kornstaedt using muse2kern.
